(G-CODE GENERATED BY FLATCAM v8.91 - www.flatcam.org - Version Date: 2019/02/23)

(Name: Alignment Drills_cnc)
(Type: G-code from Excellon)
(Units: MM)

(Created on Saturday, 23 February 2019 at 23:30)

(Feedrate: 400.0 mm/min)
(Feedrate rapids 600.0 mm/min)

(Z_Cut: -7.0 mm)
(Z_Move: 2.0 mm)
(Z Toolchange: 5.0 mm)
(X,Y Toolchange: 0.0000, 0.0000 mm)
(Z Start: 20.0 mm)
(Z End: 20.0 mm)
(Steps per circle: 64)
(Postprocessor Excellon: default)

(X range:   -3.5000 ...  110.6000  mm)
(Y range:   35.5000 ...   38.5000  mm)

(Spindle Speed: 18000.0 RPM)
G94 ( Millimeters per minute feed rate. )
G21 ( Units == Millimeters. )
G90 ( Absolute coordinates. )
G64 P0.01000 ( set maximum deviation from commanded toolpath )
G21
G90
G94
G21
G90
G94
G21
G90
G94

G01 F400.00
M03 S18000.0
G00 X-2.0000 Y37.0000
G01 Z-7.0000
G01 Z0
G00 Z2.0000
G00 X109.1000 Y37.0000
G01 Z-7.0000
G01 Z0
G00 Z2.0000
M05
G00 Z20.00
G00 X0.0 Y0.0

G04 P0 ( dwell for no time -- G64 should not smooth over this point )
G00 Z10.000 ( retract )

M5 ( Spindle off. )
M9 ( Coolant off. )
M2 ( Program end. )