(G-CODE GENERATED BY FLATCAM v8.91 - www.flatcam.org - Version Date: 2019/02/23)

(Name: V3-B.Cu.gbr_iso_cnc)
(Type: G-code from Geometry)
(Units: MM)

(Created on Saturday, 23 February 2019 at 21:01)

(TOOL DIAMETER: 0.17 mm)
(Feedrate: 500.0 mm/min)
(Feedrate_Z: 5050.0 mm/min)
(Feedrate rapids 3.0 mm/min)

(Z_Cut: -0.1306 mm)
(Z_Move: 5.0 mm)
(Z Toolchange: 5.0 mm)
(X,Y Toolchange: 0.0000, 0.0000 mm)
(Z Start: 20.0 mm)
(Z End: 20.0 mm)
(Steps per circle: 64)
(Postprocessor Geometry: default)

(X range:    0.0338 ...  107.0662  mm)
(Y range:   -0.1972 ...   66.3683  mm)

(Spindle Speed: 18000 RPM)
G94 ( Millimeters per minute feed rate. )
G21 ( Units == Millimeters. )
G90 ( Absolute coordinates. )
G64 P0.01000 ( set maximum deviation from commanded toolpath )
G21
G90
G94
G21
G90
G94
G21
G90
G94

G01 F500.00
G00 Z5.0000
G00 Z20.0000
M03 S18000
G00 X0.0366 Y0.6900
G01 F5050.00
G01 Z-0.1306
G01 F500.00
G01 X0.0424 Y0.6288
G01 X0.0470 Y0.6026
G01 X0.0624 Y0.5410
G01 X0.0828 Y0.4829
G01 X0.0894 Y0.4668
G01 X0.1149 Y0.4143
G01 X0.1218 Y0.4018
G01 X0.1546 Y0.3496
G01 X0.1628 Y0.3380
G01 X0.2012 Y0.2899
G01 X0.2319 Y0.2569
G01 X0.2529 Y0.2370
G01 X0.2649 Y0.2262
G01 X0.2658 Y0.2272
G01 X0.3130 Y0.1878
G01 X0.3246 Y0.1796
G01 X0.3768 Y0.1468
G01 X0.3893 Y0.1399
G01 X0.4447 Y0.1132
G01 X0.4579 Y0.1078
G01 X0.5160 Y0.0874
G01 X0.5297 Y0.0835
G01 X0.5897 Y0.0698
G01 X0.6038 Y0.0674
G01 X0.6650 Y0.0605
G01 X0.7100 Y0.0588
G01 X72.1075 Y0.0588
G01 X72.1520 Y0.0605
G01 X72.1519 Y0.0615
G01 X72.2125 Y0.0672
G01 X72.2383 Y0.0717
G01 X72.2994 Y0.0868
G01 X72.3570 Y0.1067
G01 X72.3726 Y0.1131
G01 X72.4250 Y0.1382
G01 X72.4374 Y0.1450
G01 X72.4892 Y0.1771
G01 X72.5007 Y0.1851
G01 X72.5486 Y0.2228
G01 X72.5592 Y0.2321
G01 X72.6026 Y0.2748
G01 X72.6121 Y0.2852
G01 X72.6113 Y0.2859
G01 X72.6505 Y0.3324
G01 X72.6635 Y0.3503
G01 X72.6918 Y0.3951
G01 X72.6987 Y0.4073
G01 X72.7258 Y0.4619
G01 X72.7314 Y0.4748
G01 X72.7523 Y0.5320
G01 X72.7564 Y0.5455
G01 X72.7708 Y0.6047
G01 X72.7734 Y0.6186
G01 X72.7811 Y0.6790
G01 X72.7836 Y0.7337
G01 X73.7776 Y0.7337
G01 X73.7801 Y0.6790
G01 X73.7813 Y0.6791
G01 X73.7878 Y0.6186
G01 X73.7925 Y0.5939
G01 X73.8048 Y0.5455
G01 X73.8089 Y0.5320
G01 X73.8298 Y0.4748
G01 X73.8363 Y0.4597
G01 X73.8625 Y0.4073
G01 X73.8694 Y0.3951
G01 X73.9024 Y0.3438
G01 X73.9107 Y0.3324
G01 X73.9491 Y0.2852
G01 X73.9586 Y0.2748
G01 X74.0020 Y0.2321
G01 X74.0126 Y0.2228
G01 X74.0605 Y0.1851
G01 X74.0775 Y0.1733
G01 X74.1238 Y0.1450
G01 X74.1362 Y0.1382
G01 X74.1912 Y0.1121
G01 X74.2042 Y0.1067
G01 X74.2618 Y0.0868
G01 X74.2754 Y0.0830
G01 X74.3348 Y0.0695
G01 X74.3487 Y0.0672
G01 X74.4092 Y0.0605
G01 X74.4537 Y0.0588
G01 X78.5610 Y0.0588
G01 X78.6060 Y0.0605
G01 X78.6059 Y0.0616
G01 X78.6447 Y0.0648
G01 X78.6812 Y0.0698
G01 X78.6934 Y0.0720
G01 X78.7550 Y0.0874
G01 X78.8131 Y0.1078
G01 X78.8292 Y0.1144
G01 X78.8817 Y0.1399
G01 X78.8942 Y0.1468
G01 X78.9463 Y0.1796
G01 X78.9579 Y0.1878
G01 X79.0061 Y0.2262
G01 X79.0167 Y0.2357
G01 X79.0603 Y0.2793
G01 X79.0697 Y0.2899
G01 X79.0688 Y0.2908
G01 X79.0877 Y0.3134
G01 X79.0881 Y0.3131
G01 X79.1059 Y0.3354
G01 X79.1403 Y0.2802
G01 X79.1533 Y0.2619
G01 X79.1917 Y0.2137
G01 X79.2278 Y0.1746
G01 X79.3802 Y0.0222
G01 X79.4026 Y0.0011
G01 X79.4193 Y-0.0139
G01 X79.4202 Y-0.0129
G01 X79.4675 Y-0.0523
G01 X79.4921 Y-0.0696
G01 X79.5379 Y-0.0980
G01 X79.5576 Y-0.1089
G01 X79.6130 Y-0.1356
G01 X79.6338 Y-0.1442
G01 X79.6919 Y-0.1645
G01 X79.7135 Y-0.1707
G01 X79.7735 Y-0.1844
G01 X79.7956 Y-0.1882
G01 X79.8568 Y-0.1951
G01 X79.9100 Y-0.1972
G01 X103.8622 Y-0.1972
G01 X103.9154 Y-0.1951
G01 X103.9153 Y-0.1940
G01 X103.9766 Y-0.1882
G01 X104.0109 Y-0.1822
G01 X104.0587 Y-0.1707
G01 X104.0803 Y-0.1645
G01 X104.1384 Y-0.1442
G01 X104.1621 Y-0.1344
G01 X104.2146 Y-0.1089
G01 X104.2343 Y-0.0980
G01 X104.2864 Y-0.0653
G01 X104.3047 Y-0.0523
G01 X104.3529 Y-0.0139
G01 X104.3696 Y0.0011
G01 X104.3920 Y0.0222
G01 X104.4286 Y0.0588
G01 X106.3900 Y0.0588
G01 X106.4350 Y0.0605
G01 X106.4350 Y0.0616
G01 X106.4962 Y0.0674
G01 X106.5224 Y0.0720
G01 X106.5840 Y0.0874
G01 X106.6421 Y0.1078
G01 X106.6582 Y0.1144
G01 X106.7107 Y0.1399
G01 X106.7232 Y0.1468
G01 X106.7754 Y0.1796
G01 X106.7870 Y0.1878
G01 X106.8351 Y0.2262
G01 X106.8457 Y0.2357
G01 X106.8893 Y0.2793
G01 X106.8988 Y0.2899
G01 X106.8978 Y0.2908
G01 X106.9167 Y0.3134
G01 X106.9171 Y0.3131
G01 X106.9372 Y0.3380
G01 X106.9498 Y0.3559
G01 X106.9782 Y0.4018
G01 X106.9851 Y0.4143
G01 X107.0118 Y0.4697
G01 X107.0172 Y0.4829
G01 X107.0376 Y0.5410
G01 X107.0415 Y0.5547
G01 X107.0552 Y0.6147
G01 X107.0576 Y0.6288
G01 X107.0645 Y0.6900
G01 X107.0662 Y0.7350
G01 X107.0662 Y9.5288
G01 X107.0645 Y9.5743
G01 X107.0634 Y9.5742
G01 X107.0600 Y9.6136
G01 X107.0550 Y9.6502
G01 X107.0527 Y9.6626
G01 X107.0410 Y9.7108
G01 X107.0370 Y9.7246
G01 X107.0163 Y9.7832
G01 X107.0094 Y9.7997
G01 X106.9835 Y9.8524
G01 X106.9765 Y9.8650
G01 X106.9432 Y9.9174
G01 X106.9348 Y9.9291
G01 X106.8957 Y9.9775
G01 X106.8860 Y9.9881
G01 X106.8417 Y10.0317
G01 X106.8309 Y10.0412
G01 X106.7820 Y10.0796
G01 X106.7643 Y10.0918
G01 X106.7172 Y10.1204
G01 X106.7046 Y10.1272
G01 X106.6483 Y10.1536
G01 X106.6349 Y10.1589
G01 X106.5760 Y10.1787
G01 X106.5621 Y10.1826
G01 X106.5013 Y10.1956
G01 X106.4871 Y10.1978
G01 X106.4253 Y10.2039
G01 X106.3939 Y10.2049
G01 X106.6725 Y10.4835
G01 X106.6937 Y10.5059
G01 X106.7161 Y10.5310
G01 X106.7151 Y10.5318
G01 X106.7545 Y10.5791
G01 X106.7784 Y10.6128
G01 X106.8067 Y10.6587
G01 X106.8230 Y10.6882
G01 X106.8497 Y10.7436
G01 X106.8626 Y10.7747
G01 X106.8829 Y10.8329
G01 X106.8923 Y10.8652
G01 X106.9060 Y10.9252
G01 X106.9116 Y10.9584
G01 X106.9185 Y11.0196
G01 X106.9213 Y11.0840
G01 X106.9213 Y16.4778
G01 X106.9185 Y16.5422
G01 X106.9174 Y16.5421
G01 X106.9116 Y16.6034
G01 X106.9038 Y16.6487
G01 X106.8923 Y16.6966
G01 X106.8829 Y16.7289
G01 X106.8626 Y16.7871
G01 X106.8485 Y16.8211
G01 X106.8230 Y16.8736
G01 X106.8067 Y16.9031
G01 X106.7740 Y16.9552
G01 X106.7545 Y16.9827
G01 X106.7161 Y17.0308
G01 X106.6937 Y17.0559
G01 X106.6725 Y17.0783
G01 X106.4217 Y17.3291
G01 X106.4217 Y17.8624
G01 X106.4184 Y17.9229
G01 X106.4084 Y17.9827
G01 X106.3918 Y18.0410
G01 X106.3690 Y18.0972
G01 X106.3389 Y18.1524
G01 X106.3219 Y18.1766
G01 X106.3219 Y19.4634
G01 X106.3191 Y19.5278
G01 X106.3180 Y19.5277
G01 X106.3122 Y19.5890
G01 X106.3066 Y19.6222
G01 X106.3044 Y19.6343
G01 X106.2929 Y19.6822
G01 X106.2835 Y19.7145
G01 X106.2632 Y19.7727
G01 X106.2491 Y19.8067
G01 X106.2236 Y19.8592
G01 X106.2073 Y19.8887
G01 X106.1746 Y19.9408
G01 X106.1551 Y19.9683
G01 X106.1167 Y20.0164
G01 X106.0943 Y20.0415
G01 X106.0731 Y20.0639
G01 X105.4717 Y20.6653
G01 X105.4717 Y21.3634
G01 X105.4684 Y21.4239
G01 X105.4584 Y21.4837
G01 X105.4418 Y21.5420
G01 X105.4190 Y21.5982
G01 X105.3889 Y21.6534
G01 X105.3527 Y21.7047
G01 X105.3109 Y21.7517
G01 X105.2640 Y21.7935
G01 X105.2126 Y21.8297
G01 X105.1574 Y21.8598
G01 X105.1012 Y21.8826
G01 X105.0429 Y21.8992
G01 X104.9831 Y21.9092
G01 X104.9226 Y21.9125
G01 X104.4610 Y21.9125
G01 X104.4591 Y21.9542
G01 X104.4579 Y21.9541
G01 X104.4517 Y22.0144
G01 X104.4471 Y22.0391
G01 X104.4352 Y22.0871
G01 X104.4235 Y22.1222
G01 X104.4233 Y22.1513
G01 X104.4389 Y22.1734
G01 X104.4690 Y22.2286
G01 X104.4918 Y22.2848
G01 X104.5084 Y22.3431
G01 X104.5184 Y22.4029
G01 X104.5217 Y22.4634
G01 X104.5217 Y24.0117
G01 X104.5235 Y24.0117
G01 X104.5235 Y22.4634
G01 X104.5268 Y22.4029
G01 X104.5368 Y22.3431
G01 X104.5534 Y22.2848
G01 X104.5762 Y22.2286
G01 X104.6063 Y22.1734
G01 X104.6425 Y22.1221
G01 X104.6843 Y22.0751
G01 X104.7312 Y22.0333
G01 X104.7826 Y21.9971
G01 X104.8378 Y21.9670
G01 X104.8940 Y21.9442
G01 X104.9523 Y21.9276
G01 X105.0121 Y21.9176
G01 X105.0726 Y21.9143
G01 X105.8726 Y21.9143
G01 X105.9331 Y21.9176
G01 X105.9929 Y21.9276
G01 X106.0512 Y21.9442
G01 X106.1074 Y21.9670
G01 X106.1626 Y21.9971
G01 X106.2140 Y22.0333
G01 X106.2609 Y22.0751
G01 X106.3027 Y22.1221
G01 X106.3389 Y22.1734
G01 X106.3690 Y22.2286
G01 X106.3918 Y22.2848
G01 X106.4084 Y22.3431
G01 X106.4184 Y22.4029
G01 X106.4217 Y22.4634
G01 X106.4217 Y24.3634
G01 X106.4184 Y24.4239
G01 X106.4084 Y24.4837
G01 X106.3918 Y24.5420
G01 X106.3879 Y24.5518
G01 X106.3879 Y29.8537
G01 X106.4098 Y29.8667
G01 X106.4546 Y29.8967
G01 X106.4743 Y29.9113
G01 X106.5160 Y29.9455
G01 X106.5341 Y29.9620
G01 X106.5722 Y30.0001
G01 X106.5887 Y30.0182
G01 X106.5879 Y30.0189
G01 X106.6229 Y30.0599
G01 X106.6402 Y30.0833
G01 X106.6675 Y30.1244
G01 X106.6801 Y30.1455
G01 X106.7055 Y30.1930
G01 X106.7159 Y30.2152
G01 X106.7366 Y30.2649
G01 X106.7448 Y30.2880
G01 X106.7442 Y30.2883
G01 X106.7605 Y30.3396
G01 X106.7664 Y30.3634
G01 X106.7770 Y30.4163
G01 X106.7806 Y30.4405
G01 X106.7858 Y30.4941
G01 X106.7870 Y30.5187
G01 X106.7877 Y30.5456
G01 X106.7877 Y31.1956
G01 X106.7858 Y31.2471
G01 X106.7849 Y31.2470
G01 X106.7806 Y31.3007
G01 X106.7770 Y31.3249
G01 X106.7752 Y31.3247
G01 X106.7664 Y31.3778
G01 X106.7605 Y31.4016
G01 X106.7448 Y31.4532
G01 X106.7366 Y31.4763
G01 X106.7159 Y31.5260
G01 X106.7055 Y31.5482
G01 X106.6801 Y31.5957
G01 X106.6675 Y31.6168
G01 X106.6375 Y31.6616
G01 X106.6229 Y31.6813
G01 X106.5887 Y31.7230
G01 X106.5722 Y31.7411
G01 X106.5341 Y31.7792
G01 X106.5160 Y31.7957
G01 X106.5153 Y31.7949
G01 X106.4743 Y31.8299
G01 X106.4509 Y31.8472
G01 X106.4098 Y31.8745
G01 X106.3887 Y31.8871
G01 X106.3727 Y31.8956
G01 X106.3887 Y31.9041
G01 X106.4098 Y31.9167
G01 X106.4546 Y31.9467
G01 X106.4743 Y31.9613
G01 X106.5160 Y31.9955
G01 X106.5341 Y32.0120
G01 X106.5722 Y32.0501
G01 X106.5887 Y32.0682
G01 X106.5879 Y32.0689
G01 X106.6229 Y32.1099
G01 X106.6402 Y32.1333
G01 X106.6675 Y32.1744
G01 X106.6801 Y32.1955
G01 X106.7055 Y32.2430
G01 X106.7159 Y32.2652
G01 X106.7366 Y32.3149
G01 X106.7448 Y32.3380
G01 X106.7442 Y32.3383
G01 X106.7605 Y32.3896
G01 X106.7664 Y32.4134
G01 X106.7770 Y32.4663
G01 X106.7806 Y32.4905
G01 X106.7858 Y32.5441
G01 X106.7870 Y32.5687
G01 X106.7877 Y32.5956
G01 X106.7877 Y33.2456
G01 X106.7858 Y33.2971
G01 X106.7849 Y33.2970
G01 X106.7806 Y33.3507
G01 X106.7770 Y33.3749
G01 X106.7752 Y33.3747
G01 X106.7664 Y33.4278
G01 X106.7605 Y33.4516
G01 X106.7448 Y33.5032
G01 X106.7366 Y33.5263
G01 X106.7159 Y33.5760
G01 X106.7055 Y33.5982
G01 X106.6801 Y33.6457
G01 X106.6675 Y33.6668
G01 X106.6375 Y33.7116
G01 X106.6229 Y33.7313
G01 X106.5887 Y33.7730
G01 X106.5722 Y33.7911
G01 X106.5341 Y33.8292
G01 X106.5160 Y33.8457
G01 X106.5153 Y33.8449
G01 X106.4743 Y33.8799
G01 X106.4509 Y33.8972
G01 X106.4098 Y33.9245
G01 X106.3867 Y33.9382
G01 X106.3851 Y33.9666
G01 X106.3840 Y33.9665
G01 X106.3782 Y34.0278
G01 X106.3704 Y34.0731
G01 X106.3589 Y34.1210
G01 X106.3495 Y34.1533
G01 X106.3292 Y34.2115
G01 X106.3151 Y34.2455
G01 X106.2896 Y34.2980
G01 X106.2733 Y34.3275
G01 X106.2406 Y34.3796
G01 X106.2211 Y34.4071
G01 X106.1827 Y34.4552
G01 X106.1391 Y34.5027
G01 X106.0387 Y34.6031
G01 X106.0577 Y34.7143
G01 X106.0645 Y34.7754
G01 X106.0708 Y34.8874
G01 X106.0717 Y34.9182
G01 X106.0708 Y34.9490
G01 X106.0645 Y35.0610
G01 X106.0635 Y35.0609
G01 X106.0577 Y35.1221
G01 X106.0367 Y35.2448
G01 X106.0252 Y35.2927
G01 X105.9941 Y35.4005
G01 X105.9738 Y35.4586
G01 X105.9296 Y35.5652
G01 X105.9042 Y35.6177
G01 X105.8499 Y35.7158
G01 X105.8171 Y35.7680
G01 X105.7523 Y35.8594
G01 X105.7139 Y35.9076
G01 X105.6391 Y35.9912
G01 X105.5956 Y36.0347
G01 X105.5120 Y36.1095
G01 X105.5111 Y36.1085
G01 X105.4638 Y36.1479
G01 X105.3724 Y36.2127
G01 X105.3202 Y36.2455
G01 X105.2221 Y36.2998
G01 X105.1666 Y36.3265
G01 X105.0630 Y36.3694
G01 X105.0049 Y36.3897
G01 X104.8971 Y36.4208
G01 X104.8371 Y36.4345
G01 X104.7265 Y36.4533
G01 X104.6654 Y36.4601
G01 X104.5534 Y36.4664
G01 X104.5226 Y36.4673
G01 X104.4918 Y36.4664
G01 X104.3798 Y36.4601
G01 X104.3799 Y36.4591
G01 X104.3187 Y36.4533
G01 X104.2409 Y36.4400
G01 X104.2297 Y36.4840
G01 X104.2094 Y36.5421
G01 X104.2027 Y36.5582
G01 X104.1772 Y36.6107
G01 X104.1703 Y36.6232
G01 X104.1376 Y36.6754
G01 X104.1293 Y36.6870
G01 X104.0909 Y36.7351
G01 X104.0814 Y36.7457
G01 X104.0379 Y36.7893
G01 X104.0273 Y36.7988
G01 X104.0264 Y36.7978
G01 X104.0037 Y36.8167
G01 X104.0041 Y36.8171
G01 X103.9791 Y36.8372
G01 X103.9612 Y36.8498
G01 X103.9154 Y36.8782
G01 X103.9029 Y36.8851
G01 X103.8474 Y36.9118
G01 X103.8343 Y36.9172
G01 X103.7761 Y36.9376
G01 X103.7624 Y36.9415
G01 X103.7024 Y36.9552
G01 X103.6884 Y36.9576
G01 X103.6272 Y36.9645
G01 X103.5822 Y36.9662
G01 X84.7627 Y36.9662
G01 X84.7177 Y36.9645
G01 X84.7177 Y36.9634
G01 X84.6565 Y36.9576
G01 X84.6303 Y36.9530
G01 X84.5824 Y36.9415
G01 X84.5687 Y36.9376
G01 X84.5106 Y36.9172
G01 X84.4945 Y36.9106
G01 X84.4419 Y36.8851
G01 X84.4295 Y36.8782
G01 X84.3773 Y36.8454
G01 X84.3657 Y36.8372
G01 X84.3176 Y36.7988
G01 X84.3070 Y36.7893
G01 X84.2634 Y36.7457
G01 X84.2539 Y36.7351
G01 X84.2549 Y36.7342
G01 X84.2286 Y36.7028
G01 X84.1935 Y36.7379
G01 X84.1711 Y36.7591
G01 X84.1460 Y36.7815
G01 X84.1452 Y36.7805
G01 X84.0979 Y36.8199
G01 X84.0642 Y36.8438
G01 X84.0183 Y36.8721
G01 X83.9888 Y36.8884
G01 X83.9334 Y36.9151
G01 X83.9023 Y36.9280
G01 X83.8441 Y36.9483
G01 X83.8118 Y36.9577
G01 X83.7518 Y36.9714
G01 X83.7186 Y36.9770
G01 X83.6574 Y36.9839
G01 X83.5930 Y36.9867
G01 X79.9012 Y36.9867
G01 X79.2031 Y37.6848
G01 X79.2351 Y37.7103
G01 X79.2457 Y37.7198
G01 X79.2893 Y37.7634
G01 X79.2988 Y37.7740
G01 X79.2978 Y37.7749
G01 X79.3167 Y37.7975
G01 X79.3171 Y37.7972
G01 X79.3372 Y37.8221
G01 X79.3498 Y37.8400
G01 X79.3782 Y37.8859
G01 X79.3851 Y37.8984
G01 X79.4118 Y37.9538
G01 X79.4172 Y37.9670
G01 X79.4376 Y38.0251
G01 X79.4415 Y38.0388
G01 X79.4552 Y38.0989
G01 X79.4576 Y38.1129
G01 X79.4645 Y38.1741
G01 X79.4662 Y38.2191
G01 X79.4662 Y65.2900
G01 X79.4645 Y65.3350
G01 X79.4635 Y65.3350
G01 X79.4576 Y65.3962
G01 X79.4530 Y65.4224
G01 X79.4376 Y65.4840
G01 X79.4172 Y65.5421
G01 X79.4106 Y65.5582
G01 X79.3851 Y65.6107
G01 X79.3782 Y65.6232
G01 X79.3454 Y65.6754
G01 X79.3372 Y65.6870
G01 X79.2988 Y65.7351
G01 X79.2893 Y65.7457
G01 X79.2457 Y65.7893
G01 X79.2351 Y65.7988
G01 X79.2342 Y65.7978
G01 X79.2116 Y65.8167
G01 X79.2119 Y65.8171
G01 X79.1870 Y65.8372
G01 X79.1754 Y65.8454
G01 X79.1232 Y65.8782
G01 X79.1107 Y65.8851
G01 X79.0553 Y65.9118
G01 X79.0421 Y65.9172
G01 X78.9840 Y65.9376
G01 X78.9703 Y65.9415
G01 X78.9103 Y65.9552
G01 X78.8962 Y65.9576
G01 X78.8350 Y65.9645
G01 X78.7900 Y65.9662
G01 X70.9577 Y65.9662
G01 X70.9114 Y65.9644
G01 X70.9114 Y65.9633
G01 X70.8484 Y65.9571
G01 X70.8210 Y65.9521
G01 X70.7723 Y65.9401
G01 X70.7582 Y65.9359
G01 X70.6986 Y65.9144
G01 X70.6814 Y65.9070
G01 X70.6284 Y65.8803
G01 X70.6156 Y65.8730
G01 X70.5625 Y65.8384
G01 X70.5507 Y65.8297
G01 X70.5019 Y65.7892
G01 X70.4775 Y65.7660
G01 X70.4379 Y65.7222
G01 X70.3997 Y65.6716
G01 X70.3882 Y65.6543
G01 X70.3595 Y65.6048
G01 X70.3528 Y65.5917
G01 X70.3272 Y65.5338
G01 X70.3187 Y65.5109
G01 X70.3033 Y65.4595
G01 X70.2998 Y65.4452
G01 X70.2881 Y65.3829
G01 X70.2863 Y65.3684
G01 X70.2819 Y65.3051
G01 X70.2817 Y65.2841
G01 X70.2846 Y65.2272
G01 X70.2862 Y65.2126
G01 X70.2878 Y65.2127
G01 X70.2964 Y65.1500
G01 X70.2996 Y65.1357
G01 X70.3169 Y65.0747
G01 X70.3217 Y65.0609
G01 X70.3234 Y65.0615
G01 X70.3330 Y65.0312
G01 X70.3608 Y64.9641
G01 X70.3608 Y64.3176
G01 X70.3544 Y64.2850
G01 X70.1063 Y63.6862
G01 X69.6678 Y63.2477
G01 X69.0949 Y63.0104
G01 X68.4747 Y63.0104
G01 X67.9018 Y63.2477
G01 X67.4633 Y63.6862
G01 X67.2260 Y64.2591
G01 X67.2260 Y64.9056
G01 X67.2324 Y64.9382
G01 X67.2710 Y65.0312
G01 X67.2871 Y65.0747
G01 X67.3044 Y65.1357
G01 X67.3076 Y65.1500
G01 X67.3178 Y65.2126
G01 X67.3194 Y65.2272
G01 X67.3223 Y65.2841
G01 X67.3221 Y65.3051
G01 X67.3192 Y65.3482
G01 X67.3177 Y65.3684
G01 X67.3139 Y65.3971
G01 X67.3042 Y65.4452
G01 X67.3007 Y65.4595
G01 X67.2819 Y65.5200
G01 X67.2748 Y65.5390
G01 X67.2512 Y65.5917
G01 X67.2445 Y65.6048
G01 X67.2124 Y65.6594
G01 X67.2043 Y65.6716
G01 X67.1661 Y65.7222
G01 X67.1566 Y65.7334
G01 X67.1265 Y65.7660
G01 X67.1021 Y65.7892
G01 X67.1014 Y65.7886
G01 X67.0533 Y65.8297
G01 X67.0333 Y65.8443
G01 X66.9884 Y65.8730
G01 X66.9756 Y65.8803
G01 X66.9189 Y65.9086
G01 X66.9054 Y65.9144
G01 X66.8458 Y65.9359
G01 X66.8317 Y65.9401
G01 X66.7700 Y65.9546
G01 X66.7556 Y65.9571
G01 X66.6926 Y65.9644
G01 X66.6463 Y65.9662
G01 X59.6041 Y65.9662
G01 X59.5586 Y65.9645
G01 X59.5587 Y65.9634
G01 X59.4968 Y65.9574
G01 X59.4702 Y65.9527
G01 X59.4220 Y65.9410
G01 X59.4082 Y65.9370
G01 X59.3496 Y65.9163
G01 X59.3363 Y65.9107
G01 X59.2804 Y65.8835
G01 X59.2678 Y65.8764
G01 X59.2154 Y65.8431
G01 X59.2031 Y65.8342
G01 X59.1513 Y65.8922
G01 X59.1078 Y65.9357
G01 X59.0242 Y66.0105
G01 X59.0233 Y66.0095
G01 X58.9760 Y66.0489
G01 X58.8783 Y66.1181
G01 X58.8324 Y66.1465
G01 X58.7343 Y66.2008
G01 X58.6788 Y66.2275
G01 X58.5752 Y66.2704
G01 X58.5171 Y66.2907
G01 X58.4093 Y66.3218
G01 X58.3493 Y66.3355
G01 X58.2387 Y66.3543
G01 X58.1776 Y66.3611
G01 X58.0656 Y66.3674
G01 X58.0348 Y66.3683
G01 X58.0040 Y66.3674
G01 X57.8920 Y66.3611
G01 X57.8921 Y66.3601
G01 X57.8309 Y66.3543
G01 X57.7082 Y66.3333
G01 X57.6603 Y66.3218
G01 X57.5525 Y66.2907
G01 X57.4944 Y66.2704
G01 X57.3878 Y66.2262
G01 X57.3353 Y66.2008
G01 X57.2372 Y66.1465
G01 X57.1850 Y66.1137
G01 X57.0936 Y66.0489
G01 X57.0454 Y66.0105
G01 X56.9618 Y65.9357
G01 X56.9183 Y65.8922
G01 X56.8435 Y65.8086
G01 X56.8445 Y65.8077
G01 X56.8051 Y65.7604
G01 X56.7648 Y65.7036
G01 X56.7245 Y65.7604
G01 X56.6861 Y65.8086
G01 X56.6113 Y65.8922
G01 X56.5678 Y65.9357
G01 X56.4842 Y66.0105
G01 X56.4833 Y66.0095
G01 X56.4360 Y66.0489
G01 X56.3383 Y66.1181
G01 X56.2924 Y66.1465
G01 X56.1943 Y66.2008
G01 X56.1388 Y66.2275
G01 X56.0352 Y66.2704
G01 X55.9771 Y66.2907
G01 X55.8693 Y66.3218
G01 X55.8093 Y66.3355
G01 X55.6987 Y66.3543
G01 X55.6376 Y66.3611
G01 X55.5256 Y66.3674
G01 X55.4948 Y66.3683
G01 X55.4640 Y66.3674
G01 X55.3520 Y66.3611
G01 X55.3521 Y66.3601
G01 X55.2909 Y66.3543
G01 X55.1682 Y66.3333
G01 X55.1203 Y66.3218
G01 X55.0125 Y66.2907
G01 X54.9544 Y66.2704
G01 X54.8478 Y66.2262
G01 X54.7953 Y66.2008
G01 X54.6972 Y66.1465
G01 X54.6450 Y66.1137
G01 X54.5536 Y66.0489
G01 X54.5054 Y66.0105
G01 X54.4218 Y65.9357
G01 X54.3783 Y65.8922
G01 X54.3035 Y65.8086
G01 X54.3045 Y65.8077
G01 X54.2651 Y65.7604
G01 X54.2248 Y65.7036
G01 X54.1845 Y65.7604
G01 X54.1461 Y65.8086
G01 X54.0713 Y65.8922
G01 X54.0278 Y65.9357
G01 X53.9442 Y66.0105
G01 X53.9433 Y66.0095
G01 X53.8960 Y66.0489
G01 X53.7983 Y66.1181
G01 X53.7524 Y66.1465
G01 X53.6543 Y66.2008
G01 X53.5988 Y66.2275
G01 X53.4952 Y66.2704
G01 X53.4371 Y66.2907
G01 X53.3293 Y66.3218
G01 X53.2693 Y66.3355
G01 X53.1587 Y66.3543
G01 X53.0976 Y66.3611
G01 X52.9856 Y66.3674
G01 X52.9548 Y66.3683
G01 X52.9240 Y66.3674
G01 X52.8120 Y66.3611
G01 X52.8121 Y66.3601
G01 X52.7509 Y66.3543
G01 X52.6282 Y66.3333
G01 X52.5803 Y66.3218
G01 X52.4725 Y66.2907
G01 X52.4144 Y66.2704
G01 X52.3078 Y66.2262
G01 X52.2553 Y66.2008
G01 X52.1572 Y66.1465
G01 X52.1050 Y66.1137
G01 X52.0136 Y66.0489
G01 X51.9654 Y66.0105
G01 X51.8818 Y65.9357
G01 X51.8383 Y65.8922
G01 X51.7635 Y65.8086
G01 X51.7645 Y65.8077
G01 X51.7251 Y65.7604
G01 X51.6848 Y65.7036
G01 X51.6445 Y65.7604
G01 X51.6061 Y65.8086
G01 X51.5313 Y65.8922
G01 X51.4878 Y65.9357
G01 X51.4042 Y66.0105
G01 X51.4033 Y66.0095
G01 X51.3560 Y66.0489
G01 X51.2583 Y66.1181
G01 X51.2124 Y66.1465
G01 X51.1143 Y66.2008
G01 X51.0588 Y66.2275
G01 X50.9552 Y66.2704
G01 X50.8971 Y66.2907
G01 X50.7893 Y66.3218
G01 X50.7293 Y66.3355
G01 X50.6187 Y66.3543
G01 X50.5576 Y66.3611
G01 X50.4456 Y66.3674
G01 X50.4148 Y66.3683
G01 X50.3840 Y66.3674
G01 X50.2720 Y66.3611
G01 X50.2721 Y66.3601
G01 X50.2109 Y66.3543
G01 X50.0882 Y66.3333
G01 X50.0403 Y66.3218
G01 X49.9325 Y66.2907
G01 X49.8744 Y66.2704
G01 X49.7678 Y66.2262
G01 X49.7153 Y66.2008
G01 X49.6172 Y66.1465
G01 X49.5650 Y66.1137
G01 X49.4736 Y66.0489
G01 X49.4254 Y66.0105
G01 X49.3418 Y65.9357
G01 X49.2983 Y65.8922
G01 X49.2235 Y65.8086
G01 X49.2245 Y65.8077
G01 X49.1851 Y65.7604
G01 X49.1159 Y65.6627
G01 X49.0875 Y65.6168
G01 X49.0332 Y65.5187
G01 X49.0065 Y65.4632
G01 X48.9636 Y65.3596
G01 X48.9433 Y65.3015
G01 X48.9122 Y65.1937
G01 X48.8985 Y65.1337
G01 X48.8797 Y65.0231
G01 X48.8729 Y64.9620
G01 X48.8666 Y64.8500
G01 X48.8657 Y64.8192
G01 X48.8666 Y64.7884
G01 X48.8729 Y64.6764
G01 X48.8739 Y64.6765
G01 X48.8797 Y64.6153
G01 X48.8985 Y64.5047
G01 X48.9007 Y64.4925
G01 X48.9122 Y64.4447
G01 X48.9433 Y64.3369
G01 X48.9636 Y64.2788
G01 X49.0078 Y64.1722
G01 X49.0332 Y64.1197
G01 X49.0875 Y64.0216
G01 X49.1203 Y63.9694
G01 X49.1851 Y63.8780
G01 X49.2235 Y63.8298
G01 X49.2983 Y63.7462
G01 X49.3418 Y63.7027
G01 X49.4254 Y63.6279
G01 X49.4263 Y63.6289
G01 X49.4736 Y63.5895
G01 X49.5655 Y63.5247
G01 X49.5655 Y61.1468
G01 X46.3923 Y57.9735
G01 X46.2811 Y57.9925
G01 X46.2200 Y57.9993
G01 X46.1080 Y58.0056
G01 X46.0772 Y58.0065
G01 X46.0464 Y58.0056
G01 X45.9344 Y57.9993
G01 X45.9345 Y57.9983
G01 X45.8733 Y57.9925
G01 X45.7505 Y57.9715
G01 X45.7027 Y57.9600
G01 X45.5949 Y57.9289
G01 X45.5368 Y57.9086
G01 X45.4302 Y57.8644
G01 X45.3777 Y57.8390
G01 X45.2796 Y57.7847
G01 X45.2274 Y57.7519
G01 X45.1360 Y57.6871
G01 X45.0878 Y57.6487
G01 X45.0042 Y57.5739
G01 X44.9607 Y57.5304
G01 X44.8859 Y57.4468
G01 X44.8869 Y57.4459
G01 X44.8475 Y57.3986
G01 X44.7783 Y57.3009
G01 X44.7499 Y57.2550
G01 X44.6956 Y57.1569
G01 X44.6689 Y57.1014
G01 X44.6260 Y56.9978
G01 X44.6057 Y56.9397
G01 X44.5746 Y56.8319
G01 X44.5609 Y56.7719
G01 X44.5421 Y56.6613
G01 X44.5353 Y56.6002
G01 X44.5290 Y56.4882
G01 X44.5281 Y56.4574
G01 X44.5290 Y56.4266
G01 X44.5353 Y56.3146
G01 X44.5363 Y56.3147
G01 X44.5421 Y56.2535
G01 X44.5631 Y56.1307
G01 X44.5746 Y56.0829
G01 X44.6057 Y55.9751
G01 X44.6260 Y55.9170
G01 X44.6702 Y55.8104
G01 X44.6956 Y55.7579
G01 X44.7499 Y55.6598
G01 X44.7827 Y55.6076
G01 X44.8475 Y55.5162
G01 X44.8859 Y55.4680
G01 X44.9607 Y55.3844
G01 X45.0042 Y55.3409
G01 X45.0878 Y55.2661
G01 X45.0887 Y55.2671
G01 X45.1414 Y55.2239
G01 X44.6256 Y55.2239
G01 X40.1447 Y59.7048
G01 X40.1447 Y60.9532
G01 X40.1419 Y61.0176
G01 X40.1408 Y61.0175
G01 X40.1350 Y61.0788
G01 X40.1272 Y61.1241
G01 X40.1157 Y61.1720
G01 X40.1063 Y61.2043
G01 X40.0860 Y61.2625
G01 X40.0719 Y61.2965
G01 X40.0464 Y61.3490
G01 X40.0301 Y61.3785
G01 X39.9974 Y61.4306
G01 X39.9779 Y61.4581
G01 X39.9395 Y61.5062
G01 X39.8959 Y61.5537
G01 X36.0097 Y65.4399
G01 X35.9622 Y65.4835
G01 X35.9614 Y65.4825
G01 X35.9141 Y65.5219
G01 X35.8804 Y65.5458
G01 X35.8345 Y65.5741
G01 X35.8050 Y65.5904
G01 X35.7496 Y65.6171
G01 X35.7185 Y65.6300
G01 X35.6603 Y65.6503
G01 X35.6280 Y65.6597
G01 X35.5680 Y65.6734
G01 X35.5348 Y65.6790
G01 X35.4736 Y65.6859
G01 X35.4092 Y65.6887
G01 X4.0402 Y65.6887
G01 X3.9758 Y65.6859
G01 X3.9759 Y65.6848
G01 X3.9146 Y65.6790
G01 X3.8814 Y65.6734
G01 X3.8693 Y65.6712
G01 X3.8214 Y65.6597
G01 X3.7891 Y65.6503
G01 X3.7485 Y65.6362
G01 X3.7239 Y65.6754
G01 X3.7157 Y65.6870
G01 X3.6773 Y65.7351
G01 X3.6678 Y65.7457
G01 X3.6242 Y65.7893
G01 X3.6136 Y65.7988
G01 X3.6128 Y65.7978
G01 X3.5901 Y65.8167
G01 X3.5904 Y65.8171
G01 X3.5655 Y65.8372
G01 X3.5476 Y65.8498
G01 X3.5017 Y65.8782
G01 X3.4893 Y65.8851
G01 X3.4338 Y65.9118
G01 X3.4206 Y65.9172
G01 X3.3625 Y65.9376
G01 X3.3488 Y65.9415
G01 X3.2888 Y65.9552
G01 X3.2747 Y65.9576
G01 X3.2135 Y65.9645
G01 X3.1685 Y65.9662
G01 X0.7100 Y65.9662
G01 X0.6650 Y65.9645
G01 X0.6650 Y65.9634
G01 X0.6038 Y65.9576
G01 X0.5776 Y65.9530
G01 X0.5160 Y65.9376
G01 X0.4579 Y65.9172
G01 X0.4447 Y65.9118
G01 X0.3893 Y65.8851
G01 X0.3768 Y65.8782
G01 X0.3246 Y65.8454
G01 X0.3130 Y65.8372
G01 X0.2649 Y65.7988
G01 X0.2543 Y65.7893
G01 X0.2170 Y65.7521
G01 X0.2012 Y65.7351
G01 X0.2022 Y65.7342
G01 X0.1833 Y65.7116
G01 X0.1829 Y65.7119
G01 X0.1628 Y65.6870
G01 X0.1502 Y65.6691
G01 X0.1218 Y65.6232
G01 X0.1149 Y65.6107
G01 X0.0882 Y65.5553
G01 X0.0828 Y65.5421
G01 X0.0624 Y65.4840
G01 X0.0585 Y65.4703
G01 X0.0448 Y65.4103
G01 X0.0424 Y65.3962
G01 X0.0355 Y65.3350
G01 X0.0338 Y65.2900
G01 X0.0338 Y0.7350
G01 X0.0355 Y0.6900
G01 X0.0366 Y0.6900
G01 X0.0424 Y0.6288
G00 Z5.0000
G00 X0.1907 Y0.6987
G01 F5050.00
G01 Z-0.1306
G01 F500.00
G01 X0.1949 Y0.6547
G01 X0.1989 Y0.6319
G01 X0.2071 Y0.5975
G01 X0.2111 Y0.5838
G01 X0.2257 Y0.5421
G01 X0.2320 Y0.5268
G01 X0.2503 Y0.4891
G01 X0.2572 Y0.4766
G01 X0.2808 Y0.4392
G01 X0.2890 Y0.4275
G01 X0.3166 Y0.3930
G01 X0.3413 Y0.3663
G01 X0.3563 Y0.3520
G01 X0.3680 Y0.3416
G01 X0.3686 Y0.3423
G01 X0.4025 Y0.3140
G01 X0.4142 Y0.3058
G01 X0.4516 Y0.2822
G01 X0.4641 Y0.2753
G01 X0.5039 Y0.2561
G01 X0.5171 Y0.2507
G01 X0.5588 Y0.2361
G01 X0.5725 Y0.2321
G01 X0.6157 Y0.2223
G01 X0.6297 Y0.2199
G01 X0.6737 Y0.2150
G01 X0.7100 Y0.2135
G01 X72.1075 Y0.2135
G01 X72.1434 Y0.2149
G01 X72.1434 Y0.2157
G01 X72.1869 Y0.2198
G01 X72.2093 Y0.2236
G01 X72.2435 Y0.2317
G01 X72.2570 Y0.2356
G01 X72.2984 Y0.2499
G01 X72.3133 Y0.2560
G01 X72.3509 Y0.2740
G01 X72.3633 Y0.2808
G01 X72.4005 Y0.3038
G01 X72.4120 Y0.3119
G01 X72.4464 Y0.3389
G01 X72.4570 Y0.3482
G01 X72.4882 Y0.3789
G01 X72.4977 Y0.3893
G01 X72.4971 Y0.3899
G01 X72.5253 Y0.4233
G01 X72.5369 Y0.4393
G01 X72.5573 Y0.4715
G01 X72.5642 Y0.4837
G01 X72.5837 Y0.5229
G01 X72.5892 Y0.5358
G01 X72.6042 Y0.5769
G01 X72.6083 Y0.5904
G01 X72.6187 Y0.6329
G01 X72.6213 Y0.6468
G01 X72.6269 Y0.6902
G01 X72.6279 Y0.7042
G01 X72.6289 Y0.7328
G01 X72.6281 Y0.7621
G01 X72.6275 Y0.7620
G01 X72.6240 Y0.8056
G01 X72.6215 Y0.8220
G01 X72.6130 Y0.8624
G01 X72.6053 Y0.8884
G01 X73.9560 Y0.8884
G01 X73.9482 Y0.8624
G01 X73.9393 Y0.8196
G01 X73.9372 Y0.8056
G01 X73.9331 Y0.7621
G01 X73.9323 Y0.7328
G01 X73.9333 Y0.7042
G01 X73.9343 Y0.6902
G01 X73.9352 Y0.6902
G01 X73.9399 Y0.6468
G01 X73.9440 Y0.6252
G01 X73.9529 Y0.5904
G01 X73.9570 Y0.5769
G01 X73.9720 Y0.5358
G01 X73.9782 Y0.5214
G01 X73.9970 Y0.4837
G01 X74.0039 Y0.4715
G01 X74.0276 Y0.4347
G01 X74.0359 Y0.4233
G01 X74.0635 Y0.3893
G01 X74.0730 Y0.3789
G01 X74.1042 Y0.3482
G01 X74.1148 Y0.3389
G01 X74.1492 Y0.3119
G01 X74.1647 Y0.3011
G01 X74.1979 Y0.2808
G01 X74.2103 Y0.2740
G01 X74.2498 Y0.2552
G01 X74.2628 Y0.2499
G01 X74.3042 Y0.2356
G01 X74.3177 Y0.2317
G01 X74.3604 Y0.2221
G01 X74.3743 Y0.2198
G01 X74.4178 Y0.2149
G01 X74.4537 Y0.2135
G01 X78.5610 Y0.2135
G01 X78.5973 Y0.2150
G01 X78.5973 Y0.2157
G01 X78.6413 Y0.2199
G01 X78.6640 Y0.2239
G01 X78.7121 Y0.2361
G01 X78.7539 Y0.2507
G01 X78.7691 Y0.2570
G01 X78.8069 Y0.2753
G01 X78.8194 Y0.2822
G01 X78.8568 Y0.3058
G01 X78.8684 Y0.3140
G01 X78.9030 Y0.3416
G01 X78.9136 Y0.3511
G01 X78.9449 Y0.3823
G01 X78.9544 Y0.3930
G01 X78.9537 Y0.3936
G01 X78.9820 Y0.4275
G01 X78.9934 Y0.4437
G01 X79.0138 Y0.4766
G01 X79.0206 Y0.4891
G01 X79.0398 Y0.5289
G01 X79.0453 Y0.5421
G01 X79.0599 Y0.5838
G01 X79.0638 Y0.5975
G01 X79.0737 Y0.6407
G01 X79.0761 Y0.6547
G01 X79.0810 Y0.6987
G01 X79.0824 Y0.7350
G01 X79.0810 Y0.7713
G01 X79.0803 Y0.7713
G01 X79.0790 Y0.7841
G01 X79.1022 Y0.7758
G01 X79.1392 Y0.7646
G01 X79.1631 Y0.7586
G01 X79.1631 Y0.7044
G01 X79.1650 Y0.6599
G01 X79.1657 Y0.6599
G01 X79.1699 Y0.6159
G01 X79.1753 Y0.5851
G01 X79.1835 Y0.5507
G01 X79.1897 Y0.5291
G01 X79.2044 Y0.4874
G01 X79.2138 Y0.4645
G01 X79.2321 Y0.4268
G01 X79.2430 Y0.4072
G01 X79.2665 Y0.3697
G01 X79.2795 Y0.3514
G01 X79.3071 Y0.3168
G01 X79.3220 Y0.3001
G01 X79.3372 Y0.2840
G01 X79.4896 Y0.1316
G01 X79.5224 Y0.1015
G01 X79.5231 Y0.1022
G01 X79.5570 Y0.0739
G01 X79.5798 Y0.0578
G01 X79.6128 Y0.0374
G01 X79.6324 Y0.0265
G01 X79.6722 Y0.0073
G01 X79.6930 Y-0.0012
G01 X79.7347 Y-0.0159
G01 X79.7563 Y-0.0221
G01 X79.7994 Y-0.0319
G01 X79.8215 Y-0.0357
G01 X79.8655 Y-0.0406
G01 X79.9100 Y-0.0425
G01 X103.8622 Y-0.0425
G01 X103.9067 Y-0.0406
G01 X103.9067 Y-0.0399
G01 X103.9507 Y-0.0357
G01 X103.9815 Y-0.0303
G01 X104.0159 Y-0.0221
G01 X104.0375 Y-0.0159
G01 X104.0792 Y-0.0012
G01 X104.1021 Y0.0082
G01 X104.1398 Y0.0265
G01 X104.1594 Y0.0374
G01 X104.1969 Y0.0609
G01 X104.2152 Y0.0739
G01 X104.2498 Y0.1015
G01 X104.2826 Y0.1316
G01 X104.3645 Y0.2135
G01 X106.3900 Y0.2135
G01 X106.4263 Y0.2150
G01 X106.4263 Y0.2157
G01 X106.4703 Y0.2199
G01 X106.4931 Y0.2239
G01 X106.5412 Y0.2361
G01 X106.5829 Y0.2507
G01 X106.5982 Y0.2570
G01 X106.6359 Y0.2753
G01 X106.6484 Y0.2822
G01 X106.6858 Y0.3058
G01 X106.6975 Y0.3140
G01 X106.7320 Y0.3416
G01 X106.7427 Y0.3511
G01 X106.7739 Y0.3823
G01 X106.7834 Y0.3930
G01 X106.7827 Y0.3936
G01 X106.8110 Y0.4275
G01 X106.8224 Y0.4437
G01 X106.8428 Y0.4766
G01 X106.8497 Y0.4891
G01 X106.8689 Y0.5289
G01 X106.8743 Y0.5421
G01 X106.8889 Y0.5838
G01 X106.8929 Y0.5975
G01 X106.9027 Y0.6407
G01 X106.9051 Y0.6547
G01 X106.9100 Y0.6987
G01 X106.9108 Y0.7129
G01 X106.9115 Y0.7350
G01 X106.9115 Y9.5288
G01 X106.9108 Y9.5512
G01 X106.9100 Y9.5655
G01 X106.9093 Y9.5655
G01 X106.9050 Y9.6099
G01 X106.9009 Y9.6330
G01 X106.8925 Y9.6676
G01 X106.8885 Y9.6814
G01 X106.8736 Y9.7235
G01 X106.8671 Y9.7391
G01 X106.8485 Y9.7769
G01 X106.8415 Y9.7895
G01 X106.8175 Y9.8271
G01 X106.8091 Y9.8388
G01 X106.7811 Y9.8736
G01 X106.7714 Y9.8842
G01 X106.7396 Y9.9156
G01 X106.7288 Y9.9251
G01 X106.6936 Y9.9526
G01 X106.6776 Y9.9637
G01 X106.6438 Y9.9842
G01 X106.6311 Y9.9910
G01 X106.5907 Y10.0100
G01 X106.5773 Y10.0153
G01 X106.5350 Y10.0296
G01 X106.5211 Y10.0334
G01 X106.4775 Y10.0428
G01 X106.4633 Y10.0450
G01 X106.4188 Y10.0493
G01 X106.3881 Y10.0503
G01 X106.3598 Y10.0493
G01 X106.3455 Y10.0482
G01 X106.3455 Y10.0474
G01 X106.3012 Y10.0425
G01 X106.2788 Y10.0382
G01 X106.2437 Y10.0292
G01 X106.2299 Y10.0250
G01 X106.1868 Y10.0089
G01 X106.1868 Y10.2166
G01 X106.5631 Y10.5929
G01 X106.6007 Y10.6341
G01 X106.6001 Y10.6347
G01 X106.6283 Y10.6686
G01 X106.6510 Y10.7006
G01 X106.6713 Y10.7335
G01 X106.6876 Y10.7630
G01 X106.7068 Y10.8028
G01 X106.7197 Y10.8339
G01 X106.7343 Y10.8757
G01 X106.7436 Y10.9080
G01 X106.7535 Y10.9511
G01 X106.7591 Y10.9843
G01 X106.7640 Y11.0283
G01 X106.7666 Y11.0840
G01 X106.7666 Y16.4778
G01 X106.7640 Y16.5335
G01 X106.7633 Y16.5335
G01 X106.7591 Y16.5775
G01 X106.7519 Y16.6194
G01 X106.7436 Y16.6538
G01 X106.7343 Y16.6861
G01 X106.7197 Y16.7279
G01 X106.7059 Y16.7611
G01 X106.6876 Y16.7988
G01 X106.6713 Y16.8283
G01 X106.6478 Y16.8657
G01 X106.6283 Y16.8932
G01 X106.6007 Y16.9277
G01 X106.5631 Y16.9689
G01 X106.2670 Y17.2650
G01 X106.2670 Y17.8624
G01 X106.2646 Y17.9059
G01 X106.2574 Y17.9488
G01 X106.2455 Y17.9907
G01 X106.2291 Y18.0310
G01 X106.2075 Y18.0707
G01 X106.1815 Y18.1076
G01 X106.1672 Y18.1237
G01 X106.1672 Y19.4634
G01 X106.1665 Y19.4855
G01 X106.1646 Y19.5191
G01 X106.1639 Y19.5191
G01 X106.1597 Y19.5631
G01 X106.1525 Y19.6050
G01 X106.1442 Y19.6394
G01 X106.1349 Y19.6717
G01 X106.1203 Y19.7135
G01 X106.1065 Y19.7467
G01 X106.0882 Y19.7844
G01 X106.0719 Y19.8139
G01 X106.0484 Y19.8513
G01 X106.0289 Y19.8788
G01 X106.0013 Y19.9133
G01 X105.9789 Y19.9384
G01 X105.9637 Y19.9545
G01 X105.3170 Y20.6012
G01 X105.3170 Y21.3634
G01 X105.3146 Y21.4069
G01 X105.3074 Y21.4498
G01 X105.2955 Y21.4917
G01 X105.2791 Y21.5320
G01 X105.2575 Y21.5717
G01 X105.2315 Y21.6086
G01 X105.2015 Y21.6423
G01 X105.1678 Y21.6723
G01 X105.1309 Y21.6983
G01 X105.0912 Y21.7199
G01 X105.0509 Y21.7363
G01 X105.0090 Y21.7482
G01 X104.9661 Y21.7554
G01 X104.9226 Y21.7578
G01 X104.2862 Y21.7578
G01 X104.2902 Y21.7724
G01 X104.2992 Y21.8150
G01 X104.3014 Y21.8289
G01 X104.3056 Y21.8722
G01 X104.3066 Y21.9032
G01 X104.3057 Y21.9298
G01 X104.3047 Y21.9438
G01 X104.3039 Y21.9437
G01 X104.2994 Y21.9870
G01 X104.2954 Y22.0086
G01 X104.2829 Y22.0566
G01 X104.2689 Y22.0957
G01 X104.2684 Y22.2035
G01 X104.2815 Y22.2182
G01 X104.3075 Y22.2551
G01 X104.3291 Y22.2948
G01 X104.3455 Y22.3351
G01 X104.3574 Y22.3770
G01 X104.3646 Y22.4199
G01 X104.3670 Y22.4634
G01 X104.3670 Y24.1915
G01 X104.4089 Y24.1796
G01 X104.4230 Y24.1766
G01 X104.4673 Y24.1697
G01 X104.4817 Y24.1683
G01 X104.5203 Y24.1664
G01 X104.5409 Y24.1666
G01 X104.5856 Y24.1699
G01 X104.6095 Y24.1731
G01 X104.6439 Y24.1800
G01 X104.6782 Y24.1897
G01 X104.6782 Y22.4634
G01 X104.6806 Y22.4199
G01 X104.6878 Y22.3770
G01 X104.6997 Y22.3351
G01 X104.7161 Y22.2948
G01 X104.7377 Y22.2551
G01 X104.7637 Y22.2182
G01 X104.7937 Y22.1845
G01 X104.8274 Y22.1545
G01 X104.8643 Y22.1285
G01 X104.9040 Y22.1069
G01 X104.9443 Y22.0905
G01 X104.9862 Y22.0786
G01 X105.0291 Y22.0714
G01 X105.0726 Y22.0690
G01 X105.8726 Y22.0690
G01 X105.9161 Y22.0714
G01 X105.9590 Y22.0786
G01 X106.0009 Y22.0905
G01 X106.0412 Y22.1069
G01 X106.0809 Y22.1285
G01 X106.1178 Y22.1545
G01 X106.1515 Y22.1845
G01 X106.1815 Y22.2182
G01 X106.2075 Y22.2551
G01 X106.2291 Y22.2948
G01 X106.2455 Y22.3351
G01 X106.2574 Y22.3770
G01 X106.2646 Y22.4199
G01 X106.2670 Y22.4634
G01 X106.2670 Y24.3634
G01 X106.2646 Y24.4069
G01 X106.2574 Y24.4498
G01 X106.2455 Y24.4917
G01 X106.2332 Y24.5222
G01 X106.2332 Y29.9499
G01 X106.2529 Y29.9581
G01 X106.2751 Y29.9686
G01 X106.3092 Y29.9868
G01 X106.3302 Y29.9994
G01 X106.3624 Y30.0209
G01 X106.3821 Y30.0356
G01 X106.4121 Y30.0601
G01 X106.4302 Y30.0766
G01 X106.4576 Y30.1040
G01 X106.4741 Y30.1221
G01 X106.4735 Y30.1226
G01 X106.4986 Y30.1521
G01 X106.5152 Y30.1744
G01 X106.5348 Y30.2040
G01 X106.5474 Y30.2250
G01 X106.5656 Y30.2591
G01 X106.5761 Y30.2813
G01 X106.5909 Y30.3171
G01 X106.5992 Y30.3402
G01 X106.6104 Y30.3772
G01 X106.6164 Y30.4010
G01 X106.6239 Y30.4390
G01 X106.6275 Y30.4632
G01 X106.6313 Y30.5017
G01 X106.6330 Y30.5456
G01 X106.6330 Y31.1956
G01 X106.6313 Y31.2395
G01 X106.6307 Y31.2394
G01 X106.6275 Y31.2780
G01 X106.6239 Y31.3022
G01 X106.6227 Y31.3021
G01 X106.6164 Y31.3402
G01 X106.6104 Y31.3640
G01 X106.5992 Y31.4010
G01 X106.5909 Y31.4241
G01 X106.5761 Y31.4599
G01 X106.5656 Y31.4821
G01 X106.5474 Y31.5162
G01 X106.5348 Y31.5372
G01 X106.5133 Y31.5694
G01 X106.4986 Y31.5891
G01 X106.4741 Y31.6191
G01 X106.4576 Y31.6372
G01 X106.4302 Y31.6646
G01 X106.4121 Y31.6811
G01 X106.4116 Y31.6805
G01 X106.3821 Y31.7056
G01 X106.3598 Y31.7222
G01 X106.3302 Y31.7418
G01 X106.3092 Y31.7544
G01 X106.2751 Y31.7726
G01 X106.2529 Y31.7831
G01 X106.2171 Y31.7979
G01 X106.1940 Y31.8062
G01 X106.1570 Y31.8174
G01 X106.1332 Y31.8234
G01 X106.0952 Y31.8309
G01 X106.0710 Y31.8345
G01 X106.0325 Y31.8383
G01 X106.0080 Y31.8395
G01 X105.0698 Y31.8395
G01 X105.0720 Y31.8603
G01 X105.0734 Y31.8956
G01 X105.0720 Y31.9309
G01 X105.0713 Y31.9309
G01 X105.0694 Y31.9517
G01 X105.9886 Y31.9512
G01 X106.0325 Y31.9529
G01 X106.0324 Y31.9535
G01 X106.0710 Y31.9567
G01 X106.0952 Y31.9603
G01 X106.0951 Y31.9615
G01 X106.1332 Y31.9678
G01 X106.1570 Y31.9738
G01 X106.1940 Y31.9850
G01 X106.2171 Y31.9933
G01 X106.2529 Y32.0081
G01 X106.2751 Y32.0186
G01 X106.3092 Y32.0368
G01 X106.3302 Y32.0494
G01 X106.3624 Y32.0709
G01 X106.3821 Y32.0856
G01 X106.4121 Y32.1101
G01 X106.4302 Y32.1266
G01 X106.4576 Y32.1540
G01 X106.4741 Y32.1721
G01 X106.4735 Y32.1726
G01 X106.4986 Y32.2021
G01 X106.5133 Y32.2218
G01 X106.5348 Y32.2540
G01 X106.5474 Y32.2750
G01 X106.5656 Y32.3091
G01 X106.5761 Y32.3313
G01 X106.5909 Y32.3671
G01 X106.5992 Y32.3902
G01 X106.6104 Y32.4272
G01 X106.6164 Y32.4510
G01 X106.6239 Y32.4890
G01 X106.6275 Y32.5132
G01 X106.6313 Y32.5517
G01 X106.6330 Y32.5956
G01 X106.6325 Y33.2650
G01 X106.6313 Y33.2895
G01 X106.6307 Y33.2894
G01 X106.6275 Y33.3280
G01 X106.6239 Y33.3522
G01 X106.6227 Y33.3521
G01 X106.6164 Y33.3902
G01 X106.6104 Y33.4140
G01 X106.5992 Y33.4510
G01 X106.5909 Y33.4741
G01 X106.5761 Y33.5099
G01 X106.5656 Y33.5321
G01 X106.5474 Y33.5662
G01 X106.5348 Y33.5872
G01 X106.5133 Y33.6194
G01 X106.4986 Y33.6391
G01 X106.4741 Y33.6691
G01 X106.4576 Y33.6872
G01 X106.4302 Y33.7146
G01 X106.4121 Y33.7311
G01 X106.4116 Y33.7305
G01 X106.3821 Y33.7556
G01 X106.3598 Y33.7722
G01 X106.3302 Y33.7918
G01 X106.3092 Y33.8044
G01 X106.2751 Y33.8226
G01 X106.2529 Y33.8331
G01 X106.2332 Y33.8413
G01 X106.2332 Y33.9022
G01 X106.2306 Y33.9579
G01 X106.2299 Y33.9579
G01 X106.2257 Y34.0019
G01 X106.2185 Y34.0438
G01 X106.2102 Y34.0782
G01 X106.2009 Y34.1105
G01 X106.1863 Y34.1523
G01 X106.1725 Y34.1855
G01 X106.1542 Y34.2232
G01 X106.1379 Y34.2527
G01 X106.1144 Y34.2901
G01 X106.0949 Y34.3176
G01 X106.0673 Y34.3521
G01 X106.0297 Y34.3933
G01 X105.8676 Y34.5555
G01 X105.8765 Y34.5865
G01 X105.8864 Y34.6296
G01 X105.9051 Y34.7402
G01 X105.9101 Y34.7841
G01 X105.9164 Y34.8961
G01 X105.9170 Y34.9182
G01 X105.9164 Y34.9403
G01 X105.9101 Y35.0523
G01 X105.9093 Y35.0522
G01 X105.9051 Y35.0962
G01 X105.8848 Y35.2155
G01 X105.8765 Y35.2499
G01 X105.8455 Y35.3577
G01 X105.8309 Y35.3994
G01 X105.7871 Y35.5051
G01 X105.7688 Y35.5429
G01 X105.7145 Y35.6410
G01 X105.6910 Y35.6785
G01 X105.6261 Y35.7699
G01 X105.5985 Y35.8045
G01 X105.5238 Y35.8881
G01 X105.4925 Y35.9194
G01 X105.4089 Y35.9941
G01 X105.4083 Y35.9934
G01 X105.3743 Y36.0217
G01 X105.2783 Y36.0897
G01 X105.2454 Y36.1101
G01 X105.1473 Y36.1644
G01 X105.1074 Y36.1835
G01 X105.0038 Y36.2265
G01 X104.9621 Y36.2411
G01 X104.8543 Y36.2721
G01 X104.8112 Y36.2820
G01 X104.7006 Y36.3007
G01 X104.6567 Y36.3057
G01 X104.5447 Y36.3120
G01 X104.5226 Y36.3126
G01 X104.5005 Y36.3120
G01 X104.3885 Y36.3057
G01 X104.3886 Y36.3049
G01 X104.3446 Y36.3007
G01 X104.2253 Y36.2804
G01 X104.1909 Y36.2721
G01 X104.1014 Y36.2463
G01 X104.1030 Y36.2679
G01 X104.1036 Y36.2900
G01 X104.1022 Y36.3263
G01 X104.1015 Y36.3263
G01 X104.0973 Y36.3703
G01 X104.0949 Y36.3843
G01 X104.0850 Y36.4275
G01 X104.0811 Y36.4412
G01 X104.0665 Y36.4829
G01 X104.0601 Y36.4982
G01 X104.0418 Y36.5359
G01 X104.0349 Y36.5484
G01 X104.0114 Y36.5858
G01 X104.0032 Y36.5975
G01 X103.9756 Y36.6320
G01 X103.9661 Y36.6427
G01 X103.9348 Y36.6739
G01 X103.9242 Y36.6834
G01 X103.9236 Y36.6827
G01 X103.8896 Y36.7110
G01 X103.8735 Y36.7224
G01 X103.8405 Y36.7428
G01 X103.8281 Y36.7497
G01 X103.7882 Y36.7689
G01 X103.7751 Y36.7743
G01 X103.7333 Y36.7889
G01 X103.7196 Y36.7929
G01 X103.6765 Y36.8027
G01 X103.6625 Y36.8051
G01 X103.6185 Y36.8100
G01 X103.5822 Y36.8115
G01 X84.7627 Y36.8115
G01 X84.7263 Y36.8100
G01 X84.7264 Y36.8093
G01 X84.6824 Y36.8051
G01 X84.6596 Y36.8011
G01 X84.6115 Y36.7889
G01 X84.5698 Y36.7743
G01 X84.5545 Y36.7680
G01 X84.5168 Y36.7497
G01 X84.5043 Y36.7428
G01 X84.4669 Y36.7192
G01 X84.4552 Y36.7110
G01 X84.4207 Y36.6834
G01 X84.4100 Y36.6739
G01 X84.3788 Y36.6427
G01 X84.3693 Y36.6320
G01 X84.3700 Y36.6314
G01 X84.3417 Y36.5975
G01 X84.3303 Y36.5813
G01 X84.3099 Y36.5484
G01 X84.3030 Y36.5359
G01 X84.2838 Y36.4961
G01 X84.2784 Y36.4829
G01 X84.2658 Y36.4468
G01 X84.0841 Y36.6285
G01 X84.0680 Y36.6437
G01 X84.0429 Y36.6661
G01 X84.0423 Y36.6655
G01 X84.0084 Y36.6937
G01 X83.9764 Y36.7164
G01 X83.9435 Y36.7367
G01 X83.9140 Y36.7530
G01 X83.8742 Y36.7722
G01 X83.8431 Y36.7851
G01 X83.8013 Y36.7997
G01 X83.7690 Y36.8090
G01 X83.7259 Y36.8189
G01 X83.6927 Y36.8245
G01 X83.6487 Y36.8294
G01 X83.5930 Y36.8320
G01 X79.8371 Y36.8320
G01 X78.9469 Y37.7222
G01 X78.9829 Y37.7348
G01 X78.9982 Y37.7411
G01 X79.0359 Y37.7594
G01 X79.0484 Y37.7663
G01 X79.0858 Y37.7899
G01 X79.0975 Y37.7981
G01 X79.1320 Y37.8257
G01 X79.1427 Y37.8352
G01 X79.1739 Y37.8664
G01 X79.1834 Y37.8771
G01 X79.1827 Y37.8777
G01 X79.2110 Y37.9117
G01 X79.2224 Y37.9278
G01 X79.2428 Y37.9607
G01 X79.2497 Y37.9732
G01 X79.2689 Y38.0130
G01 X79.2743 Y38.0262
G01 X79.2889 Y38.0680
G01 X79.2929 Y38.0816
G01 X79.3027 Y38.1248
G01 X79.3051 Y38.1388
G01 X79.3100 Y38.1828
G01 X79.3115 Y38.2191
G01 X79.3115 Y65.2900
G01 X79.3100 Y65.3263
G01 X79.3093 Y65.3263
G01 X79.3051 Y65.3703
G01 X79.3011 Y65.3931
G01 X79.2889 Y65.4412
G01 X79.2743 Y65.4829
G01 X79.2680 Y65.4982
G01 X79.2497 Y65.5359
G01 X79.2428 Y65.5484
G01 X79.2192 Y65.5858
G01 X79.2110 Y65.5975
G01 X79.1834 Y65.6320
G01 X79.1739 Y65.6427
G01 X79.1427 Y65.6739
G01 X79.1320 Y65.6834
G01 X79.1314 Y65.6827
G01 X79.0975 Y65.7110
G01 X79.0858 Y65.7192
G01 X79.0484 Y65.7428
G01 X79.0359 Y65.7497
G01 X78.9961 Y65.7689
G01 X78.9829 Y65.7743
G01 X78.9412 Y65.7889
G01 X78.9275 Y65.7929
G01 X78.8843 Y65.8027
G01 X78.8703 Y65.8051
G01 X78.8263 Y65.8100
G01 X78.7900 Y65.8115
G01 X70.9577 Y65.8115
G01 X70.9203 Y65.8100
G01 X70.9203 Y65.8092
G01 X70.8751 Y65.8047
G01 X70.8513 Y65.8004
G01 X70.8163 Y65.7918
G01 X70.8022 Y65.7876
G01 X70.7594 Y65.7721
G01 X70.7433 Y65.7652
G01 X70.7052 Y65.7461
G01 X70.6925 Y65.7388
G01 X70.6543 Y65.7139
G01 X70.6425 Y65.7052
G01 X70.6075 Y65.6761
G01 X70.5869 Y65.6566
G01 X70.5558 Y65.6220
G01 X70.5284 Y65.5857
G01 X70.5178 Y65.5698
G01 X70.4972 Y65.5342
G01 X70.4905 Y65.5212
G01 X70.4721 Y65.4795
G01 X70.4646 Y65.4592
G01 X70.4535 Y65.4223
G01 X70.4500 Y65.4081
G01 X70.4416 Y65.3633
G01 X70.4397 Y65.3488
G01 X70.4366 Y65.3034
G01 X70.4364 Y65.2841
G01 X70.4385 Y65.2432
G01 X70.4400 Y65.2286
G01 X70.4412 Y65.2287
G01 X70.4474 Y65.1837
G01 X70.4506 Y65.1694
G01 X70.4630 Y65.1256
G01 X70.4678 Y65.1117
G01 X70.4690 Y65.1121
G01 X70.4759 Y65.0904
G01 X70.5155 Y64.9948
G01 X70.5155 Y64.3003
G01 X70.5126 Y64.2885
G01 X70.5037 Y64.2412
G01 X70.2375 Y63.5986
G01 X69.7554 Y63.1165
G01 X69.1256 Y62.8557
G01 X68.4440 Y62.8557
G01 X67.8142 Y63.1165
G01 X67.3321 Y63.5986
G01 X67.0713 Y64.2284
G01 X67.0713 Y64.9229
G01 X67.0742 Y64.9347
G01 X67.0831 Y64.9820
G01 X67.1281 Y65.0904
G01 X67.1410 Y65.1256
G01 X67.1534 Y65.1694
G01 X67.1566 Y65.1837
G01 X67.1640 Y65.2286
G01 X67.1655 Y65.2432
G01 X67.1676 Y65.2841
G01 X67.1674 Y65.3034
G01 X67.1643 Y65.3488
G01 X67.1610 Y65.3735
G01 X67.1505 Y65.4223
G01 X67.1371 Y65.4658
G01 X67.1305 Y65.4833
G01 X67.1135 Y65.5212
G01 X67.1068 Y65.5342
G01 X67.0838 Y65.5735
G01 X67.0756 Y65.5857
G01 X67.0482 Y65.6220
G01 X67.0387 Y65.6332
G01 X67.0171 Y65.6566
G01 X66.9965 Y65.6761
G01 X66.9961 Y65.6757
G01 X66.9615 Y65.7052
G01 X66.9438 Y65.7182
G01 X66.9115 Y65.7388
G01 X66.8988 Y65.7461
G01 X66.8581 Y65.7664
G01 X66.8446 Y65.7721
G01 X66.8018 Y65.7876
G01 X66.7877 Y65.7918
G01 X66.7434 Y65.8022
G01 X66.7289 Y65.8047
G01 X66.6837 Y65.8100
G01 X66.6463 Y65.8115
G01 X59.6041 Y65.8115
G01 X59.5674 Y65.8100
G01 X59.5674 Y65.8093
G01 X59.5230 Y65.8050
G01 X59.4999 Y65.8009
G01 X59.4653 Y65.7925
G01 X59.4515 Y65.7885
G01 X59.4093 Y65.7736
G01 X59.3937 Y65.7670
G01 X59.3559 Y65.7484
G01 X59.3434 Y65.7414
G01 X59.3057 Y65.7174
G01 X59.2940 Y65.7090
G01 X59.2592 Y65.6810
G01 X59.2486 Y65.6713
G01 X59.2172 Y65.6395
G01 X59.2077 Y65.6286
G01 X59.1870 Y65.6022
G01 X59.1383 Y65.6709
G01 X59.1107 Y65.7055
G01 X59.0360 Y65.7891
G01 X59.0047 Y65.8204
G01 X58.9211 Y65.8951
G01 X58.9205 Y65.8944
G01 X58.8865 Y65.9227
G01 X58.7905 Y65.9907
G01 X58.7576 Y66.0111
G01 X58.6595 Y66.0654
G01 X58.6196 Y66.0845
G01 X58.5160 Y66.1275
G01 X58.4743 Y66.1421
G01 X58.3665 Y66.1731
G01 X58.3234 Y66.1830
G01 X58.2128 Y66.2017
G01 X58.1689 Y66.2067
G01 X58.0569 Y66.2130
G01 X58.0348 Y66.2136
G01 X58.0127 Y66.2130
G01 X57.9007 Y66.2067
G01 X57.9008 Y66.2059
G01 X57.8568 Y66.2017
G01 X57.7375 Y66.1814
G01 X57.7031 Y66.1731
G01 X57.5953 Y66.1421
G01 X57.5536 Y66.1275
G01 X57.4479 Y66.0837
G01 X57.4101 Y66.0654
G01 X57.3120 Y66.0111
G01 X57.2745 Y65.9876
G01 X57.1831 Y65.9227
G01 X57.1485 Y65.8951
G01 X57.0649 Y65.8204
G01 X57.0336 Y65.7891
G01 X56.9589 Y65.7055
G01 X56.9596 Y65.7049
G01 X56.9313 Y65.6709
G01 X56.8633 Y65.5749
G01 X56.8429 Y65.5420
G01 X56.7886 Y65.4439
G01 X56.7695 Y65.4040
G01 X56.7648 Y65.3928
G01 X56.7593 Y65.4061
G01 X56.7410 Y65.4439
G01 X56.6867 Y65.5420
G01 X56.6632 Y65.5795
G01 X56.5983 Y65.6709
G01 X56.5707 Y65.7055
G01 X56.4960 Y65.7891
G01 X56.4647 Y65.8204
G01 X56.3811 Y65.8951
G01 X56.3805 Y65.8944
G01 X56.3465 Y65.9227
G01 X56.2505 Y65.9907
G01 X56.2176 Y66.0111
G01 X56.1195 Y66.0654
G01 X56.0796 Y66.0845
G01 X55.9760 Y66.1275
G01 X55.9343 Y66.1421
G01 X55.8265 Y66.1731
G01 X55.7834 Y66.1830
G01 X55.6728 Y66.2017
G01 X55.6289 Y66.2067
G01 X55.5169 Y66.2130
G01 X55.4948 Y66.2136
G01 X55.4727 Y66.2130
G01 X55.3607 Y66.2067
G01 X55.3608 Y66.2059
G01 X55.3168 Y66.2017
G01 X55.1975 Y66.1814
G01 X55.1631 Y66.1731
G01 X55.0553 Y66.1421
G01 X55.0136 Y66.1275
G01 X54.9079 Y66.0837
G01 X54.8701 Y66.0654
G01 X54.7720 Y66.0111
G01 X54.7345 Y65.9876
G01 X54.6431 Y65.9227
G01 X54.6085 Y65.8951
G01 X54.5249 Y65.8204
G01 X54.4936 Y65.7891
G01 X54.4189 Y65.7055
G01 X54.4196 Y65.7049
G01 X54.3913 Y65.6709
G01 X54.3233 Y65.5749
G01 X54.3029 Y65.5420
G01 X54.2486 Y65.4439
G01 X54.2295 Y65.4040
G01 X54.2248 Y65.3928
G01 X54.2193 Y65.4061
G01 X54.2010 Y65.4439
G01 X54.1467 Y65.5420
G01 X54.1232 Y65.5795
G01 X54.0583 Y65.6709
G01 X54.0307 Y65.7055
G01 X53.9560 Y65.7891
G01 X53.9247 Y65.8204
G01 X53.8411 Y65.8951
G01 X53.8405 Y65.8944
G01 X53.8065 Y65.9227
G01 X53.7105 Y65.9907
G01 X53.6776 Y66.0111
G01 X53.5795 Y66.0654
G01 X53.5396 Y66.0845
G01 X53.4360 Y66.1275
G01 X53.3943 Y66.1421
G01 X53.2865 Y66.1731
G01 X53.2434 Y66.1830
G01 X53.1328 Y66.2017
G01 X53.0889 Y66.2067
G01 X52.9769 Y66.2130
G01 X52.9548 Y66.2136
G01 X52.9327 Y66.2130
G01 X52.8207 Y66.2067
G01 X52.8208 Y66.2059
G01 X52.7768 Y66.2017
G01 X52.6575 Y66.1814
G01 X52.6231 Y66.1731
G01 X52.5153 Y66.1421
G01 X52.4736 Y66.1275
G01 X52.3679 Y66.0837
G01 X52.3301 Y66.0654
G01 X52.2320 Y66.0111
G01 X52.1945 Y65.9876
G01 X52.1031 Y65.9227
G01 X52.0685 Y65.8951
G01 X51.9849 Y65.8204
G01 X51.9536 Y65.7891
G01 X51.8789 Y65.7055
G01 X51.8796 Y65.7049
G01 X51.8513 Y65.6709
G01 X51.7833 Y65.5749
G01 X51.7629 Y65.5420
G01 X51.7086 Y65.4439
G01 X51.6895 Y65.4040
G01 X51.6848 Y65.3928
G01 X51.6793 Y65.4061
G01 X51.6610 Y65.4439
G01 X51.6067 Y65.5420
G01 X51.5832 Y65.5795
G01 X51.5183 Y65.6709
G01 X51.4907 Y65.7055
G01 X51.4160 Y65.7891
G01 X51.3847 Y65.8204
G01 X51.3011 Y65.8951
G01 X51.3005 Y65.8944
G01 X51.2665 Y65.9227
G01 X51.1751 Y65.9876
G01 X51.1376 Y66.0111
G01 X51.0395 Y66.0654
G01 X50.9996 Y66.0845
G01 X50.8960 Y66.1275
G01 X50.8543 Y66.1421
G01 X50.7465 Y66.1731
G01 X50.7034 Y66.1830
G01 X50.5928 Y66.2017
G01 X50.5489 Y66.2067
G01 X50.4369 Y66.2130
G01 X50.4148 Y66.2136
G01 X50.3927 Y66.2130
G01 X50.2807 Y66.2067
G01 X50.2808 Y66.2059
G01 X50.2368 Y66.2017
G01 X50.1175 Y66.1814
G01 X50.0831 Y66.1731
G01 X49.9753 Y66.1421
G01 X49.9336 Y66.1275
G01 X49.8279 Y66.0837
G01 X49.7901 Y66.0654
G01 X49.6920 Y66.0111
G01 X49.6545 Y65.9876
G01 X49.5631 Y65.9227
G01 X49.5285 Y65.8951
G01 X49.4449 Y65.8204
G01 X49.4136 Y65.7891
G01 X49.3389 Y65.7055
G01 X49.3396 Y65.7049
G01 X49.3113 Y65.6709
G01 X49.2433 Y65.5749
G01 X49.2229 Y65.5420
G01 X49.1686 Y65.4439
G01 X49.1495 Y65.4040
G01 X49.1065 Y65.3004
G01 X49.0919 Y65.2587
G01 X49.0609 Y65.1509
G01 X49.0510 Y65.1078
G01 X49.0323 Y64.9972
G01 X49.0273 Y64.9533
G01 X49.0210 Y64.8413
G01 X49.0204 Y64.8192
G01 X49.0210 Y64.7971
G01 X49.0273 Y64.6851
G01 X49.0281 Y64.6852
G01 X49.0323 Y64.6412
G01 X49.0526 Y64.5219
G01 X49.0609 Y64.4875
G01 X49.0919 Y64.3797
G01 X49.1065 Y64.3380
G01 X49.1503 Y64.2323
G01 X49.1686 Y64.1945
G01 X49.2229 Y64.0964
G01 X49.2464 Y64.0589
G01 X49.3113 Y63.9675
G01 X49.3389 Y63.9329
G01 X49.4136 Y63.8493
G01 X49.4449 Y63.8180
G01 X49.5285 Y63.7433
G01 X49.5291 Y63.7440
G01 X49.5631 Y63.7157
G01 X49.6591 Y63.6477
G01 X49.6920 Y63.6273
G01 X49.7202 Y63.6117
G01 X49.7202 Y61.0827
G01 X46.4399 Y57.8024
G01 X46.4089 Y57.8113
G01 X46.3658 Y57.8212
G01 X46.2552 Y57.8399
G01 X46.2113 Y57.8449
G01 X46.0993 Y57.8512
G01 X46.0772 Y57.8518
G01 X46.0551 Y57.8512
G01 X45.9431 Y57.8449
G01 X45.9432 Y57.8441
G01 X45.8992 Y57.8399
G01 X45.7799 Y57.8196
G01 X45.7455 Y57.8113
G01 X45.6377 Y57.7803
G01 X45.5960 Y57.7657
G01 X45.4903 Y57.7219
G01 X45.4525 Y57.7036
G01 X45.3544 Y57.6493
G01 X45.3169 Y57.6258
G01 X45.2255 Y57.5609
G01 X45.1909 Y57.5333
G01 X45.1073 Y57.4586
G01 X45.0760 Y57.4273
G01 X45.0013 Y57.3437
G01 X45.0020 Y57.3431
G01 X44.9737 Y57.3091
G01 X44.9057 Y57.2131
G01 X44.8853 Y57.1802
G01 X44.8310 Y57.0821
G01 X44.8119 Y57.0422
G01 X44.7689 Y56.9386
G01 X44.7543 Y56.8969
G01 X44.7233 Y56.7891
G01 X44.7134 Y56.7460
G01 X44.6947 Y56.6354
G01 X44.6897 Y56.5915
G01 X44.6834 Y56.4795
G01 X44.6828 Y56.4574
G01 X44.6834 Y56.4353
G01 X44.6897 Y56.3233
G01 X44.6905 Y56.3234
G01 X44.6947 Y56.2794
G01 X44.7150 Y56.1601
G01 X44.7233 Y56.1257
G01 X44.7543 Y56.0179
G01 X44.7689 Y55.9762
G01 X44.8127 Y55.8705
G01 X44.8310 Y55.8327
G01 X44.8853 Y55.7346
G01 X44.9088 Y55.6971
G01 X44.9737 Y55.6057
G01 X45.0013 Y55.5711
G01 X45.0760 Y55.4875
G01 X45.1073 Y55.4562
G01 X45.1909 Y55.3815
G01 X45.1915 Y55.3822
G01 X45.2255 Y55.3539
G01 X45.3169 Y55.2890
G01 X45.3544 Y55.2655
G01 X45.4525 Y55.2112
G01 X45.4924 Y55.1921
G01 X45.5960 Y55.1491
G01 X45.6377 Y55.1345
G01 X45.7455 Y55.1035
G01 X45.7886 Y55.0936
G01 X45.8992 Y55.0749
G01 X45.9431 Y55.0699
G01 X45.9566 Y55.0692
G01 X44.5615 Y55.0692
G01 X39.9900 Y59.6407
G01 X39.9900 Y60.9532
G01 X39.9874 Y61.0089
G01 X39.9867 Y61.0089
G01 X39.9825 Y61.0529
G01 X39.9769 Y61.0861
G01 X39.9670 Y61.1292
G01 X39.9577 Y61.1615
G01 X39.9431 Y61.2033
G01 X39.9302 Y61.2344
G01 X39.9110 Y61.2742
G01 X39.8947 Y61.3037
G01 X39.8712 Y61.3411
G01 X39.8517 Y61.3686
G01 X39.8241 Y61.4031
G01 X39.7865 Y61.4443
G01 X35.9003 Y65.3305
G01 X35.8591 Y65.3681
G01 X35.8585 Y65.3675
G01 X35.8246 Y65.3957
G01 X35.7926 Y65.4184
G01 X35.7597 Y65.4387
G01 X35.7302 Y65.4550
G01 X35.6904 Y65.4742
G01 X35.6593 Y65.4871
G01 X35.6175 Y65.5017
G01 X35.5852 Y65.5110
G01 X35.5421 Y65.5209
G01 X35.5089 Y65.5265
G01 X35.4649 Y65.5314
G01 X35.4092 Y65.5340
G01 X4.0402 Y65.5340
G01 X3.9845 Y65.5314
G01 X3.9845 Y65.5307
G01 X3.9405 Y65.5265
G01 X3.8986 Y65.5193
G01 X3.8642 Y65.5110
G01 X3.8319 Y65.5017
G01 X3.7901 Y65.4871
G01 X3.7569 Y65.4733
G01 X3.7192 Y65.4550
G01 X3.6897 Y65.4387
G01 X3.6714 Y65.4272
G01 X3.6674 Y65.4412
G01 X3.6528 Y65.4829
G01 X3.6465 Y65.4982
G01 X3.6282 Y65.5359
G01 X3.6213 Y65.5484
G01 X3.5978 Y65.5858
G01 X3.5895 Y65.5975
G01 X3.5619 Y65.6320
G01 X3.5524 Y65.6427
G01 X3.5212 Y65.6739
G01 X3.5105 Y65.6834
G01 X3.5099 Y65.6827
G01 X3.4760 Y65.7110
G01 X3.4643 Y65.7192
G01 X3.4269 Y65.7428
G01 X3.4144 Y65.7497
G01 X3.3746 Y65.7689
G01 X3.3614 Y65.7743
G01 X3.3197 Y65.7889
G01 X3.3060 Y65.7929
G01 X3.2628 Y65.8027
G01 X3.2488 Y65.8051
G01 X3.2049 Y65.8100
G01 X3.1685 Y65.8115
G01 X0.7100 Y65.8115
G01 X0.6737 Y65.8100
G01 X0.6737 Y65.8093
G01 X0.6297 Y65.8051
G01 X0.6069 Y65.8011
G01 X0.5588 Y65.7889
G01 X0.5171 Y65.7743
G01 X0.5039 Y65.7689
G01 X0.4641 Y65.7497
G01 X0.4516 Y65.7428
G01 X0.4142 Y65.7192
G01 X0.4025 Y65.7110
G01 X0.3680 Y65.6834
G01 X0.3573 Y65.6739
G01 X0.3261 Y65.6427
G01 X0.3166 Y65.6320
G01 X0.3173 Y65.6314
G01 X0.2890 Y65.5975
G01 X0.2776 Y65.5813
G01 X0.2572 Y65.5484
G01 X0.2503 Y65.5359
G01 X0.2311 Y65.4961
G01 X0.2257 Y65.4829
G01 X0.2111 Y65.4412
G01 X0.2071 Y65.4275
G01 X0.1973 Y65.3843
G01 X0.1949 Y65.3703
G01 X0.1900 Y65.3263
G01 X0.1885 Y65.2900
G01 X0.1885 Y0.7350
G01 X0.1900 Y0.6987
G01 X0.1907 Y0.6987
G01 X0.1949 Y0.6547
G00 Z5.0000
G00 X0.3449 Y0.7074
G01 F5050.00
G01 Z-0.1306
G01 F500.00
G01 X0.3474 Y0.6806
G01 X0.3508 Y0.6613
G01 X0.3558 Y0.6404
G01 X0.3597 Y0.6267
G01 X0.3686 Y0.6013
G01 X0.3746 Y0.5869
G01 X0.3926 Y0.5515
G01 X0.4069 Y0.5287
G01 X0.4152 Y0.5171
G01 X0.4319 Y0.4961
G01 X0.4507 Y0.4757
G01 X0.4598 Y0.4670
G01 X0.4711 Y0.4569
G01 X0.4714 Y0.4574
G01 X0.4921 Y0.4402
G01 X0.5064 Y0.4300
G01 X0.5389 Y0.4107
G01 X0.5631 Y0.3991
G01 X0.5763 Y0.3936
G01 X0.6017 Y0.3847
G01 X0.6154 Y0.3808
G01 X0.6416 Y0.3748
G01 X0.6556 Y0.3724
G01 X0.6823 Y0.3694
G01 X0.7100 Y0.3682
G01 X72.1075 Y0.3682
G01 X72.1348 Y0.3694
G01 X72.1613 Y0.3723
G01 X72.1803 Y0.3756
G01 X72.2147 Y0.3844
G01 X72.2398 Y0.3931
G01 X72.2540 Y0.3989
G01 X72.2892 Y0.4166
G01 X72.3118 Y0.4306
G01 X72.3234 Y0.4387
G01 X72.3443 Y0.4551
G01 X72.3548 Y0.4644
G01 X72.3738 Y0.4830
G01 X72.3833 Y0.4935
G01 X72.4001 Y0.5141
G01 X72.4104 Y0.5283
G01 X72.4297 Y0.5601
G01 X72.4415 Y0.5839
G01 X72.4471 Y0.5969
G01 X72.4562 Y0.6218
G01 X72.4603 Y0.6353
G01 X72.4666 Y0.6612
G01 X72.4692 Y0.6750
G01 X72.4726 Y0.7014
G01 X72.4736 Y0.7155
G01 X72.4740 Y0.7420
G01 X72.4735 Y0.7561
G01 X72.4710 Y0.7826
G01 X72.4687 Y0.7980
G01 X72.4599 Y0.8362
G01 X72.4516 Y0.8615
G01 X72.4460 Y0.8760
G01 X72.4290 Y0.9113
G01 X72.4153 Y0.9341
G01 X72.4074 Y0.9458
G01 X72.3914 Y0.9670
G01 X72.3823 Y0.9777
G01 X72.3691 Y0.9920
G01 X72.3537 Y1.0067
G01 X72.3334 Y1.0238
G01 X72.3221 Y1.0323
G01 X72.2372 Y1.0894
G01 X72.1779 Y1.1781
G01 X72.1499 Y1.3189
G01 X72.1499 Y2.7967
G01 X72.1487 Y2.8249
G01 X72.1456 Y2.8522
G01 X72.1420 Y2.8721
G01 X72.1327 Y2.9072
G01 X72.1235 Y2.9330
G01 X72.1172 Y2.9480
G01 X72.0985 Y2.9837
G01 X72.0836 Y3.0067
G01 X72.0751 Y3.0185
G01 X72.0577 Y3.0397
G01 X72.0478 Y3.0504
G01 X72.0281 Y3.0695
G01 X72.0171 Y3.0790
G01 X71.9953 Y3.0957
G01 X71.9809 Y3.1055
G01 X71.9597 Y3.1180
G01 X71.9469 Y3.1247
G01 X71.9219 Y3.1360
G01 X71.9083 Y3.1413
G01 X71.8822 Y3.1497
G01 X71.8681 Y3.1533
G01 X71.5835 Y3.2103
G01 X71.3955 Y3.3359
G01 X71.3697 Y3.3730
G01 X71.3548 Y3.3912
G01 X71.3383 Y3.4089
G01 X70.7595 Y3.9877
G01 X70.7418 Y4.0042
G01 X70.7236 Y4.0191
G01 X70.6865 Y4.0449
G01 X70.5609 Y4.2329
G01 X70.5168 Y4.4546
G01 X70.5248 Y4.4991
G01 X70.5271 Y4.5225
G01 X70.5280 Y4.5467
G01 X70.5280 Y10.7685
G01 X70.5271 Y10.7927
G01 X70.5248 Y10.8161
G01 X70.5168 Y10.8606
G01 X70.5609 Y11.0823
G01 X70.6865 Y11.2703
G01 X70.7236 Y11.2961
G01 X70.7510 Y11.3194
G01 X70.8151 Y11.3837
G01 X70.8246 Y11.3943
G01 X70.8242 Y11.3947
G01 X70.8414 Y11.4153
G01 X70.8516 Y11.4297
G01 X70.8708 Y11.4622
G01 X70.8825 Y11.4864
G01 X70.8879 Y11.4996
G01 X70.8968 Y11.5249
G01 X70.9008 Y11.5386
G01 X70.9068 Y11.5648
G01 X70.9091 Y11.5789
G01 X70.9121 Y11.6056
G01 X70.9133 Y11.6332
G01 X70.9129 Y11.8970
G01 X70.9121 Y11.9112
G01 X70.9091 Y11.9379
G01 X70.9068 Y11.9520
G01 X70.9008 Y11.9782
G01 X70.8968 Y11.9919
G01 X70.8879 Y12.0172
G01 X70.8820 Y12.0317
G01 X70.8639 Y12.0671
G01 X70.8496 Y12.0899
G01 X70.8414 Y12.1015
G01 X70.8246 Y12.1225
G01 X70.8059 Y12.1429
G01 X69.8123 Y13.1365
G01 X69.7919 Y13.1553
G01 X69.7915 Y13.1548
G01 X69.7708 Y13.1720
G01 X69.7565 Y13.1822
G01 X69.7240 Y13.2015
G01 X69.6998 Y13.2131
G01 X69.6866 Y13.2186
G01 X69.6612 Y13.2275
G01 X69.6475 Y13.2314
G01 X69.6213 Y13.2374
G01 X69.6073 Y13.2398
G01 X69.5806 Y13.2428
G01 X69.5529 Y13.2440
G01 X68.5876 Y13.2440
G01 X68.5600 Y13.2428
G01 X68.5333 Y13.2398
G01 X68.5139 Y13.2364
G01 X68.4793 Y13.2275
G01 X68.4539 Y13.2186
G01 X68.4395 Y13.2126
G01 X68.4041 Y13.1946
G01 X68.3813 Y13.1803
G01 X68.3697 Y13.1720
G01 X68.3487 Y13.1553
G01 X68.3381 Y13.1458
G01 X68.3191 Y13.1268
G01 X68.3096 Y13.1161
G01 X68.3100 Y13.1158
G01 X68.2928 Y13.0951
G01 X68.2826 Y13.0808
G01 X68.2634 Y13.0483
G01 X68.2517 Y13.0241
G01 X68.2463 Y13.0109
G01 X68.2374 Y12.9855
G01 X68.2334 Y12.9718
G01 X68.2274 Y12.9456
G01 X68.2251 Y12.9316
G01 X68.2220 Y12.9040
G01 X68.1929 Y12.7575
G01 X68.1336 Y12.6688
G01 X68.0631 Y12.6213
G01 X68.0519 Y12.6129
G01 X68.0257 Y12.5902
G01 X67.9883 Y12.6276
G01 X68.0182 Y12.6355
G01 X68.0427 Y12.6455
G01 X68.0668 Y12.6586
G01 X68.0892 Y12.6744
G01 X68.1097 Y12.6927
G01 X68.1280 Y12.7132
G01 X68.1438 Y12.7356
G01 X68.1569 Y12.7597
G01 X68.1669 Y12.7842
G01 X68.1741 Y12.8097
G01 X68.1784 Y12.8358
G01 X68.1799 Y12.8622
G01 X68.1799 Y13.2723
G01 X69.7166 Y13.2723
G01 X70.9543 Y12.0346
G01 X70.9543 Y11.4822
G01 X70.7145 Y11.2423
G01 X70.6828 Y11.2075
G01 X70.6832 Y11.2071
G01 X70.6660 Y11.1864
G01 X70.6446 Y11.1563
G01 X70.6323 Y11.1362
G01 X70.6160 Y11.1068
G01 X70.6043 Y11.0826
G01 X70.5914 Y11.0515
G01 X70.5826 Y11.0261
G01 X70.5732 Y10.9937
G01 X70.5673 Y10.9675
G01 X70.5616 Y10.9344
G01 X70.5586 Y10.9076
G01 X70.5567 Y10.8740
G01 X70.5563 Y4.4546
G01 X70.5586 Y4.4076
G01 X70.5616 Y4.3808
G01 X70.5682 Y4.3424
G01 X70.5732 Y4.3215
G01 X70.5826 Y4.2891
G01 X70.5914 Y4.2637
G01 X70.6049 Y4.2314
G01 X70.6160 Y4.2084
G01 X70.6323 Y4.1790
G01 X70.6466 Y4.1562
G01 X70.6660 Y4.1288
G01 X70.6828 Y4.1077
G01 X70.7145 Y4.0729
G01 X71.4235 Y3.3639
G01 X71.4583 Y3.3322
G01 X71.4587 Y3.3326
G01 X71.4794 Y3.3154
G01 X71.5095 Y3.2940
G01 X71.5296 Y3.2817
G01 X71.5590 Y3.2654
G01 X71.5832 Y3.2537
G01 X71.6143 Y3.2408
G01 X71.6397 Y3.2320
G01 X71.6721 Y3.2226
G01 X71.6983 Y3.2167
G01 X71.7314 Y3.2110
G01 X71.7582 Y3.2080
G01 X71.8052 Y3.2057
G01 X72.1909 Y3.2057
G01 X72.1909 Y1.2828
G01 X72.1924 Y1.2564
G01 X72.1967 Y1.2303
G01 X72.2039 Y1.2048
G01 X72.2139 Y1.1803
G01 X72.2270 Y1.1562
G01 X72.2428 Y1.1338
G01 X72.2611 Y1.1133
G01 X72.2816 Y1.0950
G01 X72.3040 Y1.0792
G01 X72.3281 Y1.0661
G01 X72.3526 Y1.0561
G01 X72.3781 Y1.0489
G01 X72.4042 Y1.0446
G01 X72.4306 Y1.0431
G01 X74.1306 Y1.0431
G01 X74.1570 Y1.0446
G01 X74.1831 Y1.0489
G01 X74.2086 Y1.0561
G01 X74.2331 Y1.0661
G01 X74.2572 Y1.0792
G01 X74.2796 Y1.0950
G01 X74.3001 Y1.1133
G01 X74.3184 Y1.1338
G01 X74.3342 Y1.1562
G01 X74.3473 Y1.1803
G01 X74.3573 Y1.2048
G01 X74.3645 Y1.2303
G01 X74.3688 Y1.2564
G01 X74.3703 Y1.2828
G01 X74.3703 Y4.5828
G01 X74.3688 Y4.6092
G01 X74.3645 Y4.6353
G01 X74.3573 Y4.6608
G01 X74.3473 Y4.6853
G01 X74.3342 Y4.7094
G01 X74.3184 Y4.7318
G01 X74.3001 Y4.7523
G01 X74.2796 Y4.7706
G01 X74.2572 Y4.7864
G01 X74.2331 Y4.7995
G01 X74.2086 Y4.8095
G01 X74.1831 Y4.8167
G01 X74.1570 Y4.8210
G01 X74.1306 Y4.8225
G01 X72.4306 Y4.8225
G01 X72.4042 Y4.8210
G01 X72.3781 Y4.8167
G01 X72.3526 Y4.8095
G01 X72.3281 Y4.7995
G01 X72.3040 Y4.7864
G01 X72.2816 Y4.7706
G01 X72.2611 Y4.7523
G01 X72.2428 Y4.7318
G01 X72.2270 Y4.7094
G01 X72.2139 Y4.6853
G01 X72.2039 Y4.6608
G01 X72.1967 Y4.6353
G01 X72.1924 Y4.6092
G01 X72.1909 Y4.5828
G01 X72.1909 Y4.2855
G01 X72.0288 Y4.2855
G01 X71.6361 Y4.6782
G01 X71.6361 Y10.6370
G01 X71.9678 Y10.9687
G01 X71.9940 Y10.9687
G01 X72.0204 Y10.9702
G01 X72.0465 Y10.9745
G01 X72.0720 Y10.9817
G01 X72.0965 Y10.9917
G01 X72.1206 Y11.0048
G01 X72.1430 Y11.0206
G01 X72.1635 Y11.0389
G01 X72.1817 Y11.0594
G01 X72.1975 Y11.0818
G01 X72.2107 Y11.1059
G01 X72.2207 Y11.1304
G01 X72.2279 Y11.1559
G01 X72.2322 Y11.1820
G01 X72.2337 Y11.2084
G01 X72.2337 Y13.1084
G01 X72.2322 Y13.1348
G01 X72.2279 Y13.1609
G01 X72.2207 Y13.1864
G01 X72.2107 Y13.2109
G01 X72.1975 Y13.2350
G01 X72.1817 Y13.2574
G01 X72.1635 Y13.2779
G01 X72.1430 Y13.2962
G01 X72.1206 Y13.3120
G01 X72.0965 Y13.3251
G01 X72.0720 Y13.3351
G01 X72.0465 Y13.3423
G01 X72.0204 Y13.3466
G01 X71.9940 Y13.3481
G01 X71.1940 Y13.3481
G01 X71.1691 Y13.3467
G01 X70.3122 Y14.2032
G01 X70.2871 Y14.2256
G01 X70.2867 Y14.2252
G01 X70.2660 Y14.2424
G01 X70.2359 Y14.2638
G01 X70.2158 Y14.2761
G01 X70.1864 Y14.2924
G01 X70.1622 Y14.3041
G01 X70.1311 Y14.3170
G01 X70.1057 Y14.3258
G01 X70.0733 Y14.3352
G01 X70.0471 Y14.3411
G01 X70.0140 Y14.3468
G01 X69.9872 Y14.3498
G01 X69.9402 Y14.3521
G01 X68.1799 Y14.3521
G01 X68.1799 Y14.7622
G01 X68.1784 Y14.7886
G01 X68.1741 Y14.8147
G01 X68.1669 Y14.8402
G01 X68.1569 Y14.8647
G01 X68.1438 Y14.8888
G01 X68.1280 Y14.9112
G01 X68.1097 Y14.9317
G01 X68.0892 Y14.9500
G01 X68.0801 Y14.9564
G01 X68.0801 Y15.5700
G01 X68.0919 Y15.5879
G01 X68.1045 Y15.6089
G01 X68.1156 Y15.6297
G01 X68.1261 Y15.6518
G01 X68.1351 Y15.6736
G01 X68.1433 Y15.6967
G01 X68.1502 Y15.7192
G01 X68.1561 Y15.7430
G01 X68.1607 Y15.7661
G01 X68.1643 Y15.7903
G01 X68.1666 Y15.8137
G01 X68.1678 Y15.8382
G01 X68.1681 Y16.7500
G01 X68.1666 Y16.7863
G01 X68.1643 Y16.8097
G01 X68.1607 Y16.8339
G01 X68.1599 Y16.8338
G01 X68.1561 Y16.8570
G01 X68.1502 Y16.8808
G01 X68.1433 Y16.9033
G01 X68.1351 Y16.9264
G01 X68.1261 Y16.9482
G01 X68.1156 Y16.9703
G01 X68.1045 Y16.9911
G01 X68.0919 Y17.0121
G01 X68.0788 Y17.0317
G01 X68.0642 Y17.0514
G01 X68.0493 Y17.0696
G01 X68.0328 Y17.0878
G01 X68.0162 Y17.1044
G01 X67.9980 Y17.1209
G01 X67.9798 Y17.1358
G01 X67.9601 Y17.1504
G01 X67.9405 Y17.1635
G01 X67.9195 Y17.1761
G01 X67.8987 Y17.1872
G01 X67.8766 Y17.1977
G01 X67.8548 Y17.2067
G01 X67.8317 Y17.2149
G01 X67.8092 Y17.2218
G01 X67.7854 Y17.2277
G01 X67.7623 Y17.2323
G01 X67.7381 Y17.2359
G01 X67.7147 Y17.2382
G01 X67.6784 Y17.2397
G01 X67.0284 Y17.2397
G01 X66.9921 Y17.2382
G01 X66.9687 Y17.2359
G01 X66.9445 Y17.2323
G01 X66.9446 Y17.2315
G01 X66.9214 Y17.2277
G01 X66.8976 Y17.2218
G01 X66.8751 Y17.2149
G01 X66.8520 Y17.2067
G01 X66.8302 Y17.1977
G01 X66.8081 Y17.1872
G01 X66.7873 Y17.1761
G01 X66.7663 Y17.1635
G01 X66.7467 Y17.1504
G01 X66.7270 Y17.1358
G01 X66.7088 Y17.1209
G01 X66.6906 Y17.1044
G01 X66.6740 Y17.0878
G01 X66.6575 Y17.0696
G01 X66.6426 Y17.0514
G01 X66.6280 Y17.0317
G01 X66.6149 Y17.0121
G01 X66.6023 Y16.9911
G01 X66.5912 Y16.9703
G01 X66.5807 Y16.9482
G01 X66.5717 Y16.9264
G01 X66.5635 Y16.9033
G01 X66.5566 Y16.8808
G01 X66.5507 Y16.8570
G01 X66.5461 Y16.8339
G01 X66.5425 Y16.8097
G01 X66.5402 Y16.7863
G01 X66.5387 Y16.7500
G01 X66.5387 Y15.8500
G01 X66.5402 Y15.8137
G01 X66.5425 Y15.7903
G01 X66.5461 Y15.7661
G01 X66.5469 Y15.7662
G01 X66.5507 Y15.7430
G01 X66.5566 Y15.7192
G01 X66.5635 Y15.6967
G01 X66.5717 Y15.6736
G01 X66.5807 Y15.6518
G01 X66.5912 Y15.6297
G01 X66.6023 Y15.6089
G01 X66.6149 Y15.5879
G01 X66.6280 Y15.5683
G01 X66.6426 Y15.5486
G01 X66.6575 Y15.5304
G01 X66.6740 Y15.5122
G01 X66.6906 Y15.4956
G01 X66.7088 Y15.4791
G01 X66.7270 Y15.4642
G01 X66.7483 Y15.4484
G01 X66.7663 Y15.4365
G01 X66.7873 Y15.4239
G01 X66.8081 Y15.4128
G01 X66.8302 Y15.4023
G01 X66.8520 Y15.3933
G01 X66.8751 Y15.3851
G01 X66.8976 Y15.3782
G01 X66.9214 Y15.3723
G01 X66.9445 Y15.3677
G01 X66.9687 Y15.3641
G01 X67.0003 Y15.3614
G01 X67.0003 Y14.9564
G01 X66.9912 Y14.9500
G01 X66.9707 Y14.9317
G01 X66.9524 Y14.9112
G01 X66.9366 Y14.8888
G01 X66.9235 Y14.8647
G01 X66.9135 Y14.8402
G01 X66.9063 Y14.8147
G01 X66.9020 Y14.7886
G01 X66.9005 Y14.7622
G01 X66.9005 Y12.9020
G01 X66.8595 Y12.9020
G01 X66.8595 Y14.7261
G01 X66.8875 Y14.8669
G01 X66.9105 Y14.9034
G01 X66.9229 Y14.9273
G01 X66.9287 Y14.9403
G01 X66.9383 Y14.9654
G01 X66.9426 Y14.9790
G01 X66.9493 Y15.0050
G01 X66.9521 Y15.0190
G01 X66.9559 Y15.0456
G01 X66.9571 Y15.0598
G01 X66.9578 Y15.0867
G01 X66.9574 Y15.1009
G01 X66.9552 Y15.1277
G01 X66.9524 Y15.1468
G01 X66.9444 Y15.1820
G01 X66.9362 Y15.2076
G01 X66.9305 Y15.2226
G01 X66.9136 Y15.2581
G01 X66.8999 Y15.2813
G01 X66.8920 Y15.2931
G01 X66.8759 Y15.3146
G01 X66.8530 Y15.3403
G01 X66.8378 Y15.3548
G01 X66.8173 Y15.3721
G01 X66.7950 Y15.3885
G01 X66.6582 Y15.4798
G01 X66.5448 Y15.6497
G01 X66.4977 Y15.8861
G01 X66.4977 Y16.7139
G01 X66.5448 Y16.9503
G01 X66.6823 Y17.1568
G01 X66.6896 Y17.1692
G01 X66.7020 Y17.1933
G01 X66.7078 Y17.2064
G01 X66.7175 Y17.2318
G01 X66.7218 Y17.2455
G01 X66.7285 Y17.2717
G01 X66.7312 Y17.2858
G01 X66.7349 Y17.3127
G01 X66.7361 Y17.3270
G01 X66.7368 Y17.3461
G01 X66.7362 Y17.3685
G01 X66.7338 Y17.3955
G01 X66.7314 Y17.4117
G01 X66.7262 Y17.4363
G01 X66.7225 Y17.4502
G01 X66.7141 Y17.4759
G01 X66.7082 Y17.4910
G01 X66.6976 Y17.5140
G01 X66.6909 Y17.5267
G01 X66.6769 Y17.5499
G01 X66.6688 Y17.5618
G01 X66.6522 Y17.5832
G01 X66.6428 Y17.5941
G01 X66.6240 Y17.6136
G01 X66.6134 Y17.6233
G01 X66.5925 Y17.6406
G01 X66.5809 Y17.6491
G01 X66.5582 Y17.6638
G01 X66.5457 Y17.6710
G01 X66.5214 Y17.6830
G01 X66.5082 Y17.6887
G01 X66.4827 Y17.6980
G01 X66.4690 Y17.7021
G01 X66.4426 Y17.7085
G01 X66.4285 Y17.7111
G01 X66.4016 Y17.7144
G01 X66.3872 Y17.7153
G01 X66.0484 Y17.7190
G01 X65.8356 Y17.7642
G01 X65.6907 Y17.8645
G01 X65.5949 Y18.0130
G01 X65.5566 Y18.2231
G01 X65.6063 Y21.3014
G01 X65.6490 Y21.5045
G01 X65.7487 Y21.6516
G01 X65.8963 Y21.7489
G01 X66.1061 Y21.7892
G01 X66.6475 Y21.7857
G01 X66.6753 Y21.7868
G01 X66.6753 Y21.7873
G01 X66.7021 Y21.7896
G01 X66.7217 Y21.7929
G01 X66.7425 Y21.7978
G01 X66.7562 Y21.8016
G01 X66.7817 Y21.8104
G01 X66.7964 Y21.8164
G01 X66.8193 Y21.8274
G01 X66.8318 Y21.8342
G01 X66.8547 Y21.8484
G01 X66.8664 Y21.8567
G01 X66.8876 Y21.8734
G01 X66.8983 Y21.8828
G01 X66.9174 Y21.9018
G01 X66.9270 Y21.9124
G01 X66.9266 Y21.9128
G01 X66.9439 Y21.9334
G01 X66.9542 Y21.9479
G01 X66.9736 Y21.9803
G01 X66.9853 Y22.0046
G01 X66.9908 Y22.0177
G01 X66.9998 Y22.0432
G01 X67.0038 Y22.0569
G01 X67.0099 Y22.0831
G01 X67.0123 Y22.0972
G01 X67.0154 Y22.1240
G01 X67.0162 Y22.1382
G01 X67.0166 Y22.1522
G01 X67.0155 Y22.1795
G01 X67.0125 Y22.2063
G01 X67.0092 Y22.2257
G01 X67.0003 Y22.2604
G01 X66.9914 Y22.2858
G01 X66.9854 Y22.3004
G01 X66.9743 Y22.3233
G01 X66.9674 Y22.3358
G01 X66.9477 Y22.3662
G01 X66.9006 Y22.4787
G01 X66.9006 Y22.4878
G01 X66.9335 Y22.4878
G01 X66.9349 Y22.4791
G01 X66.9421 Y22.4536
G01 X66.9521 Y22.4291
G01 X66.9652 Y22.4050
G01 X66.9810 Y22.3826
G01 X66.9993 Y22.3621
G01 X67.0198 Y22.3438
G01 X67.0422 Y22.3280
G01 X67.0663 Y22.3149
G01 X67.0908 Y22.3049
G01 X67.1163 Y22.2977
G01 X67.1424 Y22.2934
G01 X67.1688 Y22.2919
G01 X71.6688 Y22.2919
G01 X71.6952 Y22.2934
G01 X71.7213 Y22.2977
G01 X71.7468 Y22.3049
G01 X71.7713 Y22.3149
G01 X71.7954 Y22.3280
G01 X71.8178 Y22.3438
G01 X71.8383 Y22.3621
G01 X71.8566 Y22.3826
G01 X71.8724 Y22.4050
G01 X71.8855 Y22.4291
G01 X71.8955 Y22.4536
G01 X71.9027 Y22.4791
G01 X71.9041 Y22.4878
G01 X71.9370 Y22.4878
G01 X71.9370 Y22.4782
G01 X71.8962 Y22.3797
G01 X71.8747 Y22.3565
G01 X71.8751 Y22.3561
G01 X71.8579 Y22.3355
G01 X71.8478 Y22.3212
G01 X71.8354 Y22.3012
G01 X71.8285 Y22.2888
G01 X71.8169 Y22.2647
G01 X71.8114 Y22.2515
G01 X71.8026 Y22.2262
G01 X71.7986 Y22.2126
G01 X71.7926 Y22.1865
G01 X71.7902 Y22.1725
G01 X71.7871 Y22.1458
G01 X71.7863 Y22.1316
G01 X71.7859 Y22.1177
G01 X71.7870 Y22.0906
G01 X71.7900 Y22.0640
G01 X71.7933 Y22.0446
G01 X71.8021 Y22.0102
G01 X71.8109 Y21.9848
G01 X71.8168 Y21.9704
G01 X71.8347 Y21.9350
G01 X71.8488 Y21.9123
G01 X71.8570 Y21.9007
G01 X71.8736 Y21.8796
G01 X71.8831 Y21.8690
G01 X71.9019 Y21.8500
G01 X71.9125 Y21.8404
G01 X71.9129 Y21.8408
G01 X71.9334 Y21.8236
G01 X71.9449 Y21.8154
G01 X71.9676 Y21.8010
G01 X71.9800 Y21.7941
G01 X72.0041 Y21.7823
G01 X72.0172 Y21.7768
G01 X72.0424 Y21.7678
G01 X72.0560 Y21.7638
G01 X72.0821 Y21.7577
G01 X72.0961 Y21.7552
G01 X72.1228 Y21.7520
G01 X72.1503 Y21.7507
G01 X76.1078 Y21.7255
G01 X76.1355 Y21.7265
G01 X76.1355 Y21.7271
G01 X76.1623 Y21.7294
G01 X76.1820 Y21.7326
G01 X76.2165 Y21.7414
G01 X76.2420 Y21.7501
G01 X76.2552 Y21.7555
G01 X76.2796 Y21.7671
G01 X76.2921 Y21.7740
G01 X76.3150 Y21.7882
G01 X76.3267 Y21.7964
G01 X76.3478 Y21.8131
G01 X76.3585 Y21.8226
G01 X76.3777 Y21.8416
G01 X76.3872 Y21.8522
G01 X76.3868 Y21.8525
G01 X76.4041 Y21.8732
G01 X76.4144 Y21.8877
G01 X76.4338 Y21.9201
G01 X76.4456 Y21.9443
G01 X76.4511 Y21.9575
G01 X76.4601 Y21.9829
G01 X76.4641 Y21.9966
G01 X76.4701 Y22.0229
G01 X76.4726 Y22.0370
G01 X76.4756 Y22.0637
G01 X76.4769 Y22.0920
G01 X76.4758 Y22.1192
G01 X76.4728 Y22.1460
G01 X76.4695 Y22.1655
G01 X76.4605 Y22.2001
G01 X76.4517 Y22.2256
G01 X76.4456 Y22.2401
G01 X76.4276 Y22.2756
G01 X76.4133 Y22.2984
G01 X76.4050 Y22.3101
G01 X76.3882 Y22.3311
G01 X76.3695 Y22.3516
G01 X76.3414 Y22.3797
G01 X76.3006 Y22.4782
G01 X76.3006 Y22.4878
G01 X76.3335 Y22.4878
G01 X76.3349 Y22.4791
G01 X76.3421 Y22.4536
G01 X76.3521 Y22.4291
G01 X76.3652 Y22.4050
G01 X76.3810 Y22.3826
G01 X76.3993 Y22.3621
G01 X76.4198 Y22.3438
G01 X76.4422 Y22.3280
G01 X76.4663 Y22.3149
G01 X76.4908 Y22.3049
G01 X76.5163 Y22.2977
G01 X76.5424 Y22.2934
G01 X76.5688 Y22.2919
G01 X81.0688 Y22.2919
G01 X81.0952 Y22.2934
G01 X81.1213 Y22.2977
G01 X81.1468 Y22.3049
G01 X81.1713 Y22.3149
G01 X81.1954 Y22.3280
G01 X81.2178 Y22.3438
G01 X81.2383 Y22.3621
G01 X81.2566 Y22.3826
G01 X81.2724 Y22.4050
G01 X81.2855 Y22.4291
G01 X81.2955 Y22.4536
G01 X81.3027 Y22.4791
G01 X81.3041 Y22.4878
G01 X81.3370 Y22.4878
G01 X81.3370 Y22.4782
G01 X81.2962 Y22.3797
G01 X81.2338 Y22.3173
G01 X81.2152 Y22.2970
G01 X81.2156 Y22.2966
G01 X81.1984 Y22.2760
G01 X81.1902 Y22.2644
G01 X81.1759 Y22.2417
G01 X81.1691 Y22.2293
G01 X81.1574 Y22.2052
G01 X81.1519 Y22.1920
G01 X81.1431 Y22.1667
G01 X81.1391 Y22.1531
G01 X81.1331 Y22.1270
G01 X81.1307 Y22.1130
G01 X81.1277 Y22.0863
G01 X81.1264 Y22.0582
G01 X81.1268 Y22.0453
G01 X81.1275 Y22.0311
G01 X81.1305 Y22.0045
G01 X81.1338 Y21.9851
G01 X81.1387 Y21.9643
G01 X81.1426 Y21.9507
G01 X81.1514 Y21.9253
G01 X81.1573 Y21.9109
G01 X81.1683 Y21.8880
G01 X81.1752 Y21.8755
G01 X81.1893 Y21.8528
G01 X81.1975 Y21.8412
G01 X81.2141 Y21.8201
G01 X81.2236 Y21.8095
G01 X81.2424 Y21.7905
G01 X81.2530 Y21.7810
G01 X81.2534 Y21.7813
G01 X81.2739 Y21.7641
G01 X81.2883 Y21.7539
G01 X81.3081 Y21.7415
G01 X81.3205 Y21.7346
G01 X81.3446 Y21.7228
G01 X81.3577 Y21.7173
G01 X81.3829 Y21.7083
G01 X81.3965 Y21.7043
G01 X81.4226 Y21.6982
G01 X81.4366 Y21.6957
G01 X81.4633 Y21.6926
G01 X81.4908 Y21.6912
G01 X81.9861 Y21.6881
G01 X82.1885 Y21.6476
G01 X82.3369 Y21.5496
G01 X82.4359 Y21.4031
G01 X82.4786 Y21.1938
G01 X82.5290 Y11.3104
G01 X82.4857 Y11.0935
G01 X82.4107 Y10.9829
G01 X82.4112 Y10.9825
G01 X82.4033 Y10.9714
G01 X82.3959 Y10.9590
G01 X82.3832 Y10.9348
G01 X82.3772 Y10.9216
G01 X82.3674 Y10.8961
G01 X82.3630 Y10.8823
G01 X82.3561 Y10.8558
G01 X82.3533 Y10.8416
G01 X82.3494 Y10.8146
G01 X82.3474 Y10.7803
G01 X82.3480 Y10.7584
G01 X82.3504 Y10.7311
G01 X82.3528 Y10.7147
G01 X82.3617 Y10.6760
G01 X82.3702 Y10.6501
G01 X82.3762 Y10.6347
G01 X82.3936 Y10.5990
G01 X82.4078 Y10.5756
G01 X82.4160 Y10.5636
G01 X82.4327 Y10.5420
G01 X82.4422 Y10.5311
G01 X82.4613 Y10.5115
G01 X82.4720 Y10.5017
G01 X82.4931 Y10.4845
G01 X82.5081 Y10.4737
G01 X82.5405 Y10.4541
G01 X82.5650 Y10.4421
G01 X82.5783 Y10.4364
G01 X82.6041 Y10.4273
G01 X82.6180 Y10.4232
G01 X82.6446 Y10.4170
G01 X82.6589 Y10.4146
G01 X82.6860 Y10.4115
G01 X82.7141 Y10.4102
G01 X84.0261 Y10.4102
G01 X84.2402 Y10.3668
G01 X84.3857 Y10.2678
G01 X84.4828 Y10.1201
G01 X84.5228 Y9.9103
G01 X84.5225 Y9.8706
G01 X84.5235 Y9.8425
G01 X84.5241 Y9.8425
G01 X84.5264 Y9.8154
G01 X84.5298 Y9.7955
G01 X84.5386 Y9.7607
G01 X84.5476 Y9.7349
G01 X84.5537 Y9.7200
G01 X84.5718 Y9.6843
G01 X84.5863 Y9.6612
G01 X84.5947 Y9.6495
G01 X84.6117 Y9.6282
G01 X84.6214 Y9.6174
G01 X84.6407 Y9.5982
G01 X84.6515 Y9.5886
G01 X84.6519 Y9.5891
G01 X84.6729 Y9.5717
G01 X84.6847 Y9.5634
G01 X84.7079 Y9.5491
G01 X84.7206 Y9.5422
G01 X84.7452 Y9.5306
G01 X84.7586 Y9.5251
G01 X84.7844 Y9.5164
G01 X84.7984 Y9.5125
G01 X84.8250 Y9.5068
G01 X84.8393 Y9.5045
G01 X84.8664 Y9.5018
G01 X84.8944 Y9.5010
G01 X86.9137 Y9.5294
G01 X86.9414 Y9.5310
G01 X86.9414 Y9.5315
G01 X86.9681 Y9.5344
G01 X86.9871 Y9.5379
G01 X87.0220 Y9.5475
G01 X87.0473 Y9.5568
G01 X87.0615 Y9.5629
G01 X87.0968 Y9.5816
G01 X87.1194 Y9.5962
G01 X87.1309 Y9.6047
G01 X87.1517 Y9.6218
G01 X87.1622 Y9.6315
G01 X87.1810 Y9.6508
G01 X87.1903 Y9.6616
G01 X87.2068 Y9.6829
G01 X87.2164 Y9.6969
G01 X87.2355 Y9.7303
G01 X87.2468 Y9.7548
G01 X87.2520 Y9.7680
G01 X87.2605 Y9.7936
G01 X87.2643 Y9.8074
G01 X87.2698 Y9.8337
G01 X87.2720 Y9.8478
G01 X87.2745 Y9.8747
G01 X87.2753 Y9.8983
G01 X87.2736 Y9.9301
G01 X87.2730 Y9.9300
G01 X87.2701 Y9.9568
G01 X87.2665 Y9.9757
G01 X87.2610 Y9.9970
G01 X87.2568 Y10.0106
G01 X87.2475 Y10.0359
G01 X87.2413 Y10.0500
G01 X87.2225 Y10.0854
G01 X87.2078 Y10.1079
G01 X87.1993 Y10.1194
G01 X87.1822 Y10.1402
G01 X87.1725 Y10.1506
G01 X87.1531 Y10.1693
G01 X87.1422 Y10.1786
G01 X87.0554 Y10.2457
G01 X87.0946 Y10.2683
G01 X87.1243 Y10.2418
G01 X87.1247 Y10.2422
G01 X87.1453 Y10.2250
G01 X87.2624 Y10.1420
G01 X87.2824 Y10.1296
G01 X87.4051 Y10.0618
G01 X87.4293 Y10.0501
G01 X87.5588 Y9.9965
G01 X87.5842 Y9.9876
G01 X87.7189 Y9.9488
G01 X87.7451 Y9.9428
G01 X87.8833 Y9.9193
G01 X87.9100 Y9.9163
G01 X88.0634 Y9.9081
G01 X88.2168 Y9.9163
G01 X88.2435 Y9.9193
G01 X88.3464 Y9.9368
G01 X88.3673 Y9.9153
G01 X88.3979 Y9.8894
G01 X88.4194 Y9.8744
G01 X88.4317 Y9.8668
G01 X88.4667 Y9.8486
G01 X88.5040 Y9.8340
G01 X88.5427 Y9.8236
G01 X88.5685 Y9.8191
G01 X88.6085 Y9.8158
G01 X88.6244 Y9.8157
G01 X88.6624 Y9.8183
G01 X88.6623 Y9.8189
G01 X88.6882 Y9.8223
G01 X88.7018 Y9.8252
G01 X88.7271 Y9.8321
G01 X88.7419 Y9.8370
G01 X88.7776 Y9.8519
G01 X88.8124 Y9.8711
G01 X88.8452 Y9.8941
G01 X88.8652 Y9.9110
G01 X88.8802 Y9.9253
G01 X88.8933 Y9.9396
G01 X88.9105 Y9.9604
G01 X89.0772 Y10.1797
G01 X89.0954 Y10.2060
G01 X89.1148 Y10.2410
G01 X89.1261 Y10.2667
G01 X89.1313 Y10.2807
G01 X89.1396 Y10.3075
G01 X89.1431 Y10.3220
G01 X89.1481 Y10.3497
G01 X89.1511 Y10.3822
G01 X89.2194 Y10.4587
G01 X89.2190 Y10.4591
G01 X89.2362 Y10.4797
G01 X89.3192 Y10.5968
G01 X89.3316 Y10.6168
G01 X89.3994 Y10.7395
G01 X89.4111 Y10.7637
G01 X89.4647 Y10.8932
G01 X89.4736 Y10.9186
G01 X89.5124 Y11.0533
G01 X89.5184 Y11.0795
G01 X89.5419 Y11.2177
G01 X89.5449 Y11.2444
G01 X89.5527 Y11.3844
G01 X89.5527 Y11.4112
G01 X89.5449 Y11.5512
G01 X89.5419 Y11.5779
G01 X89.5259 Y11.6720
G01 X89.5852 Y11.7063
G01 X89.6049 Y11.6736
G01 X89.6133 Y11.6618
G01 X89.6302 Y11.6405
G01 X89.6399 Y11.6298
G01 X89.6591 Y11.6105
G01 X89.6699 Y11.6009
G01 X89.6703 Y11.6014
G01 X89.6913 Y11.5840
G01 X89.7059 Y11.5737
G01 X89.7389 Y11.5543
G01 X89.7635 Y11.5427
G01 X89.7768 Y11.5372
G01 X89.8026 Y11.5284
G01 X89.8165 Y11.5245
G01 X89.8431 Y11.5187
G01 X89.8574 Y11.5164
G01 X89.8845 Y11.5136
G01 X89.9098 Y11.5127
G01 X89.9405 Y11.5142
G01 X89.9405 Y11.5147
G01 X89.9676 Y11.5176
G01 X89.9869 Y11.5212
G01 X90.0082 Y11.5267
G01 X90.0220 Y11.5309
G01 X90.0476 Y11.5403
G01 X90.0621 Y11.5466
G01 X90.0977 Y11.5655
G01 X90.1205 Y11.5804
G01 X90.1321 Y11.5890
G01 X90.1530 Y11.6064
G01 X90.1696 Y11.6221
G01 X90.1824 Y11.6359
G01 X90.2004 Y11.6575
G01 X90.4653 Y12.0067
G01 X90.4743 Y12.0201
G01 X90.4932 Y12.0534
G01 X90.5042 Y12.0775
G01 X90.5094 Y12.0905
G01 X90.5177 Y12.1156
G01 X90.5213 Y12.1292
G01 X90.5268 Y12.1550
G01 X90.5289 Y12.1689
G01 X90.5315 Y12.1952
G01 X90.5321 Y12.2092
G01 X90.5323 Y12.2194
G01 X90.5308 Y12.2497
G01 X90.5303 Y12.2496
G01 X90.5276 Y12.2759
G01 X90.5242 Y12.2945
G01 X90.5190 Y12.3155
G01 X90.5150 Y12.3289
G01 X90.5061 Y12.3538
G01 X90.5002 Y12.3676
G01 X90.4822 Y12.4027
G01 X90.4680 Y12.4251
G01 X90.4599 Y12.4365
G01 X90.4433 Y12.4571
G01 X90.4340 Y12.4676
G01 X90.2053 Y12.6968
G01 X89.9742 Y13.2548
G01 X89.9742 Y13.8588
G01 X90.2053 Y14.4168
G01 X90.6324 Y14.8439
G01 X91.1904 Y15.0750
G01 X91.7944 Y15.0750
G01 X92.3524 Y14.8439
G01 X92.7795 Y14.4168
G01 X92.8124 Y14.3386
G01 X92.8189 Y14.3251
G01 X92.8327 Y14.3005
G01 X92.8407 Y14.2879
G01 X92.8573 Y14.2650
G01 X92.8826 Y14.2361
G01 X92.8968 Y14.2224
G01 X92.9182 Y14.2041
G01 X92.9343 Y14.1920
G01 X92.9665 Y14.1718
G01 X92.9917 Y14.1590
G01 X93.0054 Y14.1530
G01 X93.0319 Y14.1432
G01 X93.0462 Y14.1389
G01 X93.0736 Y14.1323
G01 X93.0883 Y14.1297
G01 X93.1164 Y14.1263
G01 X93.1454 Y14.1250
G01 X93.4930 Y14.1254
G01 X93.5073 Y14.1262
G01 X93.5340 Y14.1292
G01 X93.5480 Y14.1316
G01 X93.5742 Y14.1376
G01 X93.5879 Y14.1415
G01 X93.6133 Y14.1504
G01 X93.6278 Y14.1564
G01 X93.6632 Y14.1744
G01 X93.6859 Y14.1887
G01 X93.6975 Y14.1970
G01 X93.7186 Y14.2137
G01 X93.7292 Y14.2232
G01 X93.7482 Y14.2422
G01 X93.7577 Y14.2529
G01 X93.7573 Y14.2532
G01 X93.7744 Y14.2739
G01 X93.7846 Y14.2882
G01 X93.8039 Y14.3207
G01 X93.8155 Y14.3449
G01 X93.8210 Y14.3581
G01 X93.8299 Y14.3835
G01 X93.8338 Y14.3972
G01 X93.8398 Y14.4234
G01 X93.8422 Y14.4374
G01 X93.8452 Y14.4641
G01 X93.8464 Y14.4918
G01 X93.8452 Y14.5195
G01 X93.8422 Y14.5462
G01 X93.8388 Y14.5655
G01 X93.8338 Y14.5864
G01 X93.8299 Y14.6001
G01 X93.8210 Y14.6255
G01 X93.8150 Y14.6399
G01 X93.8039 Y14.6629
G01 X93.7970 Y14.6753
G01 X93.7827 Y14.6981
G01 X93.7744 Y14.7097
G01 X93.7577 Y14.7307
G01 X93.7482 Y14.7414
G01 X93.6343 Y14.8558
G01 X93.4032 Y15.4138
G01 X93.4032 Y16.0178
G01 X93.6343 Y16.5758
G01 X94.0614 Y17.0029
G01 X94.6194 Y17.2340
G01 X95.2234 Y17.2340
G01 X95.7814 Y17.0029
G01 X96.2085 Y16.5758
G01 X96.4396 Y16.0178
G01 X96.4396 Y15.4138
G01 X96.2085 Y14.8558
G01 X96.1039 Y14.7511
G01 X96.0851 Y14.7307
G01 X96.0855 Y14.7304
G01 X96.0684 Y14.7097
G01 X96.0582 Y14.6954
G01 X96.0389 Y14.6629
G01 X96.0273 Y14.6387
G01 X96.0218 Y14.6255
G01 X96.0129 Y14.6001
G01 X96.0090 Y14.5864
G01 X96.0030 Y14.5602
G01 X96.0006 Y14.5462
G01 X95.9976 Y14.5195
G01 X95.9964 Y14.4918
G01 X95.9976 Y14.4641
G01 X96.0006 Y14.4374
G01 X96.0040 Y14.4181
G01 X96.0129 Y14.3835
G01 X96.0218 Y14.3581
G01 X96.0278 Y14.3437
G01 X96.0458 Y14.3083
G01 X96.0601 Y14.2855
G01 X96.0684 Y14.2739
G01 X96.0851 Y14.2529
G01 X96.0946 Y14.2422
G01 X96.1136 Y14.2232
G01 X96.1242 Y14.2137
G01 X96.1246 Y14.2142
G01 X96.1453 Y14.1970
G01 X96.1569 Y14.1887
G01 X96.1796 Y14.1744
G01 X96.1921 Y14.1675
G01 X96.2163 Y14.1559
G01 X96.2295 Y14.1504
G01 X96.2549 Y14.1415
G01 X96.2686 Y14.1376
G01 X96.2948 Y14.1316
G01 X96.3088 Y14.1292
G01 X96.3355 Y14.1262
G01 X96.3632 Y14.1250
G01 X97.7892 Y14.1254
G01 X97.8033 Y14.1262
G01 X97.8297 Y14.1291
G01 X97.8488 Y14.1324
G01 X97.8831 Y14.1412
G01 X97.9082 Y14.1499
G01 X97.9224 Y14.1557
G01 X97.9577 Y14.1734
G01 X97.9803 Y14.1874
G01 X97.9918 Y14.1955
G01 X98.0127 Y14.2119
G01 X98.0233 Y14.2212
G01 X98.0423 Y14.2398
G01 X98.0518 Y14.2503
G01 X98.0685 Y14.2709
G01 X98.0768 Y14.2823
G01 X98.0912 Y14.3046
G01 X98.0982 Y14.3169
G01 X98.1100 Y14.3407
G01 X98.1155 Y14.3537
G01 X98.1247 Y14.3786
G01 X98.1288 Y14.3921
G01 X98.1351 Y14.4180
G01 X98.1376 Y14.4318
G01 X98.1410 Y14.4582
G01 X98.1427 Y14.4896
G01 X98.1420 Y14.5129
G01 X98.1395 Y14.5394
G01 X98.1371 Y14.5548
G01 X98.1320 Y14.5794
G01 X98.1283 Y14.5930
G01 X98.1201 Y14.6182
G01 X98.1144 Y14.6328
G01 X98.0974 Y14.6681
G01 X98.0838 Y14.6909
G01 X98.0684 Y14.7125
G01 X97.9248 Y14.9275
G01 X97.8777 Y15.1639
G01 X97.8777 Y15.7464
G01 X97.8808 Y15.7808
G01 X97.8811 Y15.8004
G01 X97.8785 Y15.8388
G01 X97.8778 Y15.8387
G01 X97.8741 Y15.8667
G01 X97.8709 Y15.8813
G01 X97.8632 Y15.9085
G01 X97.8574 Y15.9251
G01 X97.8475 Y15.9487
G01 X97.8410 Y15.9621
G01 X97.8272 Y15.9867
G01 X97.8191 Y15.9993
G01 X97.8026 Y16.0222
G01 X97.7931 Y16.0337
G01 X97.7773 Y16.0512
G01 X97.7631 Y16.0648
G01 X97.7345 Y16.0886
G01 X97.7132 Y16.1189
G01 X97.6982 Y16.1371
G01 X97.6818 Y16.1549
G01 X96.0963 Y17.7404
G01 X96.0785 Y17.7569
G01 X96.0603 Y17.7718
G01 X96.0316 Y17.7920
G01 X95.9281 Y17.9469
G01 X95.8918 Y18.1296
G01 X95.8978 Y18.1642
G01 X95.9001 Y18.1876
G01 X95.9010 Y18.2118
G01 X95.9006 Y19.6842
G01 X95.8998 Y19.6984
G01 X95.8968 Y19.7251
G01 X95.8934 Y19.7445
G01 X95.8884 Y19.7654
G01 X95.8845 Y19.7790
G01 X95.8756 Y19.8044
G01 X95.8696 Y19.8189
G01 X95.8585 Y19.8418
G01 X95.8516 Y19.8543
G01 X95.8373 Y19.8770
G01 X95.8290 Y19.8887
G01 X95.8123 Y19.9097
G01 X95.7935 Y19.9301
G01 X94.1151 Y21.6085
G01 X94.0973 Y21.6250
G01 X94.0791 Y21.6400
G01 X94.0504 Y21.6602
G01 X93.9469 Y21.8151
G01 X93.8970 Y22.0662
G01 X93.8906 Y22.0924
G01 X93.8828 Y22.1173
G01 X93.8774 Y22.1315
G01 X93.8611 Y22.1666
G01 X93.8480 Y22.1892
G01 X93.8250 Y22.2219
G01 X93.8162 Y22.2326
G01 X93.8004 Y22.2500
G01 X93.7887 Y22.2615
G01 X93.7690 Y22.2788
G01 X93.7367 Y22.3023
G01 X93.7245 Y22.3099
G01 X93.7020 Y22.3222
G01 X93.6696 Y22.3368
G01 X93.3128 Y22.6936
G01 X93.1198 Y23.1597
G01 X93.1198 Y23.6643
G01 X93.3128 Y24.1304
G01 X93.6696 Y24.4872
G01 X94.1357 Y24.6802
G01 X94.3364 Y24.6802
G01 X94.3638 Y24.6814
G01 X94.3902 Y24.6843
G01 X94.4041 Y24.6867
G01 X94.4301 Y24.6925
G01 X94.4436 Y24.6964
G01 X94.4688 Y24.7051
G01 X94.4829 Y24.7109
G01 X94.5182 Y24.7286
G01 X94.5408 Y24.7426
G01 X94.5523 Y24.7507
G01 X94.5732 Y24.7671
G01 X94.5838 Y24.7764
G01 X94.6028 Y24.7950
G01 X94.6123 Y24.8055
G01 X94.6290 Y24.8261
G01 X94.6393 Y24.8403
G01 X94.6587 Y24.8721
G01 X94.6705 Y24.8959
G01 X94.6761 Y24.9089
G01 X94.6852 Y24.9338
G01 X94.6893 Y24.9473
G01 X94.6956 Y24.9732
G01 X94.6981 Y24.9870
G01 X94.7015 Y25.0134
G01 X94.7032 Y25.0448
G01 X94.7025 Y25.0681
G01 X94.7000 Y25.0946
G01 X94.6976 Y25.1100
G01 X94.6925 Y25.1346
G01 X94.6888 Y25.1482
G01 X94.6806 Y25.1735
G01 X94.6749 Y25.1880
G01 X94.6645 Y25.2108
G01 X94.6579 Y25.2233
G01 X94.6443 Y25.2461
G01 X94.6364 Y25.2578
G01 X94.6204 Y25.2790
G01 X94.6112 Y25.2897
G01 X94.5981 Y25.3040
G01 X94.5827 Y25.3187
G01 X94.5623 Y25.3358
G01 X94.5511 Y25.3443
G01 X94.3290 Y25.4930
G01 X94.1261 Y25.7960
G01 X94.1173 Y25.8077
G01 X94.0994 Y25.8288
G01 X94.0854 Y25.8434
G01 X94.0690 Y25.8583
G01 X94.0577 Y25.8676
G01 X94.0355 Y25.8841
G01 X94.0213 Y25.8933
G01 X93.9860 Y25.9124
G01 X93.9606 Y25.9232
G01 X93.9468 Y25.9282
G01 X93.9203 Y25.9361
G01 X93.9060 Y25.9395
G01 X93.8787 Y25.9442
G01 X93.8642 Y25.9459
G01 X93.8365 Y25.9475
G01 X93.8219 Y25.9475
G01 X93.7942 Y25.9459
G01 X93.7728 Y25.9433
G01 X93.7381 Y25.9361
G01 X93.7116 Y25.9282
G01 X93.6953 Y25.9223
G01 X93.6592 Y25.9058
G01 X93.6352 Y25.8921
G01 X93.6229 Y25.8841
G01 X93.6007 Y25.8676
G01 X93.5730 Y25.8434
G01 X93.5590 Y25.8288
G01 X93.5411 Y25.8077
G01 X93.5323 Y25.7960
G01 X93.3294 Y25.4930
G01 X92.9760 Y25.2569
G01 X92.5592 Y25.1740
G01 X92.1424 Y25.2569
G01 X91.7890 Y25.4930
G01 X91.5861 Y25.7960
G01 X91.5773 Y25.8077
G01 X91.5594 Y25.8288
G01 X91.5454 Y25.8434
G01 X91.5177 Y25.8676
G01 X91.4955 Y25.8841
G01 X91.4813 Y25.8933
G01 X91.4460 Y25.9124
G01 X91.4206 Y25.9232
G01 X91.4068 Y25.9282
G01 X91.3803 Y25.9361
G01 X91.3660 Y25.9395
G01 X91.3387 Y25.9442
G01 X91.3242 Y25.9459
G01 X91.2965 Y25.9475
G01 X91.2819 Y25.9475
G01 X91.2542 Y25.9459
G01 X91.2328 Y25.9433
G01 X91.2124 Y25.9395
G01 X91.1981 Y25.9361
G01 X91.1716 Y25.9282
G01 X91.1553 Y25.9223
G01 X91.1192 Y25.9058
G01 X91.0952 Y25.8921
G01 X91.0829 Y25.8841
G01 X91.0607 Y25.8676
G01 X91.0330 Y25.8434
G01 X91.0190 Y25.8288
G01 X91.0011 Y25.8077
G01 X90.9842 Y25.7847
G01 X90.7894 Y25.4930
G01 X90.4360 Y25.2569
G01 X90.0113 Y25.1725
G01 X89.9805 Y25.1738
G01 X89.9462 Y25.1717
G01 X89.9463 Y25.1712
G01 X89.9196 Y25.1680
G01 X89.9011 Y25.1642
G01 X89.8660 Y25.1542
G01 X89.8409 Y25.1446
G01 X89.8279 Y25.1387
G01 X89.8040 Y25.1264
G01 X89.7917 Y25.1192
G01 X89.7694 Y25.1042
G01 X89.7580 Y25.0957
G01 X89.7375 Y25.0783
G01 X89.7223 Y25.0639
G01 X89.7086 Y25.0490
G01 X89.6994 Y25.0381
G01 X89.6833 Y25.0166
G01 X89.6741 Y25.0029
G01 X89.6552 Y24.9690
G01 X89.6442 Y24.9444
G01 X89.6376 Y24.9271
G01 X89.6274 Y24.8917
G01 X89.6221 Y24.8654
G01 X89.6202 Y24.8513
G01 X89.6179 Y24.8245
G01 X89.6174 Y24.8035
G01 X89.6182 Y24.7834
G01 X89.6194 Y24.7692
G01 X89.6200 Y24.7692
G01 X89.6232 Y24.7425
G01 X89.6269 Y24.7240
G01 X89.6327 Y24.7025
G01 X89.6370 Y24.6890
G01 X89.6466 Y24.6638
G01 X89.6528 Y24.6500
G01 X89.6648 Y24.6270
G01 X89.6792 Y24.6033
G01 X89.7107 Y24.5566
G01 X89.7330 Y24.5284
G01 X89.7414 Y24.5192
G01 X89.9834 Y24.2772
G01 X90.0108 Y24.2539
G01 X90.0479 Y24.2281
G01 X90.1735 Y24.0401
G01 X90.2176 Y23.8184
G01 X90.2096 Y23.7739
G01 X90.2067 Y23.7381
G01 X90.2064 Y23.5538
G01 X90.2075 Y23.5269
G01 X90.2104 Y23.5009
G01 X90.2135 Y23.4823
G01 X90.2220 Y23.4484
G01 X90.2304 Y23.4237
G01 X90.2360 Y23.4099
G01 X90.2532 Y23.3749
G01 X90.2667 Y23.3526
G01 X90.2905 Y23.3204
G01 X90.2995 Y23.3099
G01 X90.3176 Y23.2910
G01 X90.3386 Y23.2726
G01 X90.4558 Y23.0971
G01 X90.5029 Y22.8607
G01 X90.5029 Y22.0329
G01 X90.4558 Y21.7965
G01 X90.3424 Y21.6266
G01 X90.1725 Y21.5132
G01 X89.9361 Y21.4661
G01 X89.3583 Y21.4661
G01 X89.1219 Y21.5132
G01 X88.9520 Y21.6266
G01 X88.9272 Y21.6639
G01 X88.9113 Y21.6856
G01 X88.8945 Y21.7056
G01 X88.8661 Y21.7338
G01 X88.8349 Y21.7588
G01 X88.8216 Y21.7678
G01 X88.7889 Y21.7867
G01 X88.7652 Y21.7977
G01 X88.7276 Y21.8113
G01 X88.7143 Y21.8150
G01 X88.6887 Y21.8207
G01 X88.6491 Y21.8258
G01 X88.6222 Y21.8269
G01 X88.5953 Y21.8258
G01 X88.5693 Y21.8229
G01 X88.5507 Y21.8198
G01 X88.5168 Y21.8113
G01 X88.4920 Y21.8029
G01 X88.4783 Y21.7973
G01 X88.4433 Y21.7801
G01 X88.4209 Y21.7666
G01 X88.3888 Y21.7428
G01 X88.3783 Y21.7338
G01 X88.3499 Y21.7056
G01 X88.3331 Y21.6856
G01 X88.3172 Y21.6639
G01 X88.2866 Y21.6180
G01 X88.2585 Y21.5897
G01 X88.2336 Y21.5585
G01 X88.2245 Y21.5452
G01 X88.2056 Y21.5125
G01 X88.1894 Y21.4759
G01 X88.1773 Y21.4378
G01 X88.1694 Y21.3987
G01 X88.1665 Y21.3727
G01 X88.1654 Y21.3458
G01 X88.1654 Y19.3633
G01 X88.1666 Y19.3356
G01 X88.1696 Y19.3089
G01 X88.1730 Y19.2896
G01 X88.1780 Y19.2687
G01 X88.1819 Y19.2550
G01 X88.1908 Y19.2296
G01 X88.1968 Y19.2151
G01 X88.2148 Y19.1797
G01 X88.2291 Y19.1570
G01 X88.2374 Y19.1454
G01 X88.2541 Y19.1243
G01 X88.2729 Y19.1039
G01 X88.4001 Y18.9767
G01 X88.4178 Y18.9602
G01 X88.4360 Y18.9453
G01 X88.4731 Y18.9195
G01 X88.5987 Y18.7315
G01 X88.6428 Y18.5098
G01 X88.6348 Y18.4653
G01 X88.6325 Y18.4419
G01 X88.6316 Y18.4177
G01 X88.6316 Y17.2418
G01 X88.6327 Y17.2154
G01 X88.6354 Y17.1899
G01 X88.6384 Y17.1717
G01 X88.6431 Y17.1514
G01 X88.6548 Y17.1139
G01 X88.6600 Y17.1006
G01 X88.6767 Y17.0659
G01 X88.6974 Y17.0325
G01 X88.7128 Y17.0120
G01 X88.7359 Y16.9857
G01 X88.7487 Y16.9733
G01 X88.7681 Y16.9565
G01 X88.7821 Y16.9457
G01 X88.8115 Y16.9264
G01 X88.8463 Y16.9082
G01 X88.9234 Y16.8759
G01 X89.3505 Y16.4488
G01 X89.5816 Y15.8908
G01 X89.5816 Y15.2868
G01 X89.3505 Y14.7288
G01 X88.9234 Y14.3017
G01 X88.3654 Y14.0706
G01 X87.7614 Y14.0706
G01 X87.2034 Y14.3017
G01 X86.7763 Y14.7288
G01 X86.5452 Y15.2868
G01 X86.5452 Y15.8908
G01 X86.7763 Y16.4488
G01 X87.2034 Y16.8759
G01 X87.2816 Y16.9088
G01 X87.2951 Y16.9153
G01 X87.3197 Y16.9291
G01 X87.3323 Y16.9371
G01 X87.3552 Y16.9537
G01 X87.3667 Y16.9632
G01 X87.3841 Y16.9790
G01 X87.3978 Y16.9932
G01 X87.4161 Y17.0146
G01 X87.4282 Y17.0307
G01 X87.4408 Y17.0500
G01 X87.4484 Y17.0629
G01 X87.4612 Y17.0881
G01 X87.4672 Y17.1018
G01 X87.4770 Y17.1283
G01 X87.4813 Y17.1426
G01 X87.4879 Y17.1700
G01 X87.4905 Y17.1847
G01 X87.4939 Y17.2128
G01 X87.4947 Y17.2277
G01 X87.4952 Y18.1225
G01 X87.4940 Y18.1502
G01 X87.4910 Y18.1769
G01 X87.4876 Y18.1962
G01 X87.4826 Y18.2171
G01 X87.4787 Y18.2308
G01 X87.4698 Y18.2562
G01 X87.4638 Y18.2707
G01 X87.4458 Y18.3061
G01 X87.4315 Y18.3288
G01 X87.4232 Y18.3404
G01 X87.4065 Y18.3615
G01 X87.3877 Y18.3819
G01 X87.2605 Y18.5091
G01 X87.2428 Y18.5256
G01 X87.2246 Y18.5405
G01 X87.1875 Y18.5663
G01 X87.0619 Y18.7543
G01 X87.0178 Y18.9760
G01 X87.0258 Y19.0205
G01 X87.0281 Y19.0439
G01 X87.0290 Y19.0681
G01 X87.0290 Y21.3458
G01 X87.0279 Y21.3727
G01 X87.0250 Y21.3987
G01 X87.0219 Y21.4173
G01 X87.0134 Y21.4512
G01 X86.9998 Y21.4888
G01 X86.9822 Y21.5247
G01 X86.9608 Y21.5585
G01 X86.9359 Y21.5897
G01 X86.9078 Y21.6180
G01 X86.8426 Y21.7156
G01 X86.8267 Y21.7373
G01 X86.8099 Y21.7573
G01 X86.7816 Y21.7855
G01 X86.7503 Y21.8104
G01 X86.7371 Y21.8195
G01 X86.7166 Y21.8318
G01 X86.6807 Y21.8494
G01 X86.6678 Y21.8546
G01 X86.6297 Y21.8667
G01 X86.5905 Y21.8746
G01 X86.5507 Y21.8782
G01 X86.4891 Y21.8783
G01 X86.4533 Y21.8754
G01 X86.4088 Y21.8674
G01 X86.1871 Y21.9115
G01 X85.9991 Y22.0371
G01 X85.9733 Y22.0742
G01 X85.9584 Y22.0924
G01 X85.9419 Y22.1101
G01 X82.4271 Y25.6249
G01 X82.4093 Y25.6414
G01 X82.3912 Y25.6563
G01 X82.3541 Y25.6821
G01 X82.2286 Y25.8700
G01 X82.2286 Y25.9998
G01 X82.2326 Y25.9979
G01 X82.2358 Y25.9796
G01 X82.2408 Y25.9587
G01 X82.2502 Y25.9263
G01 X82.2590 Y25.9009
G01 X82.2725 Y25.8686
G01 X82.2836 Y25.8456
G01 X82.2999 Y25.8162
G01 X82.3142 Y25.7934
G01 X82.3336 Y25.7660
G01 X82.3504 Y25.7449
G01 X82.3821 Y25.7101
G01 X86.0368 Y22.0558
G01 X86.0619 Y22.0334
G01 X86.0623 Y22.0338
G01 X86.0830 Y22.0166
G01 X86.1131 Y21.9952
G01 X86.1332 Y21.9829
G01 X86.1626 Y21.9666
G01 X86.1868 Y21.9549
G01 X86.2179 Y21.9420
G01 X86.2433 Y21.9332
G01 X86.2757 Y21.9238
G01 X86.3019 Y21.9179
G01 X86.3350 Y21.9122
G01 X86.3618 Y21.9092
G01 X86.4088 Y21.9069
G01 X86.7917 Y21.9069
G01 X86.7945 Y21.8898
G01 X86.8004 Y21.8660
G01 X86.8073 Y21.8435
G01 X86.8155 Y21.8204
G01 X86.8245 Y21.7986
G01 X86.8350 Y21.7765
G01 X86.8461 Y21.7557
G01 X86.8587 Y21.7347
G01 X86.8718 Y21.7151
G01 X86.8864 Y21.6954
G01 X86.9013 Y21.6772
G01 X86.9178 Y21.6590
G01 X86.9344 Y21.6424
G01 X86.9526 Y21.6259
G01 X86.9708 Y21.6110
G01 X86.9921 Y21.5952
G01 X87.0101 Y21.5833
G01 X87.0311 Y21.5707
G01 X87.0573 Y21.5570
G01 X87.0573 Y18.9760
G01 X87.0596 Y18.9290
G01 X87.0626 Y18.9022
G01 X87.0692 Y18.8638
G01 X87.0742 Y18.8429
G01 X87.0836 Y18.8105
G01 X87.0924 Y18.7851
G01 X87.1059 Y18.7528
G01 X87.1170 Y18.7298
G01 X87.1333 Y18.7004
G01 X87.1476 Y18.6776
G01 X87.1670 Y18.6502
G01 X87.1838 Y18.6291
G01 X87.2155 Y18.5943
G01 X87.5235 Y18.2862
G01 X87.5235 Y16.9755
G01 X87.4280 Y16.9359
G01 X87.4051 Y16.9248
G01 X87.2824 Y16.8570
G01 X87.2597 Y16.8427
G01 X87.1453 Y16.7616
G01 X87.1243 Y16.7448
G01 X87.0198 Y16.6514
G01 X87.0008 Y16.6324
G01 X86.9074 Y16.5279
G01 X86.9078 Y16.5275
G01 X86.8906 Y16.5069
G01 X86.8076 Y16.3898
G01 X86.7952 Y16.3698
G01 X86.7274 Y16.2471
G01 X86.7157 Y16.2229
G01 X86.6621 Y16.0934
G01 X86.6532 Y16.0680
G01 X86.6144 Y15.9333
G01 X86.6084 Y15.9071
G01 X86.5849 Y15.7689
G01 X86.5819 Y15.7422
G01 X86.5737 Y15.5888
G01 X86.5819 Y15.4354
G01 X86.5849 Y15.4087
G01 X86.6094 Y15.2652
G01 X86.6144 Y15.2443
G01 X86.6532 Y15.1096
G01 X86.6621 Y15.0842
G01 X86.7163 Y14.9534
G01 X86.7274 Y14.9305
G01 X86.7952 Y14.8078
G01 X86.8095 Y14.7851
G01 X86.8906 Y14.6707
G01 X86.9074 Y14.6497
G01 X87.0008 Y14.5452
G01 X87.0198 Y14.5262
G01 X87.1243 Y14.4328
G01 X87.1247 Y14.4332
G01 X87.1453 Y14.4160
G01 X87.2597 Y14.3349
G01 X87.2824 Y14.3206
G01 X87.4051 Y14.2528
G01 X87.4293 Y14.2411
G01 X87.5588 Y14.1875
G01 X87.5842 Y14.1786
G01 X87.7189 Y14.1398
G01 X87.7451 Y14.1338
G01 X87.8833 Y14.1103
G01 X87.9100 Y14.1073
G01 X88.0634 Y14.0991
G01 X88.2168 Y14.1073
G01 X88.2435 Y14.1103
G01 X88.3870 Y14.1348
G01 X88.4079 Y14.1398
G01 X88.5426 Y14.1786
G01 X88.5680 Y14.1875
G01 X88.6988 Y14.2417
G01 X88.7217 Y14.2528
G01 X88.8444 Y14.3206
G01 X88.8671 Y14.3349
G01 X88.9815 Y14.4160
G01 X89.0025 Y14.4328
G01 X89.1070 Y14.5262
G01 X89.1260 Y14.5452
G01 X89.2194 Y14.6497
G01 X89.2190 Y14.6501
G01 X89.2362 Y14.6707
G01 X89.3192 Y14.7878
G01 X89.3316 Y14.8078
G01 X89.3994 Y14.9305
G01 X89.4111 Y14.9547
G01 X89.4647 Y15.0842
G01 X89.4736 Y15.1096
G01 X89.5124 Y15.2443
G01 X89.5184 Y15.2705
G01 X89.5419 Y15.4087
G01 X89.5449 Y15.4354
G01 X89.5531 Y15.5888
G01 X89.5449 Y15.7422
G01 X89.5419 Y15.7689
G01 X89.5174 Y15.9124
G01 X89.5124 Y15.9333
G01 X89.4736 Y16.0680
G01 X89.4647 Y16.0934
G01 X89.4105 Y16.2242
G01 X89.3994 Y16.2471
G01 X89.3316 Y16.3698
G01 X89.3173 Y16.3925
G01 X89.2362 Y16.5069
G01 X89.2194 Y16.5279
G01 X89.1260 Y16.6324
G01 X89.1070 Y16.6514
G01 X89.0025 Y16.7448
G01 X89.0021 Y16.7444
G01 X88.9815 Y16.7616
G01 X88.8644 Y16.8446
G01 X88.8444 Y16.8570
G01 X88.7217 Y16.9248
G01 X88.6975 Y16.9365
G01 X88.6033 Y16.9755
G01 X88.6033 Y18.5098
G01 X88.6010 Y18.5568
G01 X88.5980 Y18.5836
G01 X88.5914 Y18.6220
G01 X88.5864 Y18.6429
G01 X88.5770 Y18.6753
G01 X88.5682 Y18.7007
G01 X88.5547 Y18.7330
G01 X88.5436 Y18.7560
G01 X88.5273 Y18.7854
G01 X88.5130 Y18.8082
G01 X88.4936 Y18.8356
G01 X88.4768 Y18.8567
G01 X88.4451 Y18.8915
G01 X88.1371 Y19.1996
G01 X88.1371 Y21.5570
G01 X88.1633 Y21.5707
G01 X88.1843 Y21.5833
G01 X88.2039 Y21.5964
G01 X88.2236 Y21.6110
G01 X88.2418 Y21.6259
G01 X88.2600 Y21.6424
G01 X88.2766 Y21.6590
G01 X88.2931 Y21.6772
G01 X88.3080 Y21.6954
G01 X88.3238 Y21.7167
G01 X88.3357 Y21.7347
G01 X88.3483 Y21.7557
G01 X88.3594 Y21.7765
G01 X88.3699 Y21.7986
G01 X88.3789 Y21.8204
G01 X88.3871 Y21.8435
G01 X88.3940 Y21.8660
G01 X88.3999 Y21.8898
G01 X88.4045 Y21.9129
G01 X88.4081 Y21.9371
G01 X88.4104 Y21.9605
G01 X88.4119 Y21.9968
G01 X88.4119 Y22.8968
G01 X88.4104 Y22.9331
G01 X88.4081 Y22.9565
G01 X88.4045 Y22.9807
G01 X88.4037 Y22.9806
G01 X88.3999 Y23.0038
G01 X88.3940 Y23.0276
G01 X88.3871 Y23.0501
G01 X88.3789 Y23.0732
G01 X88.3699 Y23.0950
G01 X88.3594 Y23.1171
G01 X88.3483 Y23.1379
G01 X88.3357 Y23.1589
G01 X88.3226 Y23.1785
G01 X88.3080 Y23.1982
G01 X88.2931 Y23.2164
G01 X88.2766 Y23.2346
G01 X88.2600 Y23.2512
G01 X88.2418 Y23.2677
G01 X88.2236 Y23.2826
G01 X88.2039 Y23.2972
G01 X88.1843 Y23.3103
G01 X88.1633 Y23.3229
G01 X88.1425 Y23.3340
G01 X88.1204 Y23.3445
G01 X88.0986 Y23.3535
G01 X88.0755 Y23.3617
G01 X88.0530 Y23.3686
G01 X88.0292 Y23.3745
G01 X88.0061 Y23.3791
G01 X87.9819 Y23.3827
G01 X87.9585 Y23.3850
G01 X87.9222 Y23.3865
G01 X87.2604 Y23.3862
G01 X87.2359 Y23.3850
G01 X87.2125 Y23.3827
G01 X87.1883 Y23.3791
G01 X87.1884 Y23.3783
G01 X87.1652 Y23.3745
G01 X87.1414 Y23.3686
G01 X87.1189 Y23.3617
G01 X87.0958 Y23.3535
G01 X87.0740 Y23.3445
G01 X87.0519 Y23.3340
G01 X87.0311 Y23.3229
G01 X87.0101 Y23.3103
G01 X86.9905 Y23.2972
G01 X86.9708 Y23.2826
G01 X86.9526 Y23.2677
G01 X86.9344 Y23.2512
G01 X86.9178 Y23.2346
G01 X86.9013 Y23.2164
G01 X86.8864 Y23.1982
G01 X86.8706 Y23.1769
G01 X86.8587 Y23.1589
G01 X86.8461 Y23.1379
G01 X86.8350 Y23.1171
G01 X86.8245 Y23.0950
G01 X86.8155 Y23.0732
G01 X86.8073 Y23.0501
G01 X86.8004 Y23.0276
G01 X86.7945 Y23.0038
G01 X86.7911 Y22.9867
G01 X86.6324 Y22.9867
G01 X85.9849 Y23.6341
G01 X89.0590 Y23.6341
G01 X89.0983 Y23.5948
G01 X89.0983 Y23.3320
G01 X89.0811 Y23.3229
G01 X89.0601 Y23.3103
G01 X89.0405 Y23.2972
G01 X89.0208 Y23.2826
G01 X89.0026 Y23.2677
G01 X88.9844 Y23.2512
G01 X88.9678 Y23.2346
G01 X88.9513 Y23.2164
G01 X88.9364 Y23.1982
G01 X88.9206 Y23.1769
G01 X88.9087 Y23.1589
G01 X88.8961 Y23.1379
G01 X88.8850 Y23.1171
G01 X88.8745 Y23.0950
G01 X88.8655 Y23.0732
G01 X88.8573 Y23.0501
G01 X88.8504 Y23.0276
G01 X88.8445 Y23.0038
G01 X88.8399 Y22.9807
G01 X88.8363 Y22.9565
G01 X88.8340 Y22.9331
G01 X88.8325 Y22.8968
G01 X88.8325 Y21.9968
G01 X88.8340 Y21.9605
G01 X88.8363 Y21.9371
G01 X88.8399 Y21.9129
G01 X88.8407 Y21.9130
G01 X88.8445 Y21.8898
G01 X88.8504 Y21.8660
G01 X88.8573 Y21.8435
G01 X88.8655 Y21.8204
G01 X88.8745 Y21.7986
G01 X88.8850 Y21.7765
G01 X88.8961 Y21.7557
G01 X88.9087 Y21.7347
G01 X88.9218 Y21.7151
G01 X88.9364 Y21.6954
G01 X88.9513 Y21.6772
G01 X88.9678 Y21.6590
G01 X88.9844 Y21.6424
G01 X89.0026 Y21.6259
G01 X89.0208 Y21.6110
G01 X89.0405 Y21.5964
G01 X89.0601 Y21.5833
G01 X89.0811 Y21.5707
G01 X89.1019 Y21.5596
G01 X89.1240 Y21.5491
G01 X89.1458 Y21.5401
G01 X89.1689 Y21.5319
G01 X89.1914 Y21.5250
G01 X89.2152 Y21.5191
G01 X89.2383 Y21.5145
G01 X89.2625 Y21.5109
G01 X89.2859 Y21.5086
G01 X89.3222 Y21.5071
G01 X89.9722 Y21.5071
G01 X90.0085 Y21.5086
G01 X90.0319 Y21.5109
G01 X90.0561 Y21.5145
G01 X90.0560 Y21.5153
G01 X90.0792 Y21.5191
G01 X90.1030 Y21.5250
G01 X90.1255 Y21.5319
G01 X90.1486 Y21.5401
G01 X90.1704 Y21.5491
G01 X90.1925 Y21.5596
G01 X90.2133 Y21.5707
G01 X90.2343 Y21.5833
G01 X90.2539 Y21.5964
G01 X90.2736 Y21.6110
G01 X90.2918 Y21.6259
G01 X90.3100 Y21.6424
G01 X90.3266 Y21.6590
G01 X90.3431 Y21.6772
G01 X90.3580 Y21.6954
G01 X90.3738 Y21.7167
G01 X90.3857 Y21.7347
G01 X90.3983 Y21.7557
G01 X90.4094 Y21.7765
G01 X90.4199 Y21.7986
G01 X90.4289 Y21.8204
G01 X90.4371 Y21.8435
G01 X90.4440 Y21.8660
G01 X90.4499 Y21.8898
G01 X90.4545 Y21.9129
G01 X90.4581 Y21.9371
G01 X90.4604 Y21.9605
G01 X90.4619 Y21.9968
G01 X90.4619 Y22.8968
G01 X90.4604 Y22.9331
G01 X90.4581 Y22.9565
G01 X90.4545 Y22.9807
G01 X90.4537 Y22.9806
G01 X90.4499 Y23.0038
G01 X90.4440 Y23.0276
G01 X90.4371 Y23.0501
G01 X90.4289 Y23.0732
G01 X90.4199 Y23.0950
G01 X90.4094 Y23.1171
G01 X90.3983 Y23.1379
G01 X90.3857 Y23.1589
G01 X90.3726 Y23.1785
G01 X90.3580 Y23.1982
G01 X90.3431 Y23.2164
G01 X90.3266 Y23.2346
G01 X90.3100 Y23.2512
G01 X90.2918 Y23.2677
G01 X90.2736 Y23.2826
G01 X90.2523 Y23.2984
G01 X90.2343 Y23.3103
G01 X90.2133 Y23.3229
G01 X90.1784 Y23.3407
G01 X90.1781 Y23.8184
G01 X90.1758 Y23.8654
G01 X90.1728 Y23.8922
G01 X90.1662 Y23.9306
G01 X90.1612 Y23.9515
G01 X90.1518 Y23.9839
G01 X90.1430 Y24.0093
G01 X90.1295 Y24.0416
G01 X90.1184 Y24.0646
G01 X90.1021 Y24.0940
G01 X90.0878 Y24.1168
G01 X90.0684 Y24.1442
G01 X90.0516 Y24.1653
G01 X90.0199 Y24.2001
G01 X89.6643 Y24.5557
G01 X89.6295 Y24.5874
G01 X89.6291 Y24.5870
G01 X89.6084 Y24.6042
G01 X89.5783 Y24.6256
G01 X89.5582 Y24.6379
G01 X89.5288 Y24.6542
G01 X89.5046 Y24.6659
G01 X89.4735 Y24.6788
G01 X89.4481 Y24.6876
G01 X89.4157 Y24.6970
G01 X89.3895 Y24.7029
G01 X89.3564 Y24.7086
G01 X89.3296 Y24.7116
G01 X89.2826 Y24.7139
G01 X86.1280 Y24.7139
G01 X85.9489 Y24.8930
G01 X85.9489 Y34.3214
G01 X85.9466 Y34.3684
G01 X85.9436 Y34.3951
G01 X85.9370 Y34.4336
G01 X85.9320 Y34.4545
G01 X85.9226 Y34.4869
G01 X85.9138 Y34.5123
G01 X85.9004 Y34.5446
G01 X85.8892 Y34.5676
G01 X85.8729 Y34.5970
G01 X85.8586 Y34.6198
G01 X85.8392 Y34.6472
G01 X85.8224 Y34.6683
G01 X85.7907 Y34.7031
G01 X83.9747 Y36.5191
G01 X83.9399 Y36.5508
G01 X83.9395 Y36.5504
G01 X83.9188 Y36.5676
G01 X83.8887 Y36.5890
G01 X83.8686 Y36.6013
G01 X83.8392 Y36.6176
G01 X83.8150 Y36.6293
G01 X83.7839 Y36.6422
G01 X83.7585 Y36.6510
G01 X83.7261 Y36.6604
G01 X83.6999 Y36.6663
G01 X83.6668 Y36.6720
G01 X83.6400 Y36.6750
G01 X83.5930 Y36.6773
G01 X79.7730 Y36.6773
G01 X76.9686 Y39.4816
G01 X76.9686 Y48.9486
G01 X76.9786 Y48.9535
G01 X77.0768 Y49.0077
G01 X77.0995 Y49.0220
G01 X77.1910 Y49.0869
G01 X77.2120 Y49.1037
G01 X77.2956 Y49.1784
G01 X77.3146 Y49.1974
G01 X77.3894 Y49.2810
G01 X77.3889 Y49.2814
G01 X77.4061 Y49.3020
G01 X77.4729 Y49.3962
G01 X77.4853 Y49.4162
G01 X77.5395 Y49.5144
G01 X77.5512 Y49.5386
G01 X77.5941 Y49.6422
G01 X77.6030 Y49.6676
G01 X77.6340 Y49.7753
G01 X77.6400 Y49.8016
G01 X77.6588 Y49.9121
G01 X77.6618 Y49.9388
G01 X77.6685 Y50.0642
G01 X77.6618 Y50.1896
G01 X77.6588 Y50.2163
G01 X77.6391 Y50.3322
G01 X77.6340 Y50.3531
G01 X77.6030 Y50.4609
G01 X77.5941 Y50.4862
G01 X77.5507 Y50.5911
G01 X77.5395 Y50.6141
G01 X77.4853 Y50.7122
G01 X77.4710 Y50.7350
G01 X77.4061 Y50.8264
G01 X77.3894 Y50.8474
G01 X77.3146 Y50.9311
G01 X77.2956 Y50.9501
G01 X77.2120 Y51.0248
G01 X77.2116 Y51.0244
G01 X77.1910 Y51.0415
G01 X77.0968 Y51.1084
G01 X77.0768 Y51.1207
G01 X76.9786 Y51.1750
G01 X76.9544 Y51.1866
G01 X76.8508 Y51.2296
G01 X76.8254 Y51.2384
G01 X76.7177 Y51.2695
G01 X76.6915 Y51.2755
G01 X76.5809 Y51.2943
G01 X76.5542 Y51.2973
G01 X76.4288 Y51.3039
G01 X76.3034 Y51.2973
G01 X76.2767 Y51.2943
G01 X76.1608 Y51.2745
G01 X76.1399 Y51.2695
G01 X76.0322 Y51.2384
G01 X76.0068 Y51.2296
G01 X75.9019 Y51.1861
G01 X75.8790 Y51.1750
G01 X75.7808 Y51.1207
G01 X75.7581 Y51.1064
G01 X75.6666 Y51.0415
G01 X75.6456 Y51.0248
G01 X75.5620 Y50.9501
G01 X75.5430 Y50.9311
G01 X75.4682 Y50.8474
G01 X75.4687 Y50.8471
G01 X75.4515 Y50.8264
G01 X75.3847 Y50.7322
G01 X75.3723 Y50.7122
G01 X75.3180 Y50.6141
G01 X75.3064 Y50.5898
G01 X75.2635 Y50.4862
G01 X75.2546 Y50.4609
G01 X75.2235 Y50.3531
G01 X75.2175 Y50.3269
G01 X75.1988 Y50.2163
G01 X75.1958 Y50.1896
G01 X75.1891 Y50.0642
G01 X75.1958 Y49.9388
G01 X75.1988 Y49.9121
G01 X75.2185 Y49.7963
G01 X75.2235 Y49.7753
G01 X75.2546 Y49.6676
G01 X75.2635 Y49.6422
G01 X75.3069 Y49.5373
G01 X75.3180 Y49.5144
G01 X75.3723 Y49.4162
G01 X75.3866 Y49.3935
G01 X75.4515 Y49.3020
G01 X75.4682 Y49.2810
G01 X75.5430 Y49.1974
G01 X75.5620 Y49.1784
G01 X75.6456 Y49.1037
G01 X75.6460 Y49.1041
G01 X75.6666 Y49.0869
G01 X75.7581 Y49.0220
G01 X75.7808 Y49.0077
G01 X75.8790 Y48.9535
G01 X75.8889 Y48.9487
G01 X75.8889 Y39.2580
G01 X75.8912 Y39.2110
G01 X75.8942 Y39.1843
G01 X75.9008 Y39.1458
G01 X75.9058 Y39.1249
G01 X75.9152 Y39.0925
G01 X75.9240 Y39.0672
G01 X75.9374 Y39.0348
G01 X75.9486 Y39.0118
G01 X75.9649 Y38.9824
G01 X75.9792 Y38.9596
G01 X75.9986 Y38.9322
G01 X76.0154 Y38.9112
G01 X76.0471 Y38.8763
G01 X79.1677 Y35.7557
G01 X79.2026 Y35.7240
G01 X79.2029 Y35.7244
G01 X79.2236 Y35.7072
G01 X79.2538 Y35.6858
G01 X79.2738 Y35.6735
G01 X79.3032 Y35.6572
G01 X79.3275 Y35.6455
G01 X79.3586 Y35.6326
G01 X79.3839 Y35.6238
G01 X79.4163 Y35.6144
G01 X79.4425 Y35.6085
G01 X79.4757 Y35.6028
G01 X79.5024 Y35.5998
G01 X79.5494 Y35.5975
G01 X83.3694 Y35.5975
G01 X84.8692 Y34.0978
G01 X84.8692 Y33.3895
G01 X84.8408 Y33.4179
G01 X84.8408 Y33.9341
G01 X84.8396 Y33.9618
G01 X84.8366 Y33.9885
G01 X84.8332 Y34.0078
G01 X84.8282 Y34.0287
G01 X84.8243 Y34.0424
G01 X84.8154 Y34.0678
G01 X84.8094 Y34.0822
G01 X84.7983 Y34.1052
G01 X84.7914 Y34.1176
G01 X84.7771 Y34.1404
G01 X84.7688 Y34.1520
G01 X84.7521 Y34.1730
G01 X84.7334 Y34.1934
G01 X83.4651 Y35.4617
G01 X83.4447 Y35.4805
G01 X83.4443 Y35.4800
G01 X83.4236 Y35.4972
G01 X83.4093 Y35.5074
G01 X83.3768 Y35.5267
G01 X83.3526 Y35.5383
G01 X83.3394 Y35.5438
G01 X83.3140 Y35.5527
G01 X83.3003 Y35.5566
G01 X83.2741 Y35.5626
G01 X83.2601 Y35.5650
G01 X83.2334 Y35.5680
G01 X83.2057 Y35.5692
G01 X79.6415 Y35.5692
G01 X79.6173 Y35.5683
G01 X79.5939 Y35.5660
G01 X79.5494 Y35.5580
G01 X79.3277 Y35.6021
G01 X79.1397 Y35.7277
G01 X79.1139 Y35.7648
G01 X79.0990 Y35.7830
G01 X79.0825 Y35.8007
G01 X78.7800 Y36.1032
G01 X78.7596 Y36.1220
G01 X78.7592 Y36.1215
G01 X78.7386 Y36.1387
G01 X78.7242 Y36.1489
G01 X78.7042 Y36.1613
G01 X78.6917 Y36.1682
G01 X78.6675 Y36.1798
G01 X78.6543 Y36.1853
G01 X78.6290 Y36.1942
G01 X78.6153 Y36.1981
G01 X78.5891 Y36.2041
G01 X78.5750 Y36.2065
G01 X78.5483 Y36.2095
G01 X78.5206 Y36.2106
G01 X78.4930 Y36.2095
G01 X78.4663 Y36.2065
G01 X78.4469 Y36.2031
G01 X78.4123 Y36.1942
G01 X78.3869 Y36.1853
G01 X78.3725 Y36.1793
G01 X78.3496 Y36.1682
G01 X78.3371 Y36.1613
G01 X78.3143 Y36.1470
G01 X78.3027 Y36.1387
G01 X78.2817 Y36.1220
G01 X78.2711 Y36.1125
G01 X78.2521 Y36.0935
G01 X78.2426 Y36.0828
G01 X78.2430 Y36.0825
G01 X78.2258 Y36.0618
G01 X78.2156 Y36.0475
G01 X78.2033 Y36.0274
G01 X78.1964 Y36.0150
G01 X78.1847 Y35.9907
G01 X78.1793 Y35.9776
G01 X78.1704 Y35.9522
G01 X78.1664 Y35.9385
G01 X78.1604 Y35.9123
G01 X78.1581 Y35.8983
G01 X78.1551 Y35.8716
G01 X78.1539 Y35.8439
G01 X78.1539 Y34.6441
G01 X78.1202 Y34.4729
