(G-CODE GENERATED BY FLATCAM v8.91 - www.flatcam.org - Version Date: 2019/02/23)

(Name: V3-Edge.Cuts.gbr_cutout_cnc)
(Type: G-code from Geometry)
(Units: MM)

(Created on Saturday, 23 February 2019 at 23:29)

(TOOL DIAMETER: 0.8 mm)
(Feedrate: 500.0 mm/min)
(Feedrate_Z: 5050.0 mm/min)
(Feedrate rapids 3.0 mm/min)

(Z_Cut: -2.1 mm)
(Z_Move: 5.0 mm)
(Z Toolchange: 5.0 mm)
(X,Y Toolchange: 0.0000, 0.0000 mm)
(Z Start: 20.0 mm)
(Z End: 20.0 mm)
(Steps per circle: 64)
(Postprocessor Geometry: default)

(X range:   -0.5001 ...  107.6001  mm)
(Y range:   -0.5001 ...   66.4750  mm)

(Spindle Speed: 18000 RPM)
G94 ( Millimeters per minute feed rate. )
G21 ( Units == Millimeters. )
G90 ( Absolute coordinates. )
G64 P0.01000 ( set maximum deviation from commanded toolpath )
G21
G90
G94
G21
G90
G94
G21
G90
G94

G01 F500.00
G00 Z5.0000
G00 Z20.0000
M03 S18000
G00 X-0.4750 Y0.1556
G01 F5050.00
G01 Z-2.1000
G01 F500.00
G01 X-0.4875 Y0.1113
G01 X-0.4919 Y0.0893
G01 X-0.4969 Y0.0560
G01 X-0.4988 Y0.0336
G01 X-0.5001 Y-0.0000
G01 X-0.4994 Y-0.0224
G01 X-0.4969 Y-0.0560
G01 X-0.4938 Y-0.0782
G01 X-0.4875 Y-0.1113
G01 X-0.4788 Y-0.1438
G01 X-0.4720 Y-0.1652
G01 X-0.4597 Y-0.1965
G01 X-0.4505 Y-0.2170
G01 X-0.4348 Y-0.2467
G01 X-0.4234 Y-0.2660
G01 X-0.4044 Y-0.2938
G01 X-0.3910 Y-0.3118
G01 X-0.3765 Y-0.3289
G01 X-0.3536 Y-0.3536
G01 X-0.3373 Y-0.3690
G01 X-0.3118 Y-0.3910
G01 X-0.2847 Y-0.4109
G01 X-0.2660 Y-0.4234
G01 X-0.2369 Y-0.4402
G01 X-0.2170 Y-0.4505
G01 X-0.1861 Y-0.4640
G01 X-0.1652 Y-0.4720
G01 X-0.1330 Y-0.4819
G01 X-0.1113 Y-0.4875
G01 X-0.0782 Y-0.4938
G01 X-0.0560 Y-0.4969
G01 X-0.0224 Y-0.4994
G01 X0.0000 Y-0.5001
G01 X53.1750 Y-0.5001
G00 Z5.0000
G00 X54.1250 Y-0.5001
G01 F5050.00
G01 Z-2.1000
G01 F500.00
G01 X107.1000 Y-0.5001
G01 X107.1224 Y-0.4994
G01 X107.1560 Y-0.4969
G01 X107.1893 Y-0.4919
G01 X107.2113 Y-0.4875
G01 X107.2330 Y-0.4819
G01 X107.2652 Y-0.4720
G01 X107.2965 Y-0.4597
G01 X107.3170 Y-0.4505
G01 X107.3369 Y-0.4402
G01 X107.3660 Y-0.4234
G01 X107.3847 Y-0.4109
G01 X107.4118 Y-0.3910
G01 X107.4289 Y-0.3765
G01 X107.4536 Y-0.3536
G01 X107.4690 Y-0.3373
G01 X107.4910 Y-0.3118
G01 X107.5109 Y-0.2847
G01 X107.5234 Y-0.2660
G01 X107.5348 Y-0.2467
G01 X107.5505 Y-0.2170
G01 X107.5597 Y-0.1965
G01 X107.5720 Y-0.1652
G01 X107.5819 Y-0.1330
G01 X107.5875 Y-0.1113
G01 X107.5919 Y-0.0893
G01 X107.5969 Y-0.0560
G01 X107.5994 Y-0.0224
G01 X107.6001 Y0.0000
G01 X107.5988 Y0.0336
G01 X107.5969 Y0.0560
G01 X107.5938 Y0.0782
G01 X107.5875 Y0.1113
G01 X107.5750 Y0.1556
G01 X107.5750 Y32.6125
G00 Z5.0000
G00 X107.5750 Y33.5625
G01 F5050.00
G01 Z-2.1000
G01 F500.00
G01 X107.5750 Y66.0000
G01 X107.5744 Y66.0224
G01 X107.5721 Y66.0532
G01 X107.5689 Y66.0754
G01 X107.5631 Y66.1057
G01 X107.5552 Y66.1355
G01 X107.5484 Y66.1569
G01 X107.5372 Y66.1856
G01 X107.5280 Y66.2061
G01 X107.5177 Y66.2260
G01 X107.5022 Y66.2527
G01 X107.4898 Y66.2714
G01 X107.4714 Y66.2962
G01 X107.4513 Y66.3196
G01 X107.4359 Y66.3359
G01 X107.4196 Y66.3513
G01 X107.3962 Y66.3714
G01 X107.3714 Y66.3898
G01 X107.3527 Y66.4022
G01 X107.3260 Y66.4177
G01 X107.3061 Y66.4280
G01 X107.2779 Y66.4404
G01 X107.2569 Y66.4484
G01 X107.2355 Y66.4552
G01 X107.2057 Y66.4631
G01 X107.1754 Y66.4689
G01 X107.1532 Y66.4721
G01 X107.1308 Y66.4739
G01 X107.1000 Y66.4750
G01 X54.1250 Y66.4750
G00 Z5.0000
G00 X53.1750 Y66.4750
G01 F5050.00
G01 Z-2.1000
G01 F500.00
G01 X27.6000 Y66.4750
G01 X27.5692 Y66.4739
G01 X27.5468 Y66.4721
G01 X27.5246 Y66.4689
G01 X27.4943 Y66.4631
G01 X27.4645 Y66.4552
G01 X27.4431 Y66.4484
G01 X27.4221 Y66.4404
G01 X27.3939 Y66.4280
G01 X27.3740 Y66.4177
G01 X27.3473 Y66.4022
G01 X27.3217 Y66.3849
G01 X27.3038 Y66.3714
G01 X27.2804 Y66.3513
G01 X27.2641 Y66.3359
G01 X27.2487 Y66.3196
G01 X27.2286 Y66.2962
G01 X27.2102 Y66.2714
G01 X27.1978 Y66.2527
G01 X27.1823 Y66.2260
G01 X27.1720 Y66.2061
G01 X27.1628 Y66.1856
G01 X27.1516 Y66.1569
G01 X27.1425 Y66.1274
G01 X27.1369 Y66.1057
G01 X27.1311 Y66.0754
G01 X27.1279 Y66.0532
G01 X27.1261 Y66.0308
G01 X27.1250 Y66.0000
G01 X27.1250 Y37.4750
G01 X0.0000 Y37.4750
G01 X-0.0308 Y37.4739
G01 X-0.0532 Y37.4721
G01 X-0.0754 Y37.4689
G01 X-0.1057 Y37.4631
G01 X-0.1355 Y37.4552
G01 X-0.1569 Y37.4484
G01 X-0.1779 Y37.4404
G01 X-0.2061 Y37.4280
G01 X-0.2260 Y37.4177
G01 X-0.2527 Y37.4022
G01 X-0.2783 Y37.3849
G01 X-0.2962 Y37.3714
G01 X-0.3133 Y37.3569
G01 X-0.3359 Y37.3359
G01 X-0.3569 Y37.3133
G01 X-0.3714 Y37.2962
G01 X-0.3898 Y37.2714
G01 X-0.4022 Y37.2527
G01 X-0.4136 Y37.2334
G01 X-0.4280 Y37.2061
G01 X-0.4372 Y37.1856
G01 X-0.4484 Y37.1569
G01 X-0.4575 Y37.1274
G01 X-0.4631 Y37.1057
G01 X-0.4675 Y37.0837
G01 X-0.4721 Y37.0532
G01 X-0.4744 Y37.0224
G01 X-0.4750 Y37.0000
G01 X-0.4750 Y33.5625
G00 Z5.0000
G00 X-0.4750 Y32.6125
G01 F5050.00
G01 Z-2.1000
G01 F500.00
G01 X-0.4750 Y0.1556
G00 Z5.0000
M05
G00 Z5.0000
G00 Z20.00
G00 X0.0 Y0.0

G04 P0 ( dwell for no time -- G64 should not smooth over this point )
G00 Z10.000 ( retract )

M5 ( Spindle off. )
M9 ( Coolant off. )
M2 ( Program end. )