(G-CODE GENERATED BY FLATCAM v8.91 - www.flatcam.org - Version Date: 2019/02/23)

(Name: V3-F.Cu.gbr_iso_cnc)
(Type: G-code from Geometry)
(Units: MM)

(Created on Saturday, 23 February 2019 at 21:00)

(TOOL DIAMETER: 0.17 mm)
(Feedrate: 500.0 mm/min)
(Feedrate_Z: 5050.0 mm/min)
(Feedrate rapids 3.0 mm/min)

(Z_Cut: -0.1306 mm)
(Z_Move: 5.0 mm)
(Z Toolchange: 5.0 mm)
(X,Y Toolchange: 0.0000, 0.0000 mm)
(Z Start: 20.0 mm)
(Z End: 20.0 mm)
(Steps per circle: 64)
(Postprocessor Geometry: default)

(X range:    0.0338 ...  107.0662  mm)
(Y range:   -0.1027 ...   66.3683  mm)

(Spindle Speed: 18000 RPM)
G94 ( Millimeters per minute feed rate. )
G21 ( Units == Millimeters. )
G90 ( Absolute coordinates. )
G64 P0.01000 ( set maximum deviation from commanded toolpath )
G21
G90
G94
G21
G90
G94
G21
G90
G94

G01 F500.00
G00 Z5.0000
G00 Z20.0000
M03 S18000
G00 X2.4896 Y7.8061
G01 F5050.00
G01 Z-0.1306
G01 F500.00
G01 X2.4830 Y7.6894
G01 X2.4894 Y7.5727
G01 X2.4905 Y7.5632
G01 X2.5114 Y7.4433
G01 X2.5456 Y7.3266
G01 X2.5926 Y7.2144
G01 X2.6520 Y7.1082
G01 X2.7168 Y7.0167
G01 X2.7975 Y6.9257
G01 X2.8879 Y6.8442
G01 X2.9868 Y6.7734
G01 X2.9949 Y6.7683
G01 X3.1011 Y6.7101
G01 X3.2142 Y6.6638
G01 X3.3312 Y6.6307
G01 X3.4513 Y6.6108
G01 X3.5728 Y6.6045
G01 X3.6942 Y6.6119
G01 X3.8048 Y6.6307
G01 X3.9218 Y6.6638
G01 X4.0344 Y6.7099
G01 X4.1411 Y6.7683
G01 X4.2407 Y6.8382
G01 X4.2481 Y6.8442
G01 X4.3385 Y6.9257
G01 X4.4192 Y7.0167
G01 X4.4840 Y7.1082
G01 X4.5434 Y7.2144
G01 X4.5904 Y7.3266
G01 X4.5936 Y7.3356
G01 X4.6264 Y7.4508
G01 X4.6466 Y7.5727
G01 X4.6530 Y7.6894
G01 X4.6466 Y7.8061
G01 X4.6267 Y7.9262
G01 X4.5936 Y8.0432
G01 X4.5568 Y8.1335
G01 X4.8403 Y8.4171
G01 X4.8660 Y8.4456
G01 X4.8915 Y8.4805
G01 X4.9128 Y8.5181
G01 X4.9298 Y8.5577
G01 X4.9423 Y8.5991
G01 X4.9501 Y8.6416
G01 X4.9531 Y8.6894
G01 X4.9531 Y17.5977
G01 X10.3823 Y23.0268
G01 X11.6988 Y23.0268
G01 X11.7366 Y22.9370
G01 X11.7909 Y22.8389
G01 X11.8608 Y22.7393
G01 X11.8668 Y22.7319
G01 X11.9483 Y22.6415
G01 X12.0393 Y22.5608
G01 X12.1308 Y22.4960
G01 X12.1389 Y22.4909
G01 X12.2451 Y22.4327
G01 X12.3582 Y22.3864
G01 X12.4734 Y22.3536
G01 X12.5858 Y22.3345
G01 X12.5953 Y22.3334
G01 X12.7120 Y22.3270
G01 X12.8287 Y22.3334
G01 X12.8382 Y22.3345
G01 X12.9488 Y22.3533
G01 X13.0658 Y22.3864
G01 X13.1784 Y22.4325
G01 X13.1870 Y22.4366
G01 X13.2922 Y22.4953
G01 X13.3847 Y22.5608
G01 X13.4757 Y22.6415
G01 X13.4825 Y22.6483
G01 X13.5632 Y22.7393
G01 X13.6280 Y22.8308
G01 X13.6331 Y22.8389
G01 X13.6913 Y22.9451
G01 X13.7376 Y23.0582
G01 X13.7704 Y23.1734
G01 X13.7895 Y23.2858
G01 X13.7906 Y23.2953
G01 X13.7970 Y23.4120
G01 X13.7906 Y23.5287
G01 X13.7707 Y23.6488
G01 X13.7376 Y23.7658
G01 X13.7344 Y23.7748
G01 X13.6915 Y23.8784
G01 X13.6331 Y23.9851
G01 X13.5632 Y24.0847
G01 X13.5572 Y24.0921
G01 X13.4757 Y24.1825
G01 X13.3921 Y24.2572
G01 X13.2932 Y24.3280
G01 X13.2851 Y24.3331
G01 X13.1789 Y24.3913
G01 X13.0658 Y24.4376
G01 X12.9506 Y24.4704
G01 X12.8382 Y24.4895
G01 X12.8287 Y24.4906
G01 X12.7120 Y24.4970
G01 X12.5953 Y24.4906
G01 X12.4752 Y24.4707
G01 X12.3582 Y24.4376
G01 X12.2456 Y24.3915
G01 X12.2370 Y24.3874
G01 X12.1318 Y24.3287
G01 X12.0393 Y24.2632
G01 X11.9483 Y24.1825
G01 X11.8668 Y24.0921
G01 X11.7960 Y23.9932
G01 X11.7366 Y23.8870
G01 X11.6988 Y23.7972
G01 X11.4573 Y23.7972
G01 X9.9984 Y25.2561
G01 X9.9984 Y29.3231
G01 X11.0681 Y30.3928
G01 X19.7732 Y30.3928
G01 X19.8210 Y30.3959
G01 X19.8542 Y30.4016
G01 X19.8959 Y30.4130
G01 X19.9360 Y30.4290
G01 X19.9445 Y30.4332
G01 X19.9811 Y30.4539
G01 X20.0170 Y30.4800
G01 X20.0455 Y30.5057
G01 X23.2601 Y33.7202
G01 X28.8918 Y33.7202
G01 X28.9396 Y33.7233
G01 X28.9728 Y33.7290
G01 X29.0145 Y33.7404
G01 X29.0546 Y33.7564
G01 X29.0631 Y33.7606
G01 X29.0997 Y33.7813
G01 X29.1356 Y33.8074
G01 X29.1641 Y33.8331
G01 X31.3485 Y36.0175
G01 X31.3802 Y36.0535
G01 X31.3997 Y36.0809
G01 X31.4210 Y36.1185
G01 X31.4380 Y36.1581
G01 X31.4523 Y36.2069
G01 X31.4593 Y36.2514
G01 X31.4614 Y36.2898
G01 X31.4614 Y45.0965
G01 X32.2771 Y45.9122
G01 X32.7136 Y45.9122
G01 X32.5311 Y45.7297
G01 X32.5054 Y45.7012
G01 X32.4799 Y45.6663
G01 X32.4749 Y45.6582
G01 X32.4546 Y45.6206
G01 X32.4416 Y45.5891
G01 X32.4291 Y45.5477
G01 X32.4270 Y45.5384
G01 X32.4203 Y45.4958
G01 X32.4184 Y45.4622
G01 X32.4182 Y45.4424
G01 X32.3492 Y45.4423
G01 X32.3164 Y45.4403
G01 X32.2922 Y45.4367
G01 X32.2522 Y45.4267
G01 X32.2214 Y45.4152
G01 X32.1919 Y45.4008
G01 X32.1644 Y45.3840
G01 X32.1442 Y45.3689
G01 X32.1195 Y45.3472
G01 X32.0972 Y45.3231
G01 X32.0726 Y45.2900
G01 X32.0561 Y45.2616
G01 X32.0456 Y45.2394
G01 X32.0341 Y45.2086
G01 X32.0258 Y45.1768
G01 X32.0205 Y45.1444
G01 X32.0184 Y45.1074
G01 X32.0184 Y44.4574
G01 X32.0197 Y44.4287
G01 X32.0241 Y44.3962
G01 X32.0341 Y44.3562
G01 X32.0456 Y44.3254
G01 X32.0561 Y44.3032
G01 X32.0768 Y44.2684
G01 X32.0972 Y44.2417
G01 X32.1195 Y44.2176
G01 X32.1377 Y44.2012
G01 X32.1708 Y44.1766
G01 X32.1992 Y44.1601
G01 X32.2214 Y44.1496
G01 X32.2522 Y44.1381
G01 X32.2922 Y44.1281
G01 X32.3247 Y44.1237
G01 X32.3534 Y44.1224
G01 X33.2534 Y44.1224
G01 X33.2904 Y44.1245
G01 X33.3228 Y44.1298
G01 X33.3466 Y44.1357
G01 X33.3854 Y44.1496
G01 X33.4076 Y44.1601
G01 X33.4360 Y44.1766
G01 X33.4626 Y44.1959
G01 X33.4932 Y44.2235
G01 X33.5149 Y44.2482
G01 X33.5295 Y44.2679
G01 X33.5468 Y44.2959
G01 X33.5644 Y44.3331
G01 X33.5751 Y44.3642
G01 X33.5810 Y44.3880
G01 X33.5863 Y44.4204
G01 X33.5884 Y44.4574
G01 X33.5884 Y45.1074
G01 X33.5871 Y45.1361
G01 X33.5827 Y45.1686
G01 X33.5727 Y45.2086
G01 X33.5612 Y45.2394
G01 X33.5468 Y45.2689
G01 X33.5300 Y45.2964
G01 X33.5149 Y45.3166
G01 X33.4932 Y45.3413
G01 X33.4691 Y45.3636
G01 X33.4360 Y45.3882
G01 X33.4076 Y45.4047
G01 X33.3854 Y45.4152
G01 X33.3546 Y45.4267
G01 X33.3252 Y45.4345
G01 X33.8029 Y45.9122
G01 X35.4593 Y45.9122
G01 X35.4701 Y45.9081
G01 X35.4811 Y45.8998
G01 X35.4897 Y45.8952
G01 X35.4983 Y45.8916
G01 X35.5074 Y45.8891
G01 X35.5166 Y45.8875
G01 X35.5260 Y45.8870
G01 X37.0760 Y45.8870
G01 X37.0854 Y45.8875
G01 X37.0946 Y45.8891
G01 X37.1037 Y45.8916
G01 X37.1123 Y45.8952
G01 X37.1209 Y45.8998
G01 X37.1288 Y45.9054
G01 X37.1361 Y45.9119
G01 X37.1426 Y45.9192
G01 X37.1482 Y45.9271
G01 X37.1528 Y45.9357
G01 X37.1564 Y45.9443
G01 X37.1589 Y45.9534
G01 X37.1605 Y45.9626
G01 X37.1610 Y45.9720
G01 X37.1610 Y46.5720
G01 X37.1605 Y46.5814
G01 X37.1589 Y46.5906
G01 X37.1564 Y46.5997
G01 X37.1528 Y46.6083
G01 X37.1482 Y46.6169
G01 X37.1426 Y46.6248
G01 X37.1361 Y46.6321
G01 X37.1288 Y46.6386
G01 X37.1209 Y46.6442
G01 X37.1123 Y46.6488
G01 X37.1037 Y46.6524
G01 X37.0946 Y46.6549
G01 X37.0854 Y46.6565
G01 X37.0760 Y46.6570
G01 X35.7073 Y46.6572
G01 X35.6933 Y46.6624
G01 X35.6535 Y46.6735
G01 X35.6090 Y46.6805
G01 X35.5706 Y46.6826
G01 X32.1176 Y46.6826
G01 X32.0792 Y46.6805
G01 X32.0366 Y46.6738
G01 X31.9949 Y46.6624
G01 X31.9548 Y46.6464
G01 X31.9463 Y46.6422
G01 X31.9097 Y46.6215
G01 X31.8813 Y46.6014
G01 X31.8487 Y46.5730
G01 X30.8039 Y45.5283
G01 X30.7782 Y45.4998
G01 X30.7527 Y45.4649
G01 X30.7477 Y45.4568
G01 X30.7274 Y45.4192
G01 X30.7112 Y45.3787
G01 X30.7001 Y45.3389
G01 X30.6941 Y45.3038
G01 X30.6910 Y45.2560
G01 X30.6910 Y36.4493
G01 X28.7323 Y34.4906
G01 X23.2601 Y34.4906
G01 X23.1951 Y34.5555
G01 X23.1666 Y34.5812
G01 X23.1317 Y34.6067
G01 X23.1236 Y34.6117
G01 X23.0860 Y34.6320
G01 X23.0455 Y34.6482
G01 X23.0057 Y34.6593
G01 X22.9612 Y34.6663
G01 X22.9228 Y34.6684
G01 X20.5058 Y34.6684
G01 X20.5058 Y34.9029
G01 X20.6185 Y35.0156
G01 X21.4907 Y35.0156
G01 X21.5047 Y35.0104
G01 X21.5445 Y34.9993
G01 X21.5890 Y34.9923
G01 X21.6274 Y34.9902
G01 X27.9200 Y34.9902
G01 X27.9678 Y34.9933
G01 X28.0010 Y34.9990
G01 X28.0426 Y35.0104
G01 X28.0827 Y35.0264
G01 X28.0913 Y35.0306
G01 X28.1279 Y35.0513
G01 X28.1563 Y35.0714
G01 X28.1923 Y35.1031
G01 X30.1293 Y37.0401
G01 X30.1610 Y37.0761
G01 X30.1805 Y37.1036
G01 X30.2018 Y37.1411
G01 X30.2188 Y37.1808
G01 X30.2331 Y37.2295
G01 X30.2401 Y37.2741
G01 X30.2422 Y37.3124
G01 X30.2422 Y45.4521
G01 X31.9469 Y47.1568
G01 X36.3010 Y47.1568
G01 X37.0760 Y47.1570
G01 X37.0854 Y47.1575
G01 X37.0946 Y47.1591
G01 X37.1037 Y47.1616
G01 X37.1123 Y47.1652
G01 X37.1209 Y47.1698
G01 X37.1288 Y47.1754
G01 X37.1361 Y47.1819
G01 X37.1426 Y47.1892
G01 X37.1482 Y47.1971
G01 X37.1528 Y47.2057
G01 X37.1564 Y47.2143
G01 X37.1589 Y47.2234
G01 X37.1605 Y47.2326
G01 X37.1610 Y47.2420
G01 X37.1610 Y47.8420
G01 X37.1605 Y47.8514
G01 X37.1589 Y47.8606
G01 X37.1564 Y47.8697
G01 X37.1528 Y47.8783
G01 X37.1482 Y47.8869
G01 X37.1426 Y47.8948
G01 X37.1361 Y47.9021
G01 X37.1288 Y47.9086
G01 X37.1209 Y47.9142
G01 X37.1123 Y47.9188
G01 X37.1037 Y47.9224
G01 X37.0946 Y47.9249
G01 X37.0854 Y47.9265
G01 X37.0760 Y47.9270
G01 X31.7874 Y47.9272
G01 X31.7396 Y47.9241
G01 X31.6971 Y47.9163
G01 X31.6647 Y47.9070
G01 X31.6246 Y47.8910
G01 X31.5866 Y47.8705
G01 X31.5511 Y47.8460
G01 X31.5151 Y47.8143
G01 X29.5847 Y45.8839
G01 X29.5530 Y45.8479
G01 X29.5335 Y45.8205
G01 X29.5122 Y45.7829
G01 X29.4952 Y45.7433
G01 X29.4920 Y45.7343
G01 X29.4809 Y45.6945
G01 X29.4749 Y45.6594
G01 X29.4718 Y45.6116
G01 X29.4718 Y37.4720
G01 X27.7604 Y35.7606
G01 X21.7387 Y35.7606
G01 X21.7247 Y35.7658
G01 X21.6849 Y35.7769
G01 X21.6404 Y35.7839
G01 X21.6020 Y35.7860
G01 X20.4590 Y35.7860
G01 X20.4112 Y35.7829
G01 X20.3687 Y35.7751
G01 X20.3363 Y35.7658
G01 X20.2962 Y35.7498
G01 X20.2582 Y35.7293
G01 X20.2227 Y35.7048
G01 X20.1901 Y35.6764
G01 X20.0817 Y35.5682
G01 X18.8208 Y35.5682
G01 X18.8114 Y35.5677
G01 X18.8022 Y35.5661
G01 X18.7931 Y35.5636
G01 X18.7845 Y35.5600
G01 X18.7759 Y35.5554
G01 X18.7680 Y35.5498
G01 X18.7607 Y35.5433
G01 X18.7542 Y35.5360
G01 X18.7486 Y35.5281
G01 X18.7440 Y35.5195
G01 X18.7404 Y35.5109
G01 X18.7379 Y35.5018
G01 X18.7363 Y35.4926
G01 X18.7358 Y35.4832
G01 X18.7358 Y33.0832
G01 X18.7363 Y33.0738
G01 X18.7379 Y33.0646
G01 X18.7404 Y33.0555
G01 X18.7440 Y33.0469
G01 X18.7486 Y33.0383
G01 X18.7542 Y33.0304
G01 X18.7607 Y33.0231
G01 X18.7680 Y33.0166
G01 X18.7759 Y33.0110
G01 X18.7845 Y33.0064
G01 X18.7931 Y33.0028
G01 X18.8022 Y33.0003
G01 X18.8114 Y32.9987
G01 X18.8208 Y32.9982
G01 X20.4208 Y32.9982
G01 X20.4302 Y32.9987
G01 X20.4394 Y33.0003
G01 X20.4485 Y33.0028
G01 X20.4571 Y33.0064
G01 X20.4657 Y33.0110
G01 X20.4736 Y33.0166
G01 X20.4809 Y33.0231
G01 X20.4874 Y33.0304
G01 X20.4930 Y33.0383
G01 X20.4976 Y33.0469
G01 X20.5012 Y33.0555
G01 X20.5037 Y33.0646
G01 X20.5053 Y33.0738
G01 X20.5058 Y33.0832
G01 X20.5058 Y33.8980
G01 X22.3486 Y33.8980
G01 X19.6137 Y31.1632
G01 X10.9086 Y31.1632
G01 X10.8608 Y31.1601
G01 X10.8276 Y31.1544
G01 X10.7859 Y31.1430
G01 X10.7458 Y31.1270
G01 X10.7373 Y31.1228
G01 X10.7007 Y31.1021
G01 X10.6723 Y31.0820
G01 X10.6397 Y31.0536
G01 X9.3409 Y29.7549
G01 X9.3152 Y29.7264
G01 X9.2897 Y29.6915
G01 X9.2847 Y29.6834
G01 X9.2644 Y29.6458
G01 X9.2514 Y29.6143
G01 X9.2389 Y29.5729
G01 X9.2368 Y29.5636
G01 X9.2301 Y29.5210
G01 X9.2280 Y29.4826
G01 X9.2280 Y25.0966
G01 X9.2301 Y25.0582
G01 X9.2368 Y25.0156
G01 X9.2482 Y24.9739
G01 X9.2642 Y24.9338
G01 X9.2684 Y24.9252
G01 X9.2891 Y24.8887
G01 X9.3092 Y24.8603
G01 X9.3376 Y24.8277
G01 X10.3680 Y23.7972
G01 X9.9577 Y23.7972
G01 X9.2831 Y24.4717
G01 X9.2546 Y24.4974
G01 X9.2197 Y24.5229
G01 X9.2116 Y24.5279
G01 X9.1740 Y24.5482
G01 X9.1335 Y24.5644
G01 X9.0937 Y24.5755
G01 X9.0586 Y24.5815
G01 X9.0156 Y24.5844
G01 X8.9958 Y24.5846
G01 X8.9957 Y24.6536
G01 X8.9937 Y24.6864
G01 X8.9901 Y24.7106
G01 X8.9801 Y24.7506
G01 X8.9686 Y24.7814
G01 X8.9542 Y24.8109
G01 X8.9374 Y24.8384
G01 X8.9223 Y24.8586
G01 X8.9006 Y24.8833
G01 X8.8765 Y24.9056
G01 X8.8434 Y24.9302
G01 X8.8150 Y24.9467
G01 X8.7928 Y24.9572
G01 X8.7620 Y24.9687
G01 X8.7302 Y24.9770
G01 X8.6978 Y24.9823
G01 X8.6650 Y24.9843
G01 X8.0108 Y24.9844
G01 X7.9821 Y24.9831
G01 X7.9496 Y24.9787
G01 X7.9176 Y24.9711
G01 X7.8788 Y24.9572
G01 X7.8493 Y24.9428
G01 X7.8218 Y24.9260
G01 X7.8016 Y24.9109
G01 X7.7769 Y24.8892
G01 X7.7546 Y24.8651
G01 X7.7347 Y24.8389
G01 X7.7174 Y24.8109
G01 X7.7030 Y24.7814
G01 X7.6915 Y24.7506
G01 X7.6832 Y24.7188
G01 X7.6779 Y24.6864
G01 X7.6758 Y24.6494
G01 X7.6758 Y23.7494
G01 X7.6771 Y23.7207
G01 X7.6815 Y23.6882
G01 X7.6891 Y23.6562
G01 X7.7030 Y23.6174
G01 X7.7174 Y23.5879
G01 X7.7342 Y23.5604
G01 X7.7493 Y23.5402
G01 X7.7710 Y23.5155
G01 X7.7951 Y23.4932
G01 X7.8213 Y23.4733
G01 X7.8566 Y23.4521
G01 X7.8788 Y23.4416
G01 X7.9096 Y23.4301
G01 X7.9414 Y23.4218
G01 X7.9738 Y23.4165
G01 X8.0108 Y23.4144
G01 X8.6608 Y23.4144
G01 X8.6978 Y23.4165
G01 X8.7302 Y23.4218
G01 X8.7540 Y23.4277
G01 X8.7928 Y23.4416
G01 X8.8150 Y23.4521
G01 X8.8434 Y23.4686
G01 X8.8765 Y23.4932
G01 X8.9006 Y23.5155
G01 X8.9170 Y23.5337
G01 X8.9416 Y23.5668
G01 X8.9581 Y23.5952
G01 X8.9686 Y23.6174
G01 X8.9801 Y23.6482
G01 X8.9879 Y23.6776
G01 X9.4658 Y23.1997
G01 X4.2957 Y18.0295
G01 X4.2640 Y17.9935
G01 X4.2445 Y17.9661
G01 X4.2232 Y17.9285
G01 X4.2062 Y17.8889
G01 X4.1919 Y17.8401
G01 X4.1849 Y17.7956
G01 X4.1828 Y17.7572
G01 X4.1828 Y8.8489
G01 X4.0121 Y8.6782
G01 X3.9218 Y8.7150
G01 X3.8141 Y8.7460
G01 X3.6942 Y8.7669
G01 X3.6847 Y8.7680
G01 X3.5680 Y8.7744
G01 X3.4513 Y8.7680
G01 X3.3312 Y8.7481
G01 X3.2142 Y8.7150
G01 X3.1016 Y8.6689
G01 X2.9949 Y8.6105
G01 X2.8953 Y8.5406
G01 X2.8043 Y8.4599
G01 X2.7975 Y8.4531
G01 X2.7168 Y8.3621
G01 X2.6469 Y8.2625
G01 X2.5887 Y8.1563
G01 X2.5424 Y8.0432
G01 X2.5096 Y7.9280
G01 X2.4905 Y7.8156
G01 X2.4896 Y7.8061
G01 X2.4830 Y7.6894
G00 Z5.0000
G00 X6.8782 Y6.7382
G01 F5050.00
G01 Z-0.1306
G01 F500.00
G01 X6.8679 Y6.5568
G01 X6.8777 Y6.3754
G01 X6.8807 Y6.3487
G01 X6.9089 Y6.1829
G01 X6.9149 Y6.1567
G01 X6.9614 Y5.9950
G01 X6.9703 Y5.9697
G01 X7.0347 Y5.8142
G01 X7.0464 Y5.7900
G01 X7.1277 Y5.6428
G01 X7.1401 Y5.6228
G01 X7.2394 Y5.4829
G01 X7.2565 Y5.4622
G01 X7.2561 Y5.4618
G01 X7.3682 Y5.3364
G01 X7.3872 Y5.3174
G01 X7.5126 Y5.2053
G01 X7.5337 Y5.1886
G01 X7.6708 Y5.0912
G01 X7.6936 Y5.0769
G01 X7.8408 Y4.9956
G01 X7.8638 Y4.9844
G01 X8.0205 Y4.9195
G01 X8.0458 Y4.9106
G01 X8.2075 Y4.8641
G01 X8.2337 Y4.8581
G01 X8.3995 Y4.8299
G01 X8.4262 Y4.8269
G01 X8.6076 Y4.8171
G01 X8.7890 Y4.8269
G01 X8.8157 Y4.8299
G01 X8.9815 Y4.8581
G01 X9.0077 Y4.8641
G01 X9.1694 Y4.9106
G01 X9.1947 Y4.9195
G01 X9.3502 Y4.9839
G01 X9.3744 Y4.9956
G01 X9.5216 Y5.0769
G01 X9.5416 Y5.0893
G01 X9.6815 Y5.1886
G01 X9.7022 Y5.2057
G01 X9.7026 Y5.2053
G01 X9.8280 Y5.3174
G01 X9.8470 Y5.3364
G01 X9.9591 Y5.4618
G01 X9.9758 Y5.4829
G01 X10.0732 Y5.6200
G01 X10.0875 Y5.6428
G01 X10.1688 Y5.7900
G01 X10.1800 Y5.8130
G01 X10.2449 Y5.9697
G01 X10.2538 Y5.9950
G01 X10.3003 Y6.1567
G01 X10.3063 Y6.1829
G01 X10.3345 Y6.3487
G01 X10.3375 Y6.3754
G01 X10.3473 Y6.5568
G01 X10.3375 Y6.7382
G01 X10.3345 Y6.7649
G01 X10.3063 Y6.9307
G01 X10.3003 Y6.9569
G01 X10.2538 Y7.1186
G01 X10.2449 Y7.1439
G01 X10.1805 Y7.2994
G01 X10.1688 Y7.3236
G01 X10.0875 Y7.4708
G01 X10.0751 Y7.4908
G01 X9.9758 Y7.6307
G01 X9.9587 Y7.6514
G01 X9.9591 Y7.6518
G01 X9.8470 Y7.7772
G01 X9.8280 Y7.7962
G01 X9.7026 Y7.9083
G01 X9.6815 Y7.9250
G01 X9.5444 Y8.0224
G01 X9.5216 Y8.0367
G01 X9.3744 Y8.1180
G01 X9.3514 Y8.1292
G01 X9.1947 Y8.1941
G01 X9.1694 Y8.2030
G01 X9.0077 Y8.2495
G01 X8.9815 Y8.2555
G01 X8.8157 Y8.2837
G01 X8.7890 Y8.2867
G01 X8.6076 Y8.2965
G01 X8.4262 Y8.2867
G01 X8.3995 Y8.2837
G01 X8.2337 Y8.2555
G01 X8.2075 Y8.2495
G01 X8.0458 Y8.2030
G01 X8.0205 Y8.1941
G01 X7.8650 Y8.1297
G01 X7.8408 Y8.1180
G01 X7.6936 Y8.0367
G01 X7.6736 Y8.0243
G01 X7.5337 Y7.9250
G01 X7.5130 Y7.9079
G01 X7.5126 Y7.9083
G01 X7.3872 Y7.7962
G01 X7.3682 Y7.7772
G01 X7.2561 Y7.6518
G01 X7.2394 Y7.6307
G01 X7.1420 Y7.4936
G01 X7.1277 Y7.4708
G01 X7.0464 Y7.3236
G01 X7.0352 Y7.3006
G01 X6.9703 Y7.1439
G01 X6.9614 Y7.1186
G01 X6.9149 Y6.9569
G01 X6.9089 Y6.9307
G01 X6.8807 Y6.7649
G01 X6.8782 Y6.7382
G01 X6.8679 Y6.5568
G00 Z5.0000
G00 X7.0323 Y6.7295
G01 F5050.00
G01 Z-0.1306
G01 F500.00
G01 X7.0226 Y6.5568
G01 X7.0322 Y6.3841
G01 X7.0332 Y6.3746
G01 X7.0614 Y6.2088
G01 X7.0635 Y6.1995
G01 X7.1101 Y6.0379
G01 X7.1132 Y6.0289
G01 X7.1776 Y5.8734
G01 X7.1818 Y5.8649
G01 X7.2675 Y5.7105
G01 X7.3655 Y5.5724
G01 X7.3715 Y5.5649
G01 X7.4836 Y5.4395
G01 X7.4903 Y5.4328
G01 X7.6157 Y5.3207
G01 X7.6232 Y5.3147
G01 X7.7604 Y5.2174
G01 X7.7684 Y5.2123
G01 X7.9157 Y5.1310
G01 X7.9238 Y5.1270
G01 X8.0797 Y5.0624
G01 X8.0887 Y5.0593
G01 X8.2503 Y5.0127
G01 X8.2596 Y5.0106
G01 X8.4254 Y4.9824
G01 X8.4349 Y4.9814
G01 X8.6076 Y4.9718
G01 X8.7803 Y4.9814
G01 X8.7898 Y4.9824
G01 X8.9556 Y5.0106
G01 X8.9649 Y5.0127
G01 X9.1265 Y5.0593
G01 X9.1355 Y5.0624
G01 X9.2910 Y5.1268
G01 X9.2995 Y5.1310
G01 X9.4539 Y5.2167
G01 X9.5920 Y5.3147
G01 X9.5995 Y5.3207
G01 X9.7249 Y5.4328
G01 X9.7316 Y5.4395
G01 X9.8437 Y5.5649
G01 X9.8497 Y5.5724
G01 X9.9470 Y5.7096
G01 X9.9521 Y5.7176
G01 X10.0334 Y5.8649
G01 X10.0374 Y5.8730
G01 X10.1020 Y6.0289
G01 X10.1051 Y6.0379
G01 X10.1517 Y6.1995
G01 X10.1538 Y6.2088
G01 X10.1820 Y6.3746
G01 X10.1830 Y6.3841
G01 X10.1926 Y6.5568
G01 X10.1830 Y6.7295
G01 X10.1820 Y6.7390
G01 X10.1538 Y6.9048
G01 X10.1517 Y6.9141
G01 X10.1051 Y7.0757
G01 X10.1020 Y7.0847
G01 X10.0376 Y7.2402
G01 X10.0334 Y7.2487
G01 X9.9477 Y7.4031
G01 X9.8497 Y7.5412
G01 X9.8437 Y7.5487
G01 X9.7316 Y7.6741
G01 X9.7249 Y7.6808
G01 X9.5995 Y7.7929
G01 X9.5920 Y7.7989
G01 X9.4548 Y7.8962
G01 X9.4468 Y7.9013
G01 X9.2995 Y7.9826
G01 X9.2914 Y7.9866
G01 X9.1355 Y8.0512
G01 X9.1265 Y8.0543
G01 X8.9649 Y8.1009
G01 X8.9556 Y8.1030
G01 X8.7898 Y8.1312
G01 X8.7803 Y8.1322
G01 X8.6076 Y8.1418
G01 X8.4349 Y8.1322
G01 X8.4254 Y8.1312
G01 X8.2596 Y8.1030
G01 X8.2503 Y8.1009
G01 X8.0887 Y8.0543
G01 X8.0797 Y8.0512
G01 X7.9242 Y7.9868
G01 X7.9157 Y7.9826
G01 X7.7613 Y7.8969
G01 X7.6232 Y7.7989
G01 X7.6157 Y7.7929
G01 X7.4903 Y7.6808
G01 X7.4836 Y7.6741
G01 X7.3715 Y7.5487
G01 X7.3655 Y7.5412
G01 X7.2682 Y7.4040
G01 X7.2631 Y7.3960
G01 X7.1818 Y7.2487
G01 X7.1778 Y7.2406
G01 X7.1132 Y7.0847
G01 X7.1101 Y7.0757
G01 X7.0635 Y6.9141
G01 X7.0614 Y6.9048
G01 X7.0332 Y6.7390
G01 X7.0323 Y6.7295
G01 X7.0226 Y6.5568
G00 Z5.0000
G00 X9.4214 Y8.1337
G01 F5050.00
G01 Z-0.1306
G01 F500.00
G01 X8.9593 Y8.3250
G01 X8.2559 Y8.3250
G01 X7.6060 Y8.0558
G01 X7.1086 Y7.5584
G01 X6.8394 Y6.9085
G01 X6.8394 Y6.2051
G01 X7.1086 Y5.5552
G01 X7.6060 Y5.0578
G01 X8.2559 Y4.7886
G01 X8.9593 Y4.7886
G01 X9.6092 Y5.0578
G01 X10.1066 Y5.5552
G01 X10.3758 Y6.2051
G01 X10.3758 Y6.9085
G01 X10.1066 Y7.5584
G01 X9.6710 Y7.9941
G01 X9.6197 Y8.0153
G01 X9.5968 Y8.0264
G01 X9.4986 Y8.0807
G01 X9.4759 Y8.0950
G01 X9.4214 Y8.1337
G01 X8.9593 Y8.3250
G00 Z5.0000
G00 X9.4967 Y8.2699
G01 F5050.00
G01 Z-0.1306
G01 F500.00
G01 X8.9901 Y8.4797
G01 X8.2251 Y8.4797
G01 X7.5183 Y8.1870
G01 X6.9774 Y7.6461
G01 X6.6847 Y6.9393
G01 X6.6847 Y6.1743
G01 X6.9774 Y5.4675
G01 X7.5183 Y4.9266
G01 X8.2251 Y4.6339
G01 X8.9901 Y4.6339
G01 X9.6969 Y4.9266
G01 X10.2378 Y5.4675
G01 X10.5305 Y6.1743
G01 X10.5305 Y6.9393
G01 X10.2378 Y7.6461
G01 X9.7586 Y8.1252
G01 X9.6716 Y8.1618
G01 X9.5735 Y8.2161
G01 X9.4967 Y8.2699
G01 X8.9901 Y8.4797
G00 Z5.0000
G00 X11.8862 Y10.3494
G01 F5050.00
G01 Z-0.1306
G01 F500.00
G01 X11.8769 Y10.3515
G01 X11.8276 Y10.3657
G01 X11.6656 Y10.0851
G01 X11.7198 Y10.0177
G01 X11.8935 Y9.9995
G01 X11.8935 Y10.3481
G01 X11.8862 Y10.3494
G01 X11.8769 Y10.3515
G00 Z5.0000
G00 X12.4637 Y9.9913
G01 F5050.00
G01 Z-0.1306
G01 F500.00
G01 X12.9767 Y10.1436
G01 X13.3925 Y10.4627
G01 X13.4063 Y10.5515
G01 X13.1271 Y10.7127
G01 X13.1191 Y10.7045
G01 X13.0146 Y10.6111
G01 X13.0071 Y10.6052
G01 X12.8919 Y10.5234
G01 X12.7621 Y10.4512
G01 X12.7535 Y10.4471
G01 X12.6240 Y10.3934
G01 X12.6150 Y10.3903
G01 X12.4803 Y10.3515
G01 X12.4637 Y10.3481
G01 X12.4637 Y9.9913
G01 X12.9767 Y10.1436
G00 Z5.0000
G00 X12.6184 Y10.1986
G01 F5050.00
G01 Z-0.1306
G01 F500.00
G01 X12.9052 Y10.2838
G01 X13.1866 Y10.4997
G01 X13.1474 Y10.5223
G01 X13.1177 Y10.4958
G01 X13.1173 Y10.4962
G01 X13.0967 Y10.4790
G01 X12.9796 Y10.3960
G01 X12.9596 Y10.3836
G01 X12.8369 Y10.3158
G01 X12.8127 Y10.3041
G01 X12.6832 Y10.2505
G01 X12.6578 Y10.2416
G01 X12.6184 Y10.2303
G01 X12.6184 Y10.1986
G01 X12.9052 Y10.2838
G00 Z5.0000
G00 X14.1266 Y9.6462
G01 F5050.00
G01 Z-0.1306
G01 F500.00
G01 X14.1179 Y9.4928
G01 X14.1261 Y9.3394
G01 X14.1291 Y9.3127
G01 X14.1526 Y9.1745
G01 X14.1586 Y9.1483
G01 X14.1974 Y9.0136
G01 X14.2063 Y8.9882
G01 X14.2599 Y8.8587
G01 X14.2716 Y8.8345
G01 X14.3394 Y8.7118
G01 X14.3518 Y8.6918
G01 X14.4348 Y8.5747
G01 X14.4520 Y8.5541
G01 X14.4516 Y8.5537
G01 X14.5450 Y8.4492
G01 X14.5640 Y8.4302
G01 X14.6685 Y8.3368
G01 X14.6895 Y8.3200
G01 X14.8039 Y8.2389
G01 X14.8266 Y8.2246
G01 X14.9493 Y8.1568
G01 X14.9722 Y8.1457
G01 X15.1030 Y8.0915
G01 X15.1284 Y8.0826
G01 X15.2631 Y8.0438
G01 X15.2840 Y8.0388
G01 X15.4275 Y8.0143
G01 X15.4542 Y8.0113
G01 X15.6076 Y8.0031
G01 X15.7610 Y8.0113
G01 X15.7877 Y8.0143
G01 X15.9259 Y8.0378
G01 X15.9521 Y8.0438
G01 X16.0868 Y8.0826
G01 X16.1122 Y8.0915
G01 X16.2417 Y8.1451
G01 X16.2659 Y8.1568
G01 X16.3886 Y8.2246
G01 X16.4086 Y8.2370
G01 X16.5257 Y8.3200
G01 X16.5463 Y8.3372
G01 X16.5467 Y8.3368
G01 X16.6512 Y8.4302
G01 X16.6702 Y8.4492
G01 X16.7636 Y8.5537
G01 X16.7804 Y8.5747
G01 X16.8615 Y8.6891
G01 X16.8758 Y8.7118
G01 X16.9436 Y8.8345
G01 X16.9547 Y8.8574
G01 X17.0089 Y8.9882
G01 X17.0178 Y9.0136
G01 X17.0566 Y9.1483
G01 X17.0616 Y9.1692
G01 X17.0861 Y9.3127
G01 X17.0891 Y9.3394
G01 X17.0973 Y9.4928
G01 X17.0891 Y9.6462
G01 X17.0861 Y9.6729
G01 X17.0626 Y9.8111
G01 X17.0566 Y9.8373
G01 X17.0178 Y9.9720
G01 X17.0089 Y9.9974
G01 X16.9553 Y10.1269
G01 X16.9436 Y10.1511
G01 X16.8758 Y10.2738
G01 X16.8634 Y10.2938
G01 X16.7804 Y10.4109
G01 X16.7632 Y10.4315
G01 X16.7636 Y10.4319
G01 X16.6702 Y10.5364
G01 X16.6512 Y10.5554
G01 X16.5467 Y10.6488
G01 X16.5257 Y10.6656
G01 X16.4113 Y10.7467
G01 X16.3886 Y10.7610
G01 X16.2659 Y10.8288
G01 X16.2430 Y10.8399
G01 X16.1122 Y10.8941
G01 X16.0868 Y10.9030
G01 X15.9521 Y10.9418
G01 X15.9312 Y10.9468
G01 X15.7877 Y10.9713
G01 X15.7610 Y10.9743
G01 X15.6076 Y10.9825
G01 X15.4542 Y10.9743
G01 X15.4275 Y10.9713
G01 X15.2893 Y10.9478
G01 X15.2631 Y10.9418
G01 X15.1284 Y10.9030
G01 X15.1030 Y10.8941
G01 X14.9735 Y10.8405
G01 X14.9493 Y10.8288
G01 X14.8266 Y10.7610
G01 X14.8066 Y10.7486
G01 X14.6895 Y10.6656
G01 X14.6689 Y10.6484
G01 X14.6685 Y10.6488
G01 X14.5640 Y10.5554
G01 X14.5450 Y10.5364
G01 X14.4516 Y10.4319
G01 X14.4348 Y10.4109
G01 X14.3537 Y10.2965
G01 X14.3394 Y10.2738
G01 X14.2716 Y10.1511
G01 X14.2605 Y10.1282
G01 X14.2063 Y9.9974
G01 X14.1974 Y9.9720
G01 X14.1586 Y9.8373
G01 X14.1526 Y9.8111
G01 X14.1291 Y9.6729
G01 X14.1266 Y9.6462
G01 X14.1179 Y9.4928
G00 Z5.0000
G00 X14.2808 Y9.6375
G01 F5050.00
G01 Z-0.1306
G01 F500.00
G01 X14.2726 Y9.4928
G01 X14.2806 Y9.3481
G01 X14.2817 Y9.3386
G01 X14.3051 Y9.2004
G01 X14.3073 Y9.1911
G01 X14.3461 Y9.0564
G01 X14.3492 Y9.0474
G01 X14.4029 Y8.9179
G01 X14.4070 Y8.9093
G01 X14.4748 Y8.7866
G01 X14.4799 Y8.7786
G01 X14.5610 Y8.6643
G01 X14.5669 Y8.6568
G01 X14.6603 Y8.5523
G01 X14.6671 Y8.5455
G01 X14.7716 Y8.4521
G01 X14.7791 Y8.4462
G01 X14.8934 Y8.3651
G01 X14.9014 Y8.3600
G01 X15.0241 Y8.2922
G01 X15.0323 Y8.2882
G01 X15.1622 Y8.2344
G01 X15.1712 Y8.2313
G01 X15.3133 Y8.1907
G01 X15.4534 Y8.1669
G01 X15.4629 Y8.1658
G01 X15.6076 Y8.1578
G01 X15.7523 Y8.1658
G01 X15.7618 Y8.1669
G01 X15.9000 Y8.1903
G01 X15.9093 Y8.1925
G01 X16.0440 Y8.2313
G01 X16.0530 Y8.2344
G01 X16.1825 Y8.2881
G01 X16.1911 Y8.2922
G01 X16.3138 Y8.3600
G01 X16.3218 Y8.3651
G01 X16.4361 Y8.4462
G01 X16.4436 Y8.4521
G01 X16.5481 Y8.5455
G01 X16.5549 Y8.5523
G01 X16.6483 Y8.6568
G01 X16.6542 Y8.6643
G01 X16.7353 Y8.7786
G01 X16.7404 Y8.7866
G01 X16.8082 Y8.9093
G01 X16.8122 Y8.9175
G01 X16.8660 Y9.0474
G01 X16.8691 Y9.0564
G01 X16.9097 Y9.1985
G01 X16.9335 Y9.3386
G01 X16.9346 Y9.3481
G01 X16.9426 Y9.4928
G01 X16.9346 Y9.6375
G01 X16.9335 Y9.6470
G01 X16.9101 Y9.7852
G01 X16.9079 Y9.7945
G01 X16.8691 Y9.9292
G01 X16.8660 Y9.9382
G01 X16.8123 Y10.0677
G01 X16.8082 Y10.0763
G01 X16.7404 Y10.1990
G01 X16.7353 Y10.2070
G01 X16.6542 Y10.3213
G01 X16.6483 Y10.3288
G01 X16.5549 Y10.4333
G01 X16.5481 Y10.4401
G01 X16.4436 Y10.5335
G01 X16.4361 Y10.5394
G01 X16.3218 Y10.6205
G01 X16.3138 Y10.6256
G01 X16.1911 Y10.6934
G01 X16.1829 Y10.6974
G01 X16.0530 Y10.7512
G01 X16.0440 Y10.7543
G01 X15.9019 Y10.7949
G01 X15.7618 Y10.8187
G01 X15.7523 Y10.8198
G01 X15.6076 Y10.8278
G01 X15.4629 Y10.8198
G01 X15.4534 Y10.8187
G01 X15.3152 Y10.7953
G01 X15.3059 Y10.7931
G01 X15.1712 Y10.7543
G01 X15.1622 Y10.7512
G01 X15.0327 Y10.6975
G01 X15.0241 Y10.6934
G01 X14.9014 Y10.6256
G01 X14.8934 Y10.6205
G01 X14.7791 Y10.5394
G01 X14.7716 Y10.5335
G01 X14.6671 Y10.4401
G01 X14.6603 Y10.4333
G01 X14.5669 Y10.3288
G01 X14.5610 Y10.3213
G01 X14.4799 Y10.2070
G01 X14.4748 Y10.1990
G01 X14.4070 Y10.0763
G01 X14.4030 Y10.0681
G01 X14.3492 Y9.9382
G01 X14.3461 Y9.9292
G01 X14.3073 Y9.7945
G01 X14.3051 Y9.7852
G01 X14.2817 Y9.6470
G01 X14.2808 Y9.6375
G01 X14.2726 Y9.4928
G00 Z5.0000
G00 X14.0894 Y9.1908
G01 F5050.00
G01 Z-0.1306
G01 F500.00
G01 X14.3205 Y8.6328
G01 X14.7476 Y8.2057
G01 X15.3056 Y7.9746
G01 X15.9096 Y7.9746
G01 X16.4676 Y8.2057
G01 X16.8947 Y8.6328
G01 X17.1258 Y9.1908
G01 X17.1258 Y9.7948
G01 X16.8947 Y10.3528
G01 X16.4676 Y10.7799
G01 X15.9096 Y11.0110
G01 X15.3056 Y11.0110
G01 X14.7476 Y10.7799
G01 X14.3205 Y10.3528
G01 X14.0894 Y9.7948
G01 X14.0894 Y9.1908
G01 X14.3205 Y8.6328
G00 Z5.0000
G00 X13.9347 Y9.1600
G01 F5050.00
G01 Z-0.1306
G01 F500.00
G01 X14.1894 Y8.5452
G01 X14.6600 Y8.0746
G01 X15.2748 Y7.8199
G01 X15.9404 Y7.8199
G01 X16.5552 Y8.0746
G01 X17.0258 Y8.5452
G01 X17.2805 Y9.1600
G01 X17.2805 Y9.8256
G01 X17.0258 Y10.4404
G01 X16.5552 Y10.9110
G01 X15.9404 Y11.1657
G01 X15.2748 Y11.1657
G01 X14.6600 Y10.9110
G01 X14.1894 Y10.4404
G01 X13.9347 Y9.8256
G01 X13.9347 Y9.1600
G01 X14.1894 Y8.5452
G00 Z5.0000
G00 X13.3081 Y12.6206
G01 F5050.00
G01 Z-0.1306
G01 F500.00
G01 X13.3346 Y12.5909
G01 X13.3342 Y12.5905
G01 X13.3514 Y12.5699
G01 X13.4344 Y12.4528
G01 X13.4468 Y12.4328
G01 X13.5146 Y12.3101
G01 X13.5263 Y12.2859
G01 X13.5799 Y12.1564
G01 X13.5888 Y12.1310
G01 X13.6276 Y11.9963
G01 X13.6336 Y11.9701
G01 X13.6571 Y11.8319
G01 X13.6601 Y11.8052
G01 X13.6679 Y11.6652
G01 X13.6679 Y11.6384
G01 X13.6601 Y11.4984
G01 X13.6571 Y11.4717
G01 X13.6411 Y11.3776
G01 X13.6744 Y11.3583
G01 X13.7200 Y11.7945
G01 X13.5466 Y12.3784
G01 X13.3307 Y12.6598
G01 X13.3081 Y12.6206
G01 X13.3346 Y12.5909
G00 Z5.0000
G00 X13.1177 Y12.6003
G01 F5050.00
G01 Z-0.1306
G01 F500.00
G01 X13.1259 Y12.5923
G01 X13.2193 Y12.4878
G01 X13.2252 Y12.4803
G01 X13.3063 Y12.3660
G01 X13.3114 Y12.3580
G01 X13.3792 Y12.2353
G01 X13.3833 Y12.2267
G01 X13.4370 Y12.0972
G01 X13.4401 Y12.0882
G01 X13.4789 Y11.9535
G01 X13.4811 Y11.9442
G01 X13.5045 Y11.8060
G01 X13.5056 Y11.7965
G01 X13.5136 Y11.6518
G01 X13.5056 Y11.5071
G01 X13.5045 Y11.4976
G01 X13.4807 Y11.3575
G01 X13.4647 Y11.3008
G01 X13.7453 Y11.1388
G01 X13.8127 Y11.1930
G01 X13.8770 Y11.8090
G01 X13.6868 Y12.4499
G01 X13.3677 Y12.8657
G01 X13.2789 Y12.8795
G01 X13.1177 Y12.6003
G01 X13.1259 Y12.5923
G00 Z5.0000
G00 X13.9347 Y13.2240
G01 F5050.00
G01 Z-0.1306
G01 F500.00
G01 X14.1894 Y12.6092
G01 X14.6600 Y12.1386
G01 X15.2748 Y11.8839
G01 X15.9404 Y11.8839
G01 X16.5552 Y12.1386
G01 X17.0258 Y12.6092
G01 X17.2805 Y13.2240
G01 X17.2805 Y13.8896
G01 X17.0258 Y14.5044
G01 X16.5552 Y14.9750
G01 X15.9404 Y15.2297
G01 X15.2748 Y15.2297
G01 X14.6600 Y14.9750
G01 X14.1894 Y14.5044
G01 X13.9347 Y13.8896
G01 X13.9347 Y13.2240
G01 X14.1894 Y12.6092
G00 Z5.0000
G00 X14.0894 Y13.2548
G01 F5050.00
G01 Z-0.1306
G01 F500.00
G01 X14.3205 Y12.6968
G01 X14.7476 Y12.2697
G01 X15.3056 Y12.0386
G01 X15.9096 Y12.0386
G01 X16.4676 Y12.2697
G01 X16.8947 Y12.6968
G01 X17.1258 Y13.2548
G01 X17.1258 Y13.8588
G01 X16.8947 Y14.4168
G01 X16.4676 Y14.8439
G01 X15.9096 Y15.0750
G01 X15.3056 Y15.0750
G01 X14.7476 Y14.8439
G01 X14.3205 Y14.4168
G01 X14.0894 Y13.8588
G01 X14.0894 Y13.2548
G01 X14.3205 Y12.6968
G00 Z5.0000
G00 X14.1266 Y13.7102
G01 F5050.00
G01 Z-0.1306
G01 F500.00
G01 X14.1179 Y13.5568
G01 X14.1261 Y13.4034
G01 X14.1291 Y13.3767
G01 X14.1526 Y13.2385
G01 X14.1586 Y13.2123
G01 X14.1974 Y13.0776
G01 X14.2063 Y13.0522
G01 X14.2599 Y12.9227
G01 X14.2716 Y12.8985
G01 X14.3394 Y12.7758
G01 X14.3518 Y12.7558
G01 X14.4348 Y12.6387
G01 X14.4520 Y12.6181
G01 X14.4516 Y12.6177
G01 X14.5450 Y12.5132
G01 X14.5640 Y12.4942
G01 X14.6685 Y12.4008
G01 X14.6895 Y12.3840
G01 X14.8039 Y12.3029
G01 X14.8266 Y12.2886
G01 X14.9493 Y12.2208
G01 X14.9722 Y12.2097
G01 X15.1030 Y12.1555
G01 X15.1284 Y12.1466
G01 X15.2631 Y12.1078
G01 X15.2840 Y12.1028
G01 X15.4275 Y12.0783
G01 X15.4542 Y12.0753
G01 X15.6076 Y12.0671
G01 X15.7610 Y12.0753
G01 X15.7877 Y12.0783
G01 X15.9259 Y12.1018
G01 X15.9521 Y12.1078
G01 X16.0868 Y12.1466
G01 X16.1122 Y12.1555
G01 X16.2417 Y12.2091
G01 X16.2659 Y12.2208
G01 X16.3886 Y12.2886
G01 X16.4086 Y12.3010
G01 X16.5257 Y12.3840
G01 X16.5463 Y12.4012
G01 X16.5467 Y12.4008
G01 X16.6512 Y12.4942
G01 X16.6702 Y12.5132
G01 X16.7636 Y12.6177
G01 X16.7804 Y12.6387
G01 X16.8615 Y12.7531
G01 X16.8758 Y12.7758
G01 X16.9436 Y12.8985
G01 X16.9547 Y12.9214
G01 X17.0089 Y13.0522
G01 X17.0178 Y13.0776
G01 X17.0566 Y13.2123
G01 X17.0616 Y13.2332
G01 X17.0861 Y13.3767
G01 X17.0891 Y13.4034
G01 X17.0973 Y13.5568
G01 X17.0891 Y13.7102
G01 X17.0861 Y13.7369
G01 X17.0626 Y13.8751
G01 X17.0566 Y13.9013
G01 X17.0178 Y14.0360
G01 X17.0089 Y14.0614
G01 X16.9553 Y14.1909
G01 X16.9436 Y14.2151
G01 X16.8758 Y14.3378
G01 X16.8634 Y14.3578
G01 X16.7804 Y14.4749
G01 X16.7632 Y14.4955
G01 X16.7636 Y14.4959
G01 X16.6702 Y14.6004
G01 X16.6512 Y14.6194
G01 X16.5467 Y14.7128
G01 X16.5257 Y14.7296
G01 X16.4113 Y14.8107
G01 X16.3886 Y14.8250
G01 X16.2659 Y14.8928
G01 X16.2430 Y14.9039
G01 X16.1122 Y14.9581
G01 X16.0868 Y14.9670
G01 X15.9521 Y15.0058
G01 X15.9312 Y15.0108
G01 X15.7877 Y15.0353
G01 X15.7610 Y15.0383
G01 X15.6076 Y15.0465
G01 X15.4542 Y15.0383
G01 X15.4275 Y15.0353
G01 X15.2893 Y15.0118
G01 X15.2631 Y15.0058
G01 X15.1284 Y14.9670
G01 X15.1030 Y14.9581
G01 X14.9735 Y14.9045
G01 X14.9493 Y14.8928
G01 X14.8266 Y14.8250
G01 X14.8066 Y14.8126
G01 X14.6895 Y14.7296
G01 X14.6689 Y14.7124
G01 X14.6685 Y14.7128
G01 X14.5640 Y14.6194
G01 X14.5450 Y14.6004
G01 X14.4516 Y14.4959
G01 X14.4348 Y14.4749
G01 X14.3537 Y14.3605
G01 X14.3394 Y14.3378
G01 X14.2716 Y14.2151
G01 X14.2605 Y14.1922
G01 X14.2063 Y14.0614
G01 X14.1974 Y14.0360
G01 X14.1586 Y13.9013
G01 X14.1526 Y13.8751
G01 X14.1291 Y13.7369
G01 X14.1266 Y13.7102
G01 X14.1179 Y13.5568
G00 Z5.0000
G00 X14.2808 Y13.7015
G01 F5050.00
G01 Z-0.1306
G01 F500.00
G01 X14.2726 Y13.5568
G01 X14.2806 Y13.4121
G01 X14.2817 Y13.4026
G01 X14.3051 Y13.2644
G01 X14.3073 Y13.2551
G01 X14.3461 Y13.1204
G01 X14.3492 Y13.1114
G01 X14.4029 Y12.9819
G01 X14.4070 Y12.9733
G01 X14.4748 Y12.8506
G01 X14.4799 Y12.8426
G01 X14.5610 Y12.7283
G01 X14.5669 Y12.7208
G01 X14.6603 Y12.6163
G01 X14.6671 Y12.6095
G01 X14.7716 Y12.5161
G01 X14.7791 Y12.5102
G01 X14.8934 Y12.4291
G01 X14.9014 Y12.4240
G01 X15.0241 Y12.3562
G01 X15.0323 Y12.3522
G01 X15.1622 Y12.2984
G01 X15.1712 Y12.2953
G01 X15.3133 Y12.2547
G01 X15.4534 Y12.2309
G01 X15.4629 Y12.2298
G01 X15.6076 Y12.2218
G01 X15.7523 Y12.2298
G01 X15.7618 Y12.2309
G01 X15.9000 Y12.2543
G01 X15.9093 Y12.2565
G01 X16.0440 Y12.2953
G01 X16.0530 Y12.2984
G01 X16.1825 Y12.3521
G01 X16.1911 Y12.3562
G01 X16.3138 Y12.4240
G01 X16.3218 Y12.4291
G01 X16.4361 Y12.5102
G01 X16.4436 Y12.5161
G01 X16.5481 Y12.6095
G01 X16.5549 Y12.6163
G01 X16.6483 Y12.7208
G01 X16.6542 Y12.7283
G01 X16.7353 Y12.8426
G01 X16.7404 Y12.8506
G01 X16.8082 Y12.9733
G01 X16.8122 Y12.9815
G01 X16.8660 Y13.1114
G01 X16.8691 Y13.1204
G01 X16.9097 Y13.2625
G01 X16.9335 Y13.4026
G01 X16.9346 Y13.4121
G01 X16.9426 Y13.5568
G01 X16.9346 Y13.7015
G01 X16.9335 Y13.7110
G01 X16.9101 Y13.8492
G01 X16.9079 Y13.8585
G01 X16.8691 Y13.9932
G01 X16.8660 Y14.0022
G01 X16.8123 Y14.1317
G01 X16.8082 Y14.1403
G01 X16.7404 Y14.2630
G01 X16.7353 Y14.2710
G01 X16.6542 Y14.3853
G01 X16.6483 Y14.3928
G01 X16.5549 Y14.4973
G01 X16.5481 Y14.5041
G01 X16.4436 Y14.5975
G01 X16.4361 Y14.6034
G01 X16.3218 Y14.6845
G01 X16.3138 Y14.6896
G01 X16.1911 Y14.7574
G01 X16.1829 Y14.7614
G01 X16.0530 Y14.8152
G01 X16.0440 Y14.8183
G01 X15.9019 Y14.8589
G01 X15.7618 Y14.8827
G01 X15.7523 Y14.8838
G01 X15.6076 Y14.8918
G01 X15.4629 Y14.8838
G01 X15.4534 Y14.8827
G01 X15.3152 Y14.8593
G01 X15.3059 Y14.8571
G01 X15.1712 Y14.8183
G01 X15.1622 Y14.8152
G01 X15.0327 Y14.7615
G01 X15.0241 Y14.7574
G01 X14.9014 Y14.6896
G01 X14.8934 Y14.6845
G01 X14.7791 Y14.6034
G01 X14.7716 Y14.5975
G01 X14.6671 Y14.5041
G01 X14.6603 Y14.4973
G01 X14.5669 Y14.3928
G01 X14.5610 Y14.3853
G01 X14.4799 Y14.2710
G01 X14.4748 Y14.2630
G01 X14.4070 Y14.1403
G01 X14.4030 Y14.1321
G01 X14.3492 Y14.0022
G01 X14.3461 Y13.9932
G01 X14.3073 Y13.8585
G01 X14.3051 Y13.8492
G01 X14.2817 Y13.7110
G01 X14.2808 Y13.7015
G01 X14.2726 Y13.5568
G00 Z5.0000
G00 X11.3427 Y12.6923
G01 F5050.00
G01 Z-0.1306
G01 F500.00
G01 X11.3501 Y12.6984
G01 X11.4653 Y12.7802
G01 X11.5951 Y12.8524
G01 X11.6037 Y12.8565
G01 X11.7332 Y12.9102
G01 X11.7422 Y12.9133
G01 X11.8769 Y12.9521
G01 X11.8862 Y12.9543
G01 X12.0244 Y12.9777
G01 X12.0339 Y12.9788
G01 X12.1786 Y12.9868
G01 X12.3233 Y12.9788
G01 X12.3328 Y12.9777
G01 X12.4729 Y12.9539
G01 X12.5296 Y12.9379
G01 X12.6916 Y13.2185
G01 X12.6374 Y13.2859
G01 X12.0214 Y13.3502
G01 X11.3805 Y13.1600
G01 X10.9647 Y12.8409
G01 X10.9509 Y12.7521
G01 X11.2301 Y12.5909
G01 X11.2381 Y12.5991
G01 X11.3427 Y12.6923
G01 X11.3501 Y12.6984
G00 Z5.0000
G00 X11.1706 Y12.8039
G01 F5050.00
G01 Z-0.1306
G01 F500.00
G01 X11.2098 Y12.7813
G01 X11.2395 Y12.8078
G01 X11.2399 Y12.8074
G01 X11.2605 Y12.8246
G01 X11.3776 Y12.9076
G01 X11.3976 Y12.9200
G01 X11.5203 Y12.9878
G01 X11.5445 Y12.9995
G01 X11.6740 Y13.0531
G01 X11.6994 Y13.0620
G01 X11.8341 Y13.1008
G01 X11.8603 Y13.1068
G01 X11.9985 Y13.1303
G01 X12.0252 Y13.1333
G01 X12.1786 Y13.1415
G01 X12.3320 Y13.1333
G01 X12.3587 Y13.1303
G01 X12.4528 Y13.1143
G01 X12.4721 Y13.1476
G01 X12.0359 Y13.1932
G01 X11.4520 Y13.0198
G01 X11.1706 Y12.8039
G01 X11.2098 Y12.7813
G00 Z5.0000
G00 X10.6828 Y11.9453
G01 F5050.00
G01 Z-0.1306
G01 F500.00
G01 X10.6372 Y11.5091
G01 X10.8106 Y10.9252
G01 X11.0265 Y10.6438
G01 X11.0491 Y10.6830
G01 X11.0226 Y10.7127
G01 X11.0230 Y10.7131
G01 X11.0058 Y10.7337
G01 X10.9228 Y10.8508
G01 X10.9104 Y10.8708
G01 X10.8426 Y10.9935
G01 X10.8309 Y11.0177
G01 X10.7773 Y11.1472
G01 X10.7684 Y11.1726
G01 X10.7296 Y11.3073
G01 X10.7236 Y11.3335
G01 X10.7001 Y11.4717
G01 X10.6971 Y11.4984
G01 X10.6889 Y11.6518
G01 X10.6971 Y11.8052
G01 X10.7001 Y11.8319
G01 X10.7161 Y11.9260
G01 X10.6828 Y11.9453
G01 X10.6372 Y11.5091
G00 Z5.0000
G00 X10.8518 Y11.7965
G01 F5050.00
G01 Z-0.1306
G01 F500.00
G01 X10.8527 Y11.8060
G01 X10.8765 Y11.9461
G01 X10.8925 Y12.0028
G01 X10.6119 Y12.1648
G01 X10.5445 Y12.1106
G01 X10.4802 Y11.4946
G01 X10.6704 Y10.8537
G01 X10.9895 Y10.4379
G01 X11.0783 Y10.4241
G01 X11.2395 Y10.7033
G01 X11.2313 Y10.7113
G01 X11.1379 Y10.8158
G01 X11.1320 Y10.8233
G01 X11.0502 Y10.9385
G01 X10.9780 Y11.0683
G01 X10.9739 Y11.0769
G01 X10.9202 Y11.2064
G01 X10.9171 Y11.2154
G01 X10.8783 Y11.3501
G01 X10.8761 Y11.3594
G01 X10.8527 Y11.4976
G01 X10.8516 Y11.5071
G01 X10.8436 Y11.6518
G01 X10.8518 Y11.7965
G01 X10.8527 Y11.8060
G00 Z5.0000
G00 X10.5057 Y15.3830
G01 F5050.00
G01 Z-0.1306
G01 F500.00
G01 X10.7604 Y14.7682
G01 X11.2310 Y14.2976
G01 X11.8458 Y14.0429
G01 X12.5114 Y14.0429
G01 X13.1262 Y14.2976
G01 X13.5968 Y14.7682
G01 X13.8515 Y15.3830
G01 X13.8515 Y16.0486
G01 X13.5968 Y16.6634
G01 X13.1262 Y17.1340
G01 X12.5114 Y17.3887
G01 X11.8458 Y17.3887
G01 X11.2310 Y17.1340
G01 X10.7604 Y16.6634
G01 X10.5057 Y16.0486
G01 X10.5057 Y15.3830
G01 X10.7604 Y14.7682
G00 Z5.0000
G00 X10.6604 Y15.4138
G01 F5050.00
G01 Z-0.1306
G01 F500.00
G01 X10.8915 Y14.8558
G01 X11.3186 Y14.4287
G01 X11.8766 Y14.1976
G01 X12.4806 Y14.1976
G01 X13.0386 Y14.4287
G01 X13.4657 Y14.8558
G01 X13.6968 Y15.4138
G01 X13.6968 Y16.0178
G01 X13.4657 Y16.5758
G01 X13.0386 Y17.0029
G01 X12.4806 Y17.2340
G01 X11.8766 Y17.2340
G01 X11.3186 Y17.0029
G01 X10.8915 Y16.5758
G01 X10.6604 Y16.0178
G01 X10.6604 Y15.4138
G01 X10.8915 Y14.8558
G00 Z5.0000
G00 X10.6976 Y15.8692
G01 F5050.00
G01 Z-0.1306
G01 F500.00
G01 X10.6889 Y15.7158
G01 X10.6971 Y15.5624
G01 X10.7001 Y15.5357
G01 X10.7236 Y15.3975
G01 X10.7296 Y15.3713
G01 X10.7684 Y15.2366
G01 X10.7773 Y15.2112
G01 X10.8309 Y15.0817
G01 X10.8426 Y15.0575
G01 X10.9104 Y14.9348
G01 X10.9228 Y14.9148
G01 X11.0058 Y14.7977
G01 X11.0230 Y14.7771
G01 X11.0226 Y14.7767
G01 X11.1160 Y14.6722
G01 X11.1350 Y14.6532
G01 X11.2395 Y14.5598
G01 X11.2605 Y14.5430
G01 X11.3749 Y14.4619
G01 X11.3976 Y14.4476
G01 X11.5203 Y14.3798
G01 X11.5432 Y14.3687
G01 X11.6740 Y14.3145
G01 X11.6994 Y14.3056
G01 X11.8341 Y14.2668
G01 X11.8550 Y14.2618
G01 X11.9985 Y14.2373
G01 X12.0252 Y14.2343
G01 X12.1786 Y14.2261
G01 X12.3320 Y14.2343
G01 X12.3587 Y14.2373
G01 X12.4969 Y14.2608
G01 X12.5231 Y14.2668
G01 X12.6578 Y14.3056
G01 X12.6832 Y14.3145
G01 X12.8127 Y14.3681
G01 X12.8369 Y14.3798
G01 X12.9596 Y14.4476
G01 X12.9796 Y14.4600
G01 X13.0967 Y14.5430
G01 X13.1173 Y14.5602
G01 X13.1177 Y14.5598
G01 X13.2222 Y14.6532
G01 X13.2412 Y14.6722
G01 X13.3346 Y14.7767
G01 X13.3514 Y14.7977
G01 X13.4325 Y14.9121
G01 X13.4468 Y14.9348
G01 X13.5146 Y15.0575
G01 X13.5257 Y15.0804
G01 X13.5799 Y15.2112
G01 X13.5888 Y15.2366
G01 X13.6276 Y15.3713
G01 X13.6326 Y15.3922
G01 X13.6571 Y15.5357
G01 X13.6601 Y15.5624
G01 X13.6683 Y15.7158
G01 X13.6601 Y15.8692
G01 X13.6571 Y15.8959
G01 X13.6336 Y16.0341
G01 X13.6276 Y16.0603
G01 X13.5888 Y16.1950
G01 X13.5799 Y16.2204
G01 X13.5263 Y16.3499
G01 X13.5146 Y16.3741
G01 X13.4468 Y16.4968
G01 X13.4344 Y16.5168
G01 X13.3514 Y16.6339
G01 X13.3342 Y16.6545
G01 X13.3346 Y16.6549
G01 X13.2412 Y16.7594
G01 X13.2222 Y16.7784
G01 X13.1177 Y16.8718
G01 X13.0967 Y16.8886
G01 X12.9823 Y16.9697
G01 X12.9596 Y16.9840
G01 X12.8369 Y17.0518
G01 X12.8140 Y17.0629
G01 X12.6832 Y17.1171
G01 X12.6578 Y17.1260
G01 X12.5231 Y17.1648
G01 X12.5022 Y17.1698
G01 X12.3587 Y17.1943
G01 X12.3320 Y17.1973
G01 X12.1786 Y17.2055
G01 X12.0252 Y17.1973
G01 X11.9985 Y17.1943
G01 X11.8603 Y17.1708
G01 X11.8341 Y17.1648
G01 X11.6994 Y17.1260
G01 X11.6740 Y17.1171
G01 X11.5445 Y17.0635
G01 X11.5203 Y17.0518
G01 X11.3976 Y16.9840
G01 X11.3776 Y16.9716
G01 X11.2605 Y16.8886
G01 X11.2399 Y16.8714
G01 X11.2395 Y16.8718
G01 X11.1350 Y16.7784
G01 X11.1160 Y16.7594
G01 X11.0226 Y16.6549
G01 X11.0058 Y16.6339
G01 X10.9247 Y16.5195
G01 X10.9104 Y16.4968
G01 X10.8426 Y16.3741
G01 X10.8315 Y16.3512
G01 X10.7773 Y16.2204
G01 X10.7684 Y16.1950
G01 X10.7296 Y16.0603
G01 X10.7236 Y16.0341
G01 X10.7001 Y15.8959
G01 X10.6976 Y15.8692
G01 X10.6889 Y15.7158
G00 Z5.0000
G00 X10.8518 Y15.8605
G01 F5050.00
G01 Z-0.1306
G01 F500.00
G01 X10.8436 Y15.7158
G01 X10.8516 Y15.5711
G01 X10.8527 Y15.5616
G01 X10.8761 Y15.4234
G01 X10.8783 Y15.4141
G01 X10.9171 Y15.2794
G01 X10.9202 Y15.2704
G01 X10.9739 Y15.1409
G01 X10.9780 Y15.1323
G01 X11.0458 Y15.0096
G01 X11.0509 Y15.0016
G01 X11.1320 Y14.8873
G01 X11.1379 Y14.8798
G01 X11.2313 Y14.7753
G01 X11.2381 Y14.7685
G01 X11.3426 Y14.6751
G01 X11.3501 Y14.6692
G01 X11.4644 Y14.5881
G01 X11.4724 Y14.5830
G01 X11.5951 Y14.5152
G01 X11.6033 Y14.5112
G01 X11.7332 Y14.4574
G01 X11.7422 Y14.4543
G01 X11.8843 Y14.4137
G01 X12.0244 Y14.3899
G01 X12.0339 Y14.3888
G01 X12.1786 Y14.3808
G01 X12.3233 Y14.3888
G01 X12.3328 Y14.3899
G01 X12.4710 Y14.4133
G01 X12.4803 Y14.4155
G01 X12.6150 Y14.4543
G01 X12.6240 Y14.4574
G01 X12.7535 Y14.5111
G01 X12.7621 Y14.5152
G01 X12.8848 Y14.5830
G01 X12.8928 Y14.5881
G01 X13.0071 Y14.6692
G01 X13.0146 Y14.6751
G01 X13.1191 Y14.7685
G01 X13.1259 Y14.7753
G01 X13.2193 Y14.8798
G01 X13.2252 Y14.8873
G01 X13.3063 Y15.0016
G01 X13.3114 Y15.0096
G01 X13.3792 Y15.1323
G01 X13.3832 Y15.1405
G01 X13.4370 Y15.2704
G01 X13.4401 Y15.2794
G01 X13.4807 Y15.4215
G01 X13.5045 Y15.5616
G01 X13.5056 Y15.5711
G01 X13.5136 Y15.7158
G01 X13.5056 Y15.8605
G01 X13.5045 Y15.8700
G01 X13.4811 Y16.0082
G01 X13.4789 Y16.0175
G01 X13.4401 Y16.1522
G01 X13.4370 Y16.1612
G01 X13.3833 Y16.2907
G01 X13.3792 Y16.2993
G01 X13.3114 Y16.4220
G01 X13.3063 Y16.4300
G01 X13.2252 Y16.5443
G01 X13.2193 Y16.5518
G01 X13.1259 Y16.6563
G01 X13.1191 Y16.6631
G01 X13.0146 Y16.7565
G01 X13.0071 Y16.7624
G01 X12.8928 Y16.8435
G01 X12.8848 Y16.8486
G01 X12.7621 Y16.9164
G01 X12.7539 Y16.9204
G01 X12.6240 Y16.9742
G01 X12.6150 Y16.9773
G01 X12.4729 Y17.0179
G01 X12.3328 Y17.0417
G01 X12.3233 Y17.0428
G01 X12.1786 Y17.0508
G01 X12.0339 Y17.0428
G01 X12.0244 Y17.0417
G01 X11.8862 Y17.0183
G01 X11.8769 Y17.0161
G01 X11.7422 Y16.9773
G01 X11.7332 Y16.9742
G01 X11.6037 Y16.9205
G01 X11.5951 Y16.9164
G01 X11.4724 Y16.8486
G01 X11.4644 Y16.8435
G01 X11.3501 Y16.7624
G01 X11.3426 Y16.7565
G01 X11.2381 Y16.6631
G01 X11.2313 Y16.6563
G01 X11.1379 Y16.5518
G01 X11.1320 Y16.5443
G01 X11.0509 Y16.4300
G01 X11.0458 Y16.4220
G01 X10.9780 Y16.2993
G01 X10.9740 Y16.2911
G01 X10.9202 Y16.1612
G01 X10.9171 Y16.1522
G01 X10.8783 Y16.0175
G01 X10.8761 Y16.0082
G01 X10.8527 Y15.8700
G01 X10.8518 Y15.8605
G01 X10.8436 Y15.7158
G00 Z5.0000
G00 X13.9347 Y17.2880
G01 F5050.00
G01 Z-0.1306
G01 F500.00
G01 X14.1894 Y16.6732
G01 X14.6600 Y16.2026
G01 X15.2748 Y15.9479
G01 X15.9404 Y15.9479
G01 X16.5552 Y16.2026
G01 X17.0258 Y16.6732
G01 X17.2805 Y17.2880
G01 X17.2805 Y17.9536
G01 X17.0258 Y18.5684
G01 X16.5552 Y19.0390
G01 X15.9404 Y19.2937
G01 X15.2748 Y19.2937
G01 X14.6600 Y19.0390
G01 X14.1894 Y18.5684
G01 X13.9347 Y17.9536
G01 X13.9347 Y17.2880
G01 X14.1894 Y16.6732
G00 Z5.0000
G00 X14.0894 Y17.3188
G01 F5050.00
G01 Z-0.1306
G01 F500.00
G01 X14.3205 Y16.7608
G01 X14.7476 Y16.3337
G01 X15.3056 Y16.1026
G01 X15.9096 Y16.1026
G01 X16.4676 Y16.3337
G01 X16.8947 Y16.7608
G01 X17.1258 Y17.3188
G01 X17.1258 Y17.9228
G01 X16.8947 Y18.4808
G01 X16.4676 Y18.9079
G01 X15.9096 Y19.1390
G01 X15.3056 Y19.1390
G01 X14.7476 Y18.9079
G01 X14.3205 Y18.4808
G01 X14.0894 Y17.9228
G01 X14.0894 Y17.3188
G01 X14.3205 Y16.7608
G00 Z5.0000
G00 X14.1266 Y17.7742
G01 F5050.00
G01 Z-0.1306
G01 F500.00
G01 X14.1179 Y17.6208
G01 X14.1261 Y17.4674
G01 X14.1291 Y17.4407
G01 X14.1526 Y17.3025
G01 X14.1586 Y17.2763
G01 X14.1974 Y17.1416
G01 X14.2063 Y17.1162
G01 X14.2599 Y16.9867
G01 X14.2716 Y16.9625
G01 X14.3394 Y16.8398
G01 X14.3518 Y16.8198
G01 X14.4348 Y16.7027
G01 X14.4520 Y16.6821
G01 X14.4516 Y16.6817
G01 X14.5450 Y16.5772
G01 X14.5640 Y16.5582
G01 X14.6685 Y16.4648
G01 X14.6895 Y16.4480
G01 X14.8039 Y16.3669
G01 X14.8266 Y16.3526
G01 X14.9493 Y16.2848
G01 X14.9722 Y16.2737
G01 X15.1030 Y16.2195
G01 X15.1284 Y16.2106
G01 X15.2631 Y16.1718
G01 X15.2840 Y16.1668
G01 X15.4275 Y16.1423
G01 X15.4542 Y16.1393
G01 X15.6076 Y16.1311
G01 X15.7610 Y16.1393
G01 X15.7877 Y16.1423
G01 X15.9259 Y16.1658
G01 X15.9521 Y16.1718
G01 X16.0868 Y16.2106
G01 X16.1122 Y16.2195
G01 X16.2417 Y16.2731
G01 X16.2659 Y16.2848
G01 X16.3886 Y16.3526
G01 X16.4086 Y16.3650
G01 X16.5257 Y16.4480
G01 X16.5463 Y16.4652
G01 X16.5467 Y16.4648
G01 X16.6512 Y16.5582
G01 X16.6702 Y16.5772
G01 X16.7636 Y16.6817
G01 X16.7804 Y16.7027
G01 X16.8615 Y16.8171
G01 X16.8758 Y16.8398
G01 X16.9436 Y16.9625
G01 X16.9547 Y16.9854
G01 X17.0089 Y17.1162
G01 X17.0178 Y17.1416
G01 X17.0566 Y17.2763
G01 X17.0616 Y17.2972
G01 X17.0861 Y17.4407
G01 X17.0891 Y17.4674
G01 X17.0973 Y17.6208
G01 X17.0891 Y17.7742
G01 X17.0861 Y17.8009
G01 X17.0626 Y17.9391
G01 X17.0566 Y17.9653
G01 X17.0178 Y18.1000
G01 X17.0089 Y18.1254
G01 X16.9553 Y18.2549
G01 X16.9436 Y18.2791
G01 X16.8758 Y18.4018
G01 X16.8634 Y18.4218
G01 X16.7804 Y18.5389
G01 X16.7632 Y18.5595
G01 X16.7636 Y18.5599
G01 X16.6702 Y18.6644
G01 X16.6512 Y18.6834
G01 X16.5467 Y18.7768
G01 X16.5257 Y18.7936
G01 X16.4113 Y18.8747
G01 X16.3886 Y18.8890
G01 X16.2659 Y18.9568
G01 X16.2430 Y18.9679
G01 X16.1122 Y19.0221
G01 X16.0868 Y19.0310
G01 X15.9521 Y19.0698
G01 X15.9312 Y19.0748
G01 X15.7877 Y19.0993
G01 X15.7610 Y19.1023
G01 X15.6076 Y19.1105
G01 X15.4542 Y19.1023
G01 X15.4275 Y19.0993
G01 X15.2893 Y19.0758
G01 X15.2631 Y19.0698
G01 X15.1284 Y19.0310
G01 X15.1030 Y19.0221
G01 X14.9735 Y18.9685
G01 X14.9493 Y18.9568
G01 X14.8266 Y18.8890
G01 X14.8066 Y18.8766
G01 X14.6895 Y18.7936
G01 X14.6689 Y18.7764
G01 X14.6685 Y18.7768
G01 X14.5640 Y18.6834
G01 X14.5450 Y18.6644
G01 X14.4516 Y18.5599
G01 X14.4348 Y18.5389
G01 X14.3537 Y18.4245
G01 X14.3394 Y18.4018
G01 X14.2716 Y18.2791
G01 X14.2605 Y18.2562
G01 X14.2063 Y18.1254
G01 X14.1974 Y18.1000
G01 X14.1586 Y17.9653
G01 X14.1526 Y17.9391
G01 X14.1291 Y17.8009
G01 X14.1266 Y17.7742
G01 X14.1179 Y17.6208
G00 Z5.0000
G00 X14.2808 Y17.7655
G01 F5050.00
G01 Z-0.1306
G01 F500.00
G01 X14.2726 Y17.6208
G01 X14.2806 Y17.4761
G01 X14.2817 Y17.4666
G01 X14.3051 Y17.3284
G01 X14.3073 Y17.3191
G01 X14.3461 Y17.1844
G01 X14.3492 Y17.1754
G01 X14.4029 Y17.0459
G01 X14.4070 Y17.0373
G01 X14.4748 Y16.9146
G01 X14.4799 Y16.9066
G01 X14.5610 Y16.7923
G01 X14.5669 Y16.7848
G01 X14.6603 Y16.6803
G01 X14.6671 Y16.6735
G01 X14.7716 Y16.5801
G01 X14.7791 Y16.5742
G01 X14.8934 Y16.4931
G01 X14.9014 Y16.4880
G01 X15.0241 Y16.4202
G01 X15.0323 Y16.4162
G01 X15.1622 Y16.3624
G01 X15.1712 Y16.3593
G01 X15.3133 Y16.3187
G01 X15.4534 Y16.2949
G01 X15.4629 Y16.2938
G01 X15.6076 Y16.2858
G01 X15.7523 Y16.2938
G01 X15.7618 Y16.2949
G01 X15.9000 Y16.3183
G01 X15.9093 Y16.3205
G01 X16.0440 Y16.3593
G01 X16.0530 Y16.3624
G01 X16.1825 Y16.4161
G01 X16.1911 Y16.4202
G01 X16.3138 Y16.4880
G01 X16.3218 Y16.4931
G01 X16.4361 Y16.5742
G01 X16.4436 Y16.5801
G01 X16.5481 Y16.6735
G01 X16.5549 Y16.6803
G01 X16.6483 Y16.7848
G01 X16.6542 Y16.7923
G01 X16.7353 Y16.9066
G01 X16.7404 Y16.9146
G01 X16.8082 Y17.0373
G01 X16.8122 Y17.0455
G01 X16.8660 Y17.1754
G01 X16.8691 Y17.1844
G01 X16.9097 Y17.3265
G01 X16.9335 Y17.4666
G01 X16.9346 Y17.4761
G01 X16.9426 Y17.6208
G01 X16.9346 Y17.7655
G01 X16.9335 Y17.7750
G01 X16.9101 Y17.9132
G01 X16.9079 Y17.9225
G01 X16.8691 Y18.0572
G01 X16.8660 Y18.0662
G01 X16.8123 Y18.1957
G01 X16.8082 Y18.2043
G01 X16.7404 Y18.3270
G01 X16.7353 Y18.3350
G01 X16.6542 Y18.4493
G01 X16.6483 Y18.4568
G01 X16.5549 Y18.5613
G01 X16.5481 Y18.5681
G01 X16.4436 Y18.6615
G01 X16.4361 Y18.6674
G01 X16.3218 Y18.7485
G01 X16.3138 Y18.7536
G01 X16.1911 Y18.8214
G01 X16.1829 Y18.8254
G01 X16.0530 Y18.8792
G01 X16.0440 Y18.8823
G01 X15.9019 Y18.9229
G01 X15.7618 Y18.9467
G01 X15.7523 Y18.9478
G01 X15.6076 Y18.9558
G01 X15.4629 Y18.9478
G01 X15.4534 Y18.9467
G01 X15.3152 Y18.9233
G01 X15.3059 Y18.9211
G01 X15.1712 Y18.8823
G01 X15.1622 Y18.8792
G01 X15.0327 Y18.8255
G01 X15.0241 Y18.8214
G01 X14.9014 Y18.7536
G01 X14.8934 Y18.7485
G01 X14.7791 Y18.6674
G01 X14.7716 Y18.6615
G01 X14.6671 Y18.5681
G01 X14.6603 Y18.5613
G01 X14.5669 Y18.4568
G01 X14.5610 Y18.4493
G01 X14.4799 Y18.3350
G01 X14.4748 Y18.3270
G01 X14.4070 Y18.2043
G01 X14.4030 Y18.1961
G01 X14.3492 Y18.0662
G01 X14.3461 Y18.0572
G01 X14.3073 Y17.9225
G01 X14.3051 Y17.9132
G01 X14.2817 Y17.7750
G01 X14.2808 Y17.7655
G01 X14.2726 Y17.6208
G00 Z5.0000
G00 X17.5556 Y15.7422
G01 F5050.00
G01 Z-0.1306
G01 F500.00
G01 X17.5469 Y15.5888
G01 X17.5551 Y15.4354
G01 X17.5581 Y15.4087
G01 X17.5816 Y15.2705
G01 X17.5876 Y15.2443
G01 X17.6264 Y15.1096
G01 X17.6353 Y15.0842
G01 X17.6889 Y14.9547
G01 X17.7006 Y14.9305
G01 X17.7684 Y14.8078
G01 X17.7808 Y14.7878
G01 X17.8638 Y14.6707
G01 X17.8810 Y14.6501
G01 X17.8806 Y14.6497
G01 X17.9740 Y14.5452
G01 X17.9930 Y14.5262
G01 X18.0975 Y14.4328
G01 X18.1185 Y14.4160
G01 X18.2329 Y14.3349
G01 X18.2556 Y14.3206
G01 X18.3783 Y14.2528
G01 X18.4012 Y14.2417
G01 X18.5320 Y14.1875
G01 X18.5574 Y14.1786
G01 X18.6921 Y14.1398
G01 X18.7130 Y14.1348
G01 X18.8565 Y14.1103
G01 X18.8832 Y14.1073
G01 X19.0366 Y14.0991
G01 X19.1900 Y14.1073
G01 X19.2167 Y14.1103
G01 X19.3549 Y14.1338
G01 X19.3811 Y14.1398
G01 X19.5158 Y14.1786
G01 X19.5412 Y14.1875
G01 X19.6707 Y14.2411
G01 X19.6949 Y14.2528
G01 X19.8176 Y14.3206
G01 X19.8376 Y14.3330
G01 X19.9547 Y14.4160
G01 X19.9753 Y14.4332
G01 X19.9757 Y14.4328
G01 X20.0802 Y14.5262
G01 X20.0992 Y14.5452
G01 X20.1926 Y14.6497
G01 X20.2094 Y14.6707
G01 X20.2905 Y14.7851
G01 X20.3048 Y14.8078
G01 X20.3726 Y14.9305
G01 X20.3837 Y14.9534
G01 X20.4379 Y15.0842
G01 X20.4468 Y15.1096
G01 X20.4856 Y15.2443
G01 X20.4906 Y15.2652
G01 X20.5151 Y15.4087
G01 X20.5181 Y15.4354
G01 X20.5263 Y15.5888
G01 X20.5181 Y15.7422
G01 X20.5151 Y15.7689
G01 X20.4916 Y15.9071
G01 X20.4856 Y15.9333
G01 X20.4468 Y16.0680
G01 X20.4379 Y16.0934
G01 X20.3843 Y16.2229
G01 X20.3726 Y16.2471
G01 X20.3048 Y16.3698
G01 X20.2924 Y16.3898
G01 X20.2094 Y16.5069
G01 X20.1922 Y16.5275
G01 X20.1926 Y16.5279
G01 X20.0992 Y16.6324
G01 X20.0802 Y16.6514
G01 X19.9757 Y16.7448
G01 X19.9547 Y16.7616
G01 X19.8403 Y16.8427
G01 X19.8176 Y16.8570
G01 X19.6949 Y16.9248
G01 X19.6720 Y16.9359
G01 X19.5412 Y16.9901
G01 X19.5158 Y16.9990
G01 X19.3811 Y17.0378
G01 X19.3602 Y17.0428
G01 X19.2167 Y17.0673
G01 X19.1900 Y17.0703
G01 X19.0366 Y17.0785
G01 X18.8832 Y17.0703
G01 X18.8565 Y17.0673
G01 X18.7183 Y17.0438
G01 X18.6921 Y17.0378
G01 X18.5574 Y16.9990
G01 X18.5320 Y16.9901
G01 X18.4025 Y16.9365
G01 X18.3783 Y16.9248
G01 X18.2556 Y16.8570
G01 X18.2356 Y16.8446
G01 X18.1185 Y16.7616
G01 X18.0979 Y16.7444
G01 X18.0975 Y16.7448
G01 X17.9930 Y16.6514
G01 X17.9740 Y16.6324
G01 X17.8806 Y16.5279
G01 X17.8638 Y16.5069
G01 X17.7827 Y16.3925
G01 X17.7684 Y16.3698
G01 X17.7006 Y16.2471
G01 X17.6895 Y16.2242
G01 X17.6353 Y16.0934
G01 X17.6264 Y16.0680
G01 X17.5876 Y15.9333
G01 X17.5816 Y15.9071
G01 X17.5581 Y15.7689
G01 X17.5556 Y15.7422
G01 X17.5469 Y15.5888
G00 Z5.0000
G00 X17.7098 Y15.7335
G01 F5050.00
G01 Z-0.1306
G01 F500.00
G01 X17.7016 Y15.5888
G01 X17.7096 Y15.4441
G01 X17.7107 Y15.4346
G01 X17.7341 Y15.2964
G01 X17.7363 Y15.2871
G01 X17.7751 Y15.1524
G01 X17.7782 Y15.1434
G01 X17.8319 Y15.0139
G01 X17.8360 Y15.0053
G01 X17.9038 Y14.8826
G01 X17.9089 Y14.8746
G01 X17.9900 Y14.7603
G01 X17.9959 Y14.7528
G01 X18.0893 Y14.6483
G01 X18.0961 Y14.6415
G01 X18.2006 Y14.5481
G01 X18.2081 Y14.5422
G01 X18.3224 Y14.4611
G01 X18.3304 Y14.4560
G01 X18.4531 Y14.3882
G01 X18.4613 Y14.3842
G01 X18.5912 Y14.3304
G01 X18.6002 Y14.3273
G01 X18.7423 Y14.2867
G01 X18.8824 Y14.2629
G01 X18.8919 Y14.2618
G01 X19.0366 Y14.2538
G01 X19.1813 Y14.2618
G01 X19.1908 Y14.2629
G01 X19.3290 Y14.2863
G01 X19.3383 Y14.2885
G01 X19.4730 Y14.3273
G01 X19.4820 Y14.3304
G01 X19.6115 Y14.3841
G01 X19.6201 Y14.3882
G01 X19.7428 Y14.4560
G01 X19.7508 Y14.4611
G01 X19.8651 Y14.5422
G01 X19.8726 Y14.5481
G01 X19.9771 Y14.6415
G01 X19.9839 Y14.6483
G01 X20.0773 Y14.7528
G01 X20.0832 Y14.7603
G01 X20.1643 Y14.8746
G01 X20.1694 Y14.8826
G01 X20.2372 Y15.0053
G01 X20.2412 Y15.0135
G01 X20.2950 Y15.1434
G01 X20.2981 Y15.1524
G01 X20.3387 Y15.2945
G01 X20.3625 Y15.4346
G01 X20.3636 Y15.4441
G01 X20.3716 Y15.5888
G01 X20.3636 Y15.7335
G01 X20.3625 Y15.7430
G01 X20.3391 Y15.8812
G01 X20.3369 Y15.8905
G01 X20.2981 Y16.0252
G01 X20.2950 Y16.0342
G01 X20.2413 Y16.1637
G01 X20.2372 Y16.1723
G01 X20.1694 Y16.2950
G01 X20.1643 Y16.3030
G01 X20.0832 Y16.4173
G01 X20.0773 Y16.4248
G01 X19.9839 Y16.5293
G01 X19.9771 Y16.5361
G01 X19.8726 Y16.6295
G01 X19.8651 Y16.6354
G01 X19.7508 Y16.7165
G01 X19.7428 Y16.7216
G01 X19.6201 Y16.7894
G01 X19.6119 Y16.7934
G01 X19.4820 Y16.8472
G01 X19.4730 Y16.8503
G01 X19.3309 Y16.8909
G01 X19.1908 Y16.9147
G01 X19.1813 Y16.9158
G01 X19.0366 Y16.9238
G01 X18.8919 Y16.9158
G01 X18.8824 Y16.9147
G01 X18.7442 Y16.8913
G01 X18.7349 Y16.8891
G01 X18.6002 Y16.8503
G01 X18.5912 Y16.8472
G01 X18.4617 Y16.7935
G01 X18.4531 Y16.7894
G01 X18.3304 Y16.7216
G01 X18.3224 Y16.7165
G01 X18.2081 Y16.6354
G01 X18.2006 Y16.6295
G01 X18.0961 Y16.5361
G01 X18.0893 Y16.5293
G01 X17.9959 Y16.4248
G01 X17.9900 Y16.4173
G01 X17.9089 Y16.3030
G01 X17.9038 Y16.2950
G01 X17.8360 Y16.1723
G01 X17.8320 Y16.1641
G01 X17.7782 Y16.0342
G01 X17.7751 Y16.0252
G01 X17.7363 Y15.8905
G01 X17.7341 Y15.8812
G01 X17.7107 Y15.7430
G01 X17.7098 Y15.7335
G01 X17.7016 Y15.5888
G00 Z5.0000
G00 X17.5184 Y15.2868
G01 F5050.00
G01 Z-0.1306
G01 F500.00
G01 X17.7495 Y14.7288
G01 X18.1766 Y14.3017
G01 X18.7346 Y14.0706
G01 X19.3386 Y14.0706
G01 X19.8966 Y14.3017
G01 X20.3237 Y14.7288
G01 X20.5548 Y15.2868
G01 X20.5548 Y15.8908
G01 X20.3237 Y16.4488
G01 X19.8966 Y16.8759
G01 X19.3386 Y17.1070
G01 X18.7346 Y17.1070
G01 X18.1766 Y16.8759
G01 X17.7495 Y16.4488
G01 X17.5184 Y15.8908
G01 X17.5184 Y15.2868
G01 X17.7495 Y14.7288
G00 Z5.0000
G00 X17.3637 Y15.2560
G01 F5050.00
G01 Z-0.1306
G01 F500.00
G01 X17.6184 Y14.6412
G01 X18.0890 Y14.1706
G01 X18.7038 Y13.9159
G01 X19.3694 Y13.9159
G01 X19.9842 Y14.1706
G01 X20.4548 Y14.6412
G01 X20.7095 Y15.2560
G01 X20.7095 Y15.9216
G01 X20.4548 Y16.5364
G01 X19.9842 Y17.0070
G01 X19.3694 Y17.2617
G01 X18.7038 Y17.2617
G01 X18.0890 Y17.0070
G01 X17.6184 Y16.5364
G01 X17.3637 Y15.9216
G01 X17.3637 Y15.2560
G01 X17.6184 Y14.6412
G00 Z5.0000
G00 X18.0286 Y12.5499
G01 F5050.00
G01 Z-0.1306
G01 F500.00
G01 X18.0678 Y12.5273
G01 X18.0975 Y12.5538
G01 X18.0979 Y12.5534
G01 X18.1185 Y12.5706
G01 X18.2356 Y12.6536
G01 X18.2556 Y12.6660
G01 X18.3783 Y12.7338
G01 X18.4025 Y12.7455
G01 X18.5320 Y12.7991
G01 X18.5574 Y12.8080
G01 X18.6921 Y12.8468
G01 X18.7183 Y12.8528
G01 X18.8565 Y12.8763
G01 X18.8832 Y12.8793
G01 X19.0366 Y12.8875
G01 X19.1900 Y12.8793
G01 X19.2167 Y12.8763
G01 X19.3108 Y12.8603
G01 X19.3301 Y12.8936
G01 X18.8939 Y12.9392
G01 X18.3100 Y12.7658
G01 X18.0286 Y12.5499
G01 X18.0678 Y12.5273
G00 Z5.0000
G00 X18.0881 Y12.3369
G01 F5050.00
G01 Z-0.1306
G01 F500.00
G01 X18.0961 Y12.3451
G01 X18.2006 Y12.4385
G01 X18.2081 Y12.4444
G01 X18.3224 Y12.5255
G01 X18.3304 Y12.5306
G01 X18.4531 Y12.5984
G01 X18.4617 Y12.6025
G01 X18.5912 Y12.6562
G01 X18.6002 Y12.6593
G01 X18.7349 Y12.6981
G01 X18.7442 Y12.7003
G01 X18.8824 Y12.7237
G01 X18.8919 Y12.7248
G01 X19.0366 Y12.7328
G01 X19.1813 Y12.7248
G01 X19.1908 Y12.7237
G01 X19.3309 Y12.6999
G01 X19.3876 Y12.6839
G01 X19.5496 Y12.9645
G01 X19.4954 Y13.0319
G01 X18.8794 Y13.0962
G01 X18.2385 Y12.9060
G01 X17.8227 Y12.5869
G01 X17.8089 Y12.4981
G01 X18.0881 Y12.3369
G01 X18.0961 Y12.3451
G00 Z5.0000
G00 X17.5408 Y11.6913
G01 F5050.00
G01 Z-0.1306
G01 F500.00
G01 X17.4952 Y11.2551
G01 X17.6686 Y10.6712
G01 X17.8845 Y10.3898
G01 X17.9071 Y10.4290
G01 X17.8806 Y10.4587
G01 X17.8810 Y10.4591
G01 X17.8638 Y10.4797
G01 X17.7808 Y10.5968
G01 X17.7684 Y10.6168
G01 X17.7006 Y10.7395
G01 X17.6889 Y10.7637
G01 X17.6353 Y10.8932
G01 X17.6264 Y10.9186
G01 X17.5876 Y11.0533
G01 X17.5816 Y11.0795
G01 X17.5581 Y11.2177
G01 X17.5551 Y11.2444
G01 X17.5469 Y11.3978
G01 X17.5551 Y11.5512
G01 X17.5581 Y11.5779
G01 X17.5741 Y11.6720
G01 X17.5408 Y11.6913
G01 X17.4952 Y11.2551
G00 Z5.0000
G00 X17.7098 Y11.5425
G01 F5050.00
G01 Z-0.1306
G01 F500.00
G01 X17.7107 Y11.5520
G01 X17.7345 Y11.6921
G01 X17.7505 Y11.7488
G01 X17.4699 Y11.9108
G01 X17.4025 Y11.8566
G01 X17.3382 Y11.2406
G01 X17.5284 Y10.5997
G01 X17.8475 Y10.1839
G01 X17.9363 Y10.1701
G01 X18.0975 Y10.4493
G01 X18.0893 Y10.4573
G01 X17.9959 Y10.5618
G01 X17.9900 Y10.5693
G01 X17.9082 Y10.6845
G01 X17.8360 Y10.8143
G01 X17.8319 Y10.8229
G01 X17.7782 Y10.9524
G01 X17.7751 Y10.9614
G01 X17.7363 Y11.0961
G01 X17.7341 Y11.1054
G01 X17.7107 Y11.2436
G01 X17.7096 Y11.2531
G01 X17.7016 Y11.3978
G01 X17.7098 Y11.5425
G01 X17.7107 Y11.5520
G00 Z5.0000
G00 X18.6856 Y10.1117
G01 F5050.00
G01 Z-0.1306
G01 F500.00
G01 X18.5236 Y9.8311
G01 X18.5778 Y9.7637
G01 X19.1938 Y9.6994
G01 X19.8347 Y9.8896
G01 X20.2505 Y10.2087
G01 X20.2643 Y10.2975
G01 X19.9851 Y10.4587
G01 X19.9771 Y10.4505
G01 X19.8726 Y10.3571
G01 X19.8651 Y10.3512
G01 X19.7508 Y10.2701
G01 X19.7428 Y10.2650
G01 X19.6201 Y10.1972
G01 X19.6115 Y10.1931
G01 X19.4820 Y10.1394
G01 X19.4730 Y10.1363
G01 X19.3383 Y10.0975
G01 X19.3290 Y10.0953
G01 X19.1908 Y10.0719
G01 X19.1813 Y10.0708
G01 X19.0366 Y10.0628
G01 X18.8919 Y10.0708
G01 X18.8824 Y10.0719
G01 X18.7423 Y10.0957
G01 X18.6856 Y10.1117
G01 X18.5236 Y9.8311
G00 Z5.0000
G00 X18.7624 Y9.9353
G01 F5050.00
G01 Z-0.1306
G01 F500.00
G01 X18.7431 Y9.9020
G01 X19.1793 Y9.8564
G01 X19.7632 Y10.0298
G01 X20.0446 Y10.2457
G01 X20.0054 Y10.2683
G01 X19.9757 Y10.2418
G01 X19.9753 Y10.2422
G01 X19.9547 Y10.2250
G01 X19.8376 Y10.1420
G01 X19.8176 Y10.1296
G01 X19.6949 Y10.0618
G01 X19.6707 Y10.0501
G01 X19.5412 Y9.9965
G01 X19.5158 Y9.9876
G01 X19.3811 Y9.9488
G01 X19.3549 Y9.9428
G01 X19.2167 Y9.9193
G01 X19.1900 Y9.9163
G01 X19.0366 Y9.9081
G01 X18.8832 Y9.9163
G01 X18.8565 Y9.9193
G01 X18.7624 Y9.9353
G01 X18.7431 Y9.9020
G00 Z5.0000
G00 X19.9757 Y12.3463
G01 F5050.00
G01 Z-0.1306
G01 F500.00
G01 X19.9839 Y12.3383
G01 X20.0773 Y12.2338
G01 X20.0832 Y12.2263
G01 X20.1643 Y12.1120
G01 X20.1694 Y12.1040
G01 X20.2372 Y11.9813
G01 X20.2413 Y11.9727
G01 X20.2950 Y11.8432
G01 X20.2981 Y11.8342
G01 X20.3369 Y11.6995
G01 X20.3391 Y11.6902
G01 X20.3625 Y11.5520
G01 X20.3636 Y11.5425
G01 X20.3716 Y11.3978
G01 X20.3636 Y11.2531
G01 X20.3625 Y11.2436
G01 X20.3387 Y11.1035
G01 X20.3227 Y11.0468
G01 X20.6033 Y10.8848
G01 X20.6707 Y10.9390
G01 X20.7350 Y11.5550
G01 X20.5448 Y12.1959
G01 X20.2257 Y12.6117
G01 X20.1369 Y12.6255
G01 X19.9757 Y12.3463
G01 X19.9839 Y12.3383
G00 Z5.0000
G00 X20.1661 Y12.3666
G01 F5050.00
G01 Z-0.1306
G01 F500.00
G01 X20.1926 Y12.3369
G01 X20.1922 Y12.3365
G01 X20.2094 Y12.3159
G01 X20.2924 Y12.1988
G01 X20.3048 Y12.1788
G01 X20.3726 Y12.0561
G01 X20.3843 Y12.0319
G01 X20.4379 Y11.9024
G01 X20.4468 Y11.8770
G01 X20.4856 Y11.7423
G01 X20.4916 Y11.7161
G01 X20.5151 Y11.5779
G01 X20.5181 Y11.5512
G01 X20.5259 Y11.4112
G01 X20.5259 Y11.3844
G01 X20.5181 Y11.2444
G01 X20.5151 Y11.2177
G01 X20.4991 Y11.1236
G01 X20.5324 Y11.1043
G01 X20.5780 Y11.5405
G01 X20.4046 Y12.1244
G01 X20.1887 Y12.4058
G01 X20.1661 Y12.3666
G01 X20.1926 Y12.3369
G00 Z5.0000
G00 X24.3184 Y6.9717
G01 F5050.00
G01 Z-0.1306
G01 F500.00
G01 X20.5232 Y6.9717
G01 X17.0055 Y3.4541
G01 X17.4855 Y3.4541
G01 X17.4883 Y3.4712
G01 X17.4942 Y3.4950
G01 X17.5011 Y3.5175
G01 X17.5093 Y3.5406
G01 X17.5183 Y3.5624
G01 X17.5288 Y3.5845
G01 X17.5399 Y3.6053
G01 X17.5525 Y3.6263
G01 X17.5656 Y3.6459
G01 X17.5802 Y3.6656
G01 X17.5951 Y3.6838
G01 X17.6116 Y3.7020
G01 X17.6282 Y3.7186
G01 X17.6464 Y3.7351
G01 X17.6646 Y3.7500
G01 X17.6859 Y3.7658
G01 X17.7039 Y3.7777
G01 X17.7249 Y3.7903
G01 X17.7457 Y3.8014
G01 X17.7678 Y3.8119
G01 X17.7896 Y3.8209
G01 X17.8127 Y3.8291
G01 X17.8352 Y3.8360
G01 X17.8590 Y3.8419
G01 X17.8821 Y3.8465
G01 X17.9063 Y3.8501
G01 X17.9297 Y3.8524
G01 X17.9660 Y3.8539
G01 X18.6160 Y3.8539
G01 X18.6523 Y3.8524
G01 X18.6757 Y3.8501
G01 X18.6999 Y3.8465
G01 X18.6998 Y3.8457
G01 X18.7230 Y3.8419
G01 X18.7468 Y3.8360
G01 X18.7693 Y3.8291
G01 X18.7924 Y3.8209
G01 X18.8142 Y3.8119
G01 X18.8363 Y3.8014
G01 X18.8571 Y3.7903
G01 X18.8781 Y3.7777
G01 X18.8977 Y3.7646
G01 X18.9174 Y3.7500
G01 X18.9356 Y3.7351
G01 X18.9538 Y3.7186
G01 X18.9704 Y3.7020
G01 X18.9869 Y3.6838
G01 X19.0018 Y3.6656
G01 X19.0176 Y3.6443
G01 X19.0295 Y3.6263
G01 X19.0421 Y3.6053
G01 X19.0532 Y3.5845
G01 X19.0637 Y3.5624
G01 X19.0727 Y3.5406
G01 X19.0809 Y3.5175
G01 X19.0878 Y3.4950
G01 X19.0937 Y3.4712
G01 X19.0983 Y3.4481
G01 X19.1019 Y3.4239
G01 X19.1042 Y3.4005
G01 X19.1057 Y3.3642
G01 X19.1057 Y2.4642
G01 X19.1042 Y2.4279
G01 X19.1019 Y2.4045
G01 X19.0983 Y2.3803
G01 X19.0975 Y2.3804
G01 X19.0937 Y2.3572
G01 X19.0878 Y2.3334
G01 X19.0809 Y2.3109
G01 X19.0727 Y2.2878
G01 X19.0637 Y2.2660
G01 X19.0532 Y2.2439
G01 X19.0421 Y2.2231
G01 X19.0295 Y2.2021
G01 X19.0164 Y2.1825
G01 X19.0018 Y2.1628
G01 X18.9869 Y2.1446
G01 X18.9704 Y2.1264
G01 X18.9538 Y2.1098
G01 X18.9356 Y2.0933
G01 X18.9174 Y2.0784
G01 X18.8900 Y2.0586
G01 X19.5910 Y2.0586
G01 X19.6603 Y2.1279
G01 X19.6451 Y2.1446
G01 X19.6302 Y2.1628
G01 X19.6144 Y2.1841
G01 X19.6025 Y2.2021
G01 X19.5899 Y2.2231
G01 X19.5788 Y2.2439
G01 X19.5683 Y2.2660
G01 X19.5593 Y2.2878
G01 X19.5511 Y2.3109
G01 X19.5442 Y2.3334
G01 X19.5383 Y2.3572
G01 X19.5337 Y2.3803
G01 X19.5301 Y2.4045
G01 X19.5278 Y2.4279
G01 X19.5263 Y2.4642
G01 X19.5263 Y3.3642
G01 X19.5278 Y3.4005
G01 X19.5301 Y3.4239
G01 X19.5337 Y3.4481
G01 X19.5345 Y3.4480
G01 X19.5383 Y3.4712
G01 X19.5442 Y3.4950
G01 X19.5511 Y3.5175
G01 X19.5593 Y3.5406
G01 X19.5683 Y3.5624
G01 X19.5788 Y3.5845
G01 X19.5899 Y3.6053
G01 X19.6025 Y3.6263
G01 X19.6156 Y3.6459
G01 X19.6302 Y3.6656
G01 X19.6451 Y3.6838
G01 X19.6616 Y3.7020
G01 X19.6782 Y3.7186
G01 X19.6964 Y3.7351
G01 X19.7146 Y3.7500
G01 X19.7359 Y3.7658
G01 X19.7539 Y3.7777
G01 X19.7749 Y3.7903
G01 X19.7957 Y3.8014
G01 X19.8178 Y3.8119
G01 X19.8472 Y3.8236
G01 X19.8472 Y3.8824
G01 X19.7126 Y3.8824
G01 X19.6141 Y3.8416
G01 X19.5011 Y3.7292
G01 X19.4907 Y3.7198
G01 X19.4903 Y3.7202
G01 X19.4700 Y3.7033
G01 X19.4560 Y3.6933
G01 X19.4362 Y3.6810
G01 X19.4240 Y3.6741
G01 X19.4002 Y3.6625
G01 X19.3873 Y3.6571
G01 X19.3624 Y3.6482
G01 X19.3489 Y3.6442
G01 X19.3232 Y3.6381
G01 X19.3094 Y3.6356
G01 X19.2831 Y3.6323
G01 X19.2530 Y3.6308
G01 X19.2427 Y3.6311
G01 X19.2287 Y3.6317
G01 X19.2024 Y3.6343
G01 X19.1830 Y3.6373
G01 X19.1626 Y3.6419
G01 X19.1491 Y3.6455
G01 X19.1240 Y3.6538
G01 X19.1096 Y3.6594
G01 X19.0868 Y3.6700
G01 X19.0744 Y3.6765
G01 X19.0517 Y3.6901
G01 X18.8163 Y3.8478
G01 X18.5799 Y3.8949
G01 X18.3719 Y3.8949
G01 X18.3443 Y3.8961
G01 X18.3176 Y3.8991
G01 X18.2982 Y3.9024
G01 X18.2636 Y3.9114
G01 X18.2382 Y3.9203
G01 X18.2238 Y3.9262
G01 X18.2009 Y3.9374
G01 X18.1884 Y3.9443
G01 X18.1656 Y3.9586
G01 X18.1540 Y3.9668
G01 X18.1330 Y3.9836
G01 X18.1224 Y3.9931
G01 X18.1034 Y4.0121
G01 X18.0939 Y4.0227
G01 X18.0943 Y4.0231
G01 X18.0771 Y4.0437
G01 X18.0669 Y4.0581
G01 X18.0477 Y4.0906
G01 X18.0360 Y4.1148
G01 X18.0305 Y4.1279
G01 X18.0217 Y4.1533
G01 X18.0177 Y4.1670
G01 X18.0117 Y4.1932
G01 X18.0094 Y4.2073
G01 X18.0063 Y4.2340
G01 X18.0052 Y4.2616
G01 X18.0055 Y4.2751
G01 X18.0063 Y4.2893
G01 X18.0094 Y4.3160
G01 X18.0127 Y4.3354
G01 X18.0217 Y4.3700
G01 X18.0305 Y4.3953
G01 X18.0365 Y4.4098
G01 X18.0546 Y4.4452
G01 X18.0689 Y4.4679
G01 X18.0771 Y4.4796
G01 X18.0939 Y4.5006
G01 X18.1126 Y4.5210
G01 X20.4276 Y6.8359
G01 X20.4480 Y6.8547
G01 X20.4483 Y6.8542
G01 X20.4690 Y6.8714
G01 X20.4833 Y6.8816
G01 X20.5158 Y6.9009
G01 X20.5400 Y6.9125
G01 X20.5532 Y6.9180
G01 X20.5786 Y6.9269
G01 X20.5923 Y6.9308
G01 X20.6185 Y6.9368
G01 X20.6325 Y6.9392
G01 X20.6592 Y6.9422
G01 X20.6869 Y6.9434
G01 X24.2847 Y6.9434
G01 X24.3031 Y6.9598
G01 X24.3035 Y6.9594
G01 X24.3184 Y6.9717
G01 X20.5232 Y6.9717
G00 Z5.0000
G00 X24.3247 Y3.7969
G01 F5050.00
G01 Z-0.1306
G01 F500.00
G01 X24.3247 Y1.7775
G01 X24.4289 Y1.7078
G01 X24.7105 Y1.6518
G01 X25.3187 Y1.6518
G01 X25.6003 Y1.7078
G01 X25.8213 Y1.8555
G01 X25.9005 Y1.9738
G01 X25.9148 Y1.9920
G01 X25.9309 Y2.0085
G01 X25.9414 Y2.0175
G01 X25.9609 Y2.0314
G01 X25.9888 Y2.0462
G01 X26.0104 Y2.0544
G01 X26.0237 Y2.0581
G01 X26.0465 Y2.0624
G01 X26.0557 Y2.0634
G01 X26.0741 Y2.0643
G01 X30.6031 Y2.0643
G01 X30.6197 Y2.0635
G01 X30.6404 Y2.0609
G01 X30.6952 Y2.0501
G01 X30.9773 Y2.1062
G01 X31.1374 Y2.2132
G01 X31.1627 Y2.2276
G01 X31.1851 Y2.2369
G01 X31.2085 Y2.2436
G01 X31.2324 Y2.2476
G01 X31.2566 Y2.2489
G01 X31.2808 Y2.2473
G01 X31.2974 Y2.2447
G01 X31.3280 Y2.2360
G01 X31.3502 Y2.2264
G01 X31.3713 Y2.2143
G01 X31.3832 Y2.2059
G01 X31.4016 Y2.1902
G01 X32.1653 Y1.4267
G01 X32.1765 Y1.4145
G01 X32.1893 Y1.3980
G01 X32.2204 Y1.3516
G01 X32.4595 Y1.1918
G01 X32.7416 Y1.1357
G01 X32.7964 Y1.1465
G01 X32.8171 Y1.1491
G01 X32.8337 Y1.1499
G01 X38.8055 Y1.1499
G01 X38.8221 Y1.1491
G01 X38.8428 Y1.1465
G01 X38.8976 Y1.1357
G01 X39.1797 Y1.1918
G01 X39.4188 Y1.3516
G01 X39.4499 Y1.3980
G01 X39.4627 Y1.4145
G01 X39.4739 Y1.4267
G01 X42.2665 Y4.2193
G01 X42.2787 Y4.2305
G01 X42.2952 Y4.2433
G01 X42.3416 Y4.2744
G01 X42.4573 Y4.4475
G01 X42.4724 Y4.4674
G01 X42.4867 Y4.4825
G01 X42.5023 Y4.4962
G01 X42.5158 Y4.5060
G01 X42.7535 Y4.6648
G01 X42.7620 Y4.6754
G01 X42.7782 Y4.6919
G01 X42.7961 Y4.7066
G01 X42.8154 Y4.7192
G01 X42.8360 Y4.7296
G01 X42.8577 Y4.7378
G01 X42.8801 Y4.7435
G01 X42.8937 Y4.7458
G01 X42.9168 Y4.7475
G01 X43.2594 Y4.7477
G01 X43.2779 Y4.7468
G01 X43.3025 Y4.7432
G01 X43.3231 Y4.7378
G01 X43.3451 Y4.7295
G01 X43.3733 Y4.7144
G01 X43.3921 Y4.7009
G01 X43.4026 Y4.6919
G01 X43.4188 Y4.6754
G01 X43.4273 Y4.6648
G01 X43.6497 Y4.5162
G01 X43.9313 Y4.4602
G01 X44.7895 Y4.4602
G01 X45.0711 Y4.5162
G01 X45.2921 Y4.6639
G01 X45.4398 Y4.8849
G01 X45.4958 Y5.1665
G01 X45.4958 Y5.7747
G01 X45.4398 Y6.0563
G01 X45.3033 Y6.2605
G01 X40.8775 Y6.2605
G01 X40.7410 Y6.0563
G01 X40.6850 Y5.7747
G01 X40.6850 Y5.1665
G01 X40.7432 Y4.8741
G01 X40.7459 Y4.8558
G01 X40.7472 Y4.8327
G01 X40.7459 Y4.8096
G01 X40.7447 Y4.8004
G01 X40.7419 Y4.7853
G01 X40.7359 Y4.7646
G01 X40.7272 Y4.7429
G01 X40.7115 Y4.7149
G01 X40.6976 Y4.6964
G01 X40.6852 Y4.6827
G01 X38.6603 Y2.6578
G01 X38.6462 Y2.6451
G01 X38.6261 Y2.6302
G01 X38.5980 Y2.6148
G01 X38.5758 Y2.6062
G01 X38.5621 Y2.6022
G01 X38.5528 Y2.6001
G01 X38.5293 Y2.5967
G01 X38.5103 Y2.5957
G01 X37.3023 Y2.5957
G01 X37.2831 Y2.5967
G01 X37.2573 Y2.6006
G01 X37.2360 Y2.6065
G01 X37.2269 Y2.6097
G01 X37.2049 Y2.6195
G01 X37.1842 Y2.6318
G01 X37.1650 Y2.6463
G01 X37.1476 Y2.6630
G01 X37.1321 Y2.6814
G01 X37.1233 Y2.6942
G01 X37.1121 Y2.7143
G01 X37.1027 Y2.7365
G01 X37.0997 Y2.7456
G01 X37.0939 Y2.7690
G01 X37.0918 Y2.7833
G01 X37.0903 Y2.8104
G01 X37.0917 Y2.8314
G01 X37.0961 Y2.8569
G01 X37.1058 Y2.8873
G01 X37.1161 Y2.9091
G01 X37.1727 Y3.1936
G01 X37.1619 Y3.2484
G01 X37.1593 Y3.2691
G01 X37.1585 Y3.2857
G01 X37.1585 Y4.4111
G01 X37.1594 Y4.4295
G01 X37.1630 Y4.4542
G01 X37.1684 Y4.4748
G01 X37.1767 Y4.4968
G01 X37.1870 Y4.5170
G01 X37.1996 Y4.5364
G01 X37.2143 Y4.5543
G01 X37.2308 Y4.5704
G01 X37.2528 Y4.5874
G01 X37.3687 Y4.6648
G01 X37.3867 Y4.6855
G01 X37.3934 Y4.6919
G01 X37.4113 Y4.7066
G01 X37.4234 Y4.7148
G01 X37.4428 Y4.7257
G01 X37.4512 Y4.7296
G01 X37.4729 Y4.7378
G01 X37.4953 Y4.7435
G01 X37.5089 Y4.7458
G01 X37.5366 Y4.7477
G01 X37.9254 Y4.7477
G01 X37.9531 Y4.7458
G01 X37.9758 Y4.7415
G01 X37.9979 Y4.7348
G01 X38.0111 Y4.7295
G01 X38.0393 Y4.7144
G01 X38.0581 Y4.7009
G01 X38.0686 Y4.6919
G01 X38.0848 Y4.6754
G01 X38.0933 Y4.6648
G01 X38.3157 Y4.5162
G01 X38.5973 Y4.4602
G01 X39.4555 Y4.4602
G01 X39.7371 Y4.5162
G01 X39.9581 Y4.6639
G01 X40.1058 Y4.8849
G01 X40.1618 Y5.1665
G01 X40.1618 Y5.7747
G01 X40.1058 Y6.0563
G01 X40.0361 Y6.1605
G01 X35.4259 Y6.1605
G01 X35.3562 Y6.0563
G01 X35.3002 Y5.7747
G01 X35.3002 Y5.1665
G01 X35.3562 Y4.8849
G01 X35.5039 Y4.6639
G01 X35.6184 Y4.5874
G01 X35.6333 Y4.5764
G01 X35.6505 Y4.5610
G01 X35.6569 Y4.5543
G01 X35.6716 Y4.5364
G01 X35.6798 Y4.5243
G01 X35.6907 Y4.5048
G01 X35.6998 Y4.4836
G01 X35.7028 Y4.4748
G01 X35.7085 Y4.4524
G01 X35.7108 Y4.4387
G01 X35.7125 Y4.4157
G01 X35.7127 Y4.4111
G01 X35.7127 Y3.6714
G01 X35.7117 Y3.6524
G01 X35.7079 Y3.6270
G01 X35.6991 Y3.5969
G01 X35.6934 Y3.5833
G01 X35.6826 Y3.5627
G01 X35.6693 Y3.5430
G01 X35.6633 Y3.5355
G01 X35.6471 Y3.5182
G01 X35.6290 Y3.5027
G01 X35.6174 Y3.4945
G01 X35.5968 Y3.4825
G01 X35.5883 Y3.4784
G01 X35.5661 Y3.4698
G01 X35.5431 Y3.4637
G01 X35.5291 Y3.4613
G01 X35.5006 Y3.4593
G01 X34.0970 Y3.4595
G01 X34.0738 Y3.4613
G01 X34.0582 Y3.4639
G01 X34.0375 Y3.4694
G01 X34.0157 Y3.4776
G01 X34.0072 Y3.4816
G01 X33.9870 Y3.4931
G01 X33.9681 Y3.5068
G01 X33.9576 Y3.5160
G01 X33.9414 Y3.5327
G01 X33.9271 Y3.5511
G01 X33.9220 Y3.5589
G01 X33.9107 Y3.5793
G01 X33.9051 Y3.5921
G01 X33.9018 Y3.6009
G01 X33.8953 Y3.6232
G01 X33.8912 Y3.6462
G01 X33.8900 Y3.6601
G01 X33.8900 Y3.6834
G01 X33.8908 Y3.6927
G01 X33.8929 Y3.7083
G01 X33.8978 Y3.7293
G01 X33.9005 Y3.7382
G01 X33.9090 Y3.7599
G01 X33.9199 Y3.7805
G01 X33.9330 Y3.7998
G01 X33.9476 Y3.8170
G01 X33.9580 Y3.8273
G01 X33.9760 Y3.8421
G01 X33.9957 Y3.8550
G01 X34.0163 Y3.8654
G01 X34.0542 Y3.8813
G01 X34.1731 Y4.0002
G01 X34.2375 Y4.1557
G01 X34.2375 Y4.6412
G01 X34.2030 Y4.6757
G01 X33.8996 Y4.6757
G01 X33.8996 Y4.2398
G01 X33.8991 Y4.2304
G01 X33.8975 Y4.2212
G01 X33.8950 Y4.2121
G01 X33.8914 Y4.2035
G01 X33.8868 Y4.1949
G01 X33.8812 Y4.1870
G01 X33.8747 Y4.1797
G01 X33.8674 Y4.1732
G01 X33.8595 Y4.1676
G01 X33.8509 Y4.1630
G01 X33.8423 Y4.1594
G01 X33.8332 Y4.1569
G01 X33.8240 Y4.1553
G01 X33.8146 Y4.1548
G01 X33.2146 Y4.1548
G01 X33.2052 Y4.1553
G01 X33.1960 Y4.1569
G01 X33.1869 Y4.1594
G01 X33.1783 Y4.1630
G01 X33.1697 Y4.1676
G01 X33.1618 Y4.1732
G01 X33.1545 Y4.1797
G01 X33.1480 Y4.1870
G01 X33.1424 Y4.1949
G01 X33.1378 Y4.2035
G01 X33.1342 Y4.2121
G01 X33.1317 Y4.2212
G01 X33.1301 Y4.2304
G01 X33.1296 Y4.2398
G01 X33.1294 Y6.1612
G01 X33.0062 Y6.1612
G01 X32.9527 Y6.1391
G01 X32.9264 Y6.1303
G01 X32.9038 Y6.1255
G01 X32.8901 Y6.1239
G01 X32.8660 Y6.1231
G01 X32.8348 Y6.1263
G01 X32.8198 Y6.1294
G01 X32.7991 Y6.1358
G01 X32.7777 Y6.1450
G01 X32.7500 Y6.1612
G01 X31.7392 Y6.1612
G01 X31.7236 Y6.1509
G01 X31.7038 Y6.1398
G01 X31.6830 Y6.1308
G01 X31.6701 Y6.1265
G01 X31.6390 Y6.1197
G01 X31.6164 Y6.1178
G01 X31.6028 Y6.1178
G01 X31.5712 Y6.1212
G01 X31.5491 Y6.1265
G01 X31.5358 Y6.1309
G01 X31.5073 Y6.1440
G01 X31.4800 Y6.1612
G01 X30.4692 Y6.1612
G01 X30.4536 Y6.1509
G01 X30.4338 Y6.1398
G01 X30.4130 Y6.1308
G01 X30.4001 Y6.1265
G01 X30.3690 Y6.1197
G01 X30.3464 Y6.1178
G01 X30.3328 Y6.1178
G01 X30.3012 Y6.1212
G01 X30.2791 Y6.1265
G01 X30.2658 Y6.1309
G01 X30.2373 Y6.1440
G01 X30.2100 Y6.1612
G01 X29.1992 Y6.1612
G01 X29.0997 Y6.0947
G01 X29.0062 Y5.9548
G01 X28.9692 Y5.7689
G01 X28.9692 Y4.2607
G01 X29.0062 Y4.0748
G01 X29.0997 Y3.9349
G01 X29.1541 Y3.8985
G01 X29.1692 Y3.8873
G01 X29.1885 Y3.8698
G01 X29.2080 Y3.8465
G01 X29.2163 Y3.8342
G01 X29.2272 Y3.8142
G01 X29.2363 Y3.7925
G01 X29.2428 Y3.7699
G01 X29.2447 Y3.7607
G01 X29.2477 Y3.7374
G01 X29.2483 Y3.7200
G01 X29.2471 Y3.6998
G01 X29.2459 Y3.6905
G01 X29.2411 Y3.6674
G01 X29.2337 Y3.6451
G01 X29.2280 Y3.6318
G01 X29.2170 Y3.6114
G01 X29.2119 Y3.6035
G01 X29.1977 Y3.5848
G01 X29.1815 Y3.5678
G01 X29.1635 Y3.5526
G01 X29.1519 Y3.5446
G01 X29.1439 Y3.5396
G01 X29.1230 Y3.5288
G01 X29.1011 Y3.5204
G01 X29.0875 Y3.5165
G01 X29.0644 Y3.5121
G01 X29.0363 Y3.5101
G01 X26.0741 Y3.5101
G01 X26.0557 Y3.5110
G01 X26.0310 Y3.5146
G01 X26.0016 Y3.5230
G01 X25.9884 Y3.5283
G01 X25.9682 Y3.5386
G01 X25.9602 Y3.5434
G01 X25.9414 Y3.5569
G01 X25.9242 Y3.5723
G01 X25.9148 Y3.5824
G01 X25.9005 Y3.6006
G01 X25.8213 Y3.7189
G01 X25.6003 Y3.8666
G01 X25.3187 Y3.9226
G01 X24.7105 Y3.9226
G01 X24.4289 Y3.8666
G01 X24.3247 Y3.7969
G01 X24.3247 Y1.7775
G00 Z5.0000
G00 X24.4794 Y3.6792
G01 F5050.00
G01 Z-0.1306
G01 F500.00
G01 X24.5132 Y3.6939
G01 X24.5363 Y3.7021
G01 X24.5588 Y3.7090
G01 X24.5826 Y3.7149
G01 X24.6057 Y3.7195
G01 X24.6299 Y3.7231
G01 X24.6533 Y3.7254
G01 X24.6778 Y3.7266
G01 X25.3396 Y3.7269
G01 X25.3759 Y3.7254
G01 X25.3993 Y3.7231
G01 X25.4235 Y3.7195
G01 X25.4234 Y3.7187
G01 X25.4466 Y3.7149
G01 X25.4704 Y3.7090
G01 X25.4929 Y3.7021
G01 X25.5160 Y3.6939
G01 X25.5378 Y3.6849
G01 X25.5599 Y3.6744
G01 X25.5807 Y3.6633
G01 X25.6017 Y3.6507
G01 X25.6213 Y3.6376
G01 X25.6410 Y3.6230
G01 X25.6592 Y3.6081
G01 X25.6774 Y3.5916
G01 X25.6940 Y3.5750
G01 X25.7105 Y3.5568
G01 X25.7254 Y3.5386
G01 X25.7412 Y3.5173
G01 X25.7531 Y3.4993
G01 X25.7657 Y3.4783
G01 X25.7768 Y3.4575
G01 X25.7873 Y3.4354
G01 X25.7963 Y3.4136
G01 X25.8045 Y3.3905
G01 X25.8114 Y3.3680
G01 X25.8173 Y3.3442
G01 X25.8207 Y3.3271
G01 X30.4347 Y3.3271
G01 X30.4349 Y5.7898
G01 X30.4364 Y5.8162
G01 X30.4407 Y5.8423
G01 X30.4479 Y5.8678
G01 X30.4579 Y5.8923
G01 X30.4710 Y5.9164
G01 X30.4868 Y5.9388
G01 X30.5051 Y5.9593
G01 X30.5256 Y5.9776
G01 X30.5480 Y5.9934
G01 X30.5723 Y6.0065
G01 X30.5124 Y6.0065
G01 X30.4857 Y5.9934
G01 X30.4618 Y5.9840
G01 X30.4242 Y5.9729
G01 X30.3855 Y5.9659
G01 X30.3464 Y5.9631
G01 X30.3072 Y5.9645
G01 X30.2937 Y5.9659
G01 X30.2937 Y5.9666
G01 X30.2683 Y5.9700
G01 X30.2550 Y5.9729
G01 X30.2303 Y5.9797
G01 X30.2161 Y5.9844
G01 X30.1935 Y5.9934
G01 X30.1668 Y6.0065
G01 X30.1069 Y6.0065
G01 X30.1312 Y5.9934
G01 X30.1536 Y5.9776
G01 X30.1741 Y5.9593
G01 X30.1924 Y5.9388
G01 X30.2082 Y5.9164
G01 X30.2213 Y5.8923
G01 X30.2313 Y5.8678
G01 X30.2385 Y5.8423
G01 X30.2428 Y5.8162
G01 X30.2443 Y5.7898
G01 X30.2443 Y4.2398
G01 X30.2428 Y4.2134
G01 X30.2385 Y4.1873
G01 X30.2313 Y4.1618
G01 X30.2213 Y4.1373
G01 X30.2082 Y4.1132
G01 X30.1924 Y4.0908
G01 X30.1741 Y4.0703
G01 X30.1536 Y4.0520
G01 X30.1312 Y4.0362
G01 X30.1071 Y4.0231
G01 X30.0826 Y4.0131
G01 X30.0571 Y4.0059
G01 X30.0310 Y4.0016
G01 X30.0046 Y4.0001
G01 X29.4046 Y4.0001
G01 X29.3782 Y4.0016
G01 X29.3521 Y4.0059
G01 X29.3266 Y4.0131
G01 X29.3021 Y4.0231
G01 X29.2780 Y4.0362
G01 X29.2556 Y4.0520
G01 X29.2351 Y4.0703
G01 X29.2168 Y4.0908
G01 X29.2010 Y4.1132
G01 X29.1879 Y4.1373
G01 X29.1779 Y4.1618
G01 X29.1707 Y4.1873
G01 X29.1664 Y4.2134
G01 X29.1649 Y4.2398
G01 X29.1649 Y5.7898
G01 X29.1664 Y5.8162
G01 X29.1707 Y5.8423
G01 X29.1779 Y5.8678
G01 X29.1879 Y5.8923
G01 X29.2010 Y5.9164
G01 X29.2168 Y5.9388
G01 X29.2351 Y5.9593
G01 X29.2556 Y5.9776
G01 X29.2780 Y5.9934
G01 X29.3023 Y6.0065
G01 X29.2462 Y6.0065
G01 X29.2112 Y5.9832
G01 X29.1519 Y5.8945
G01 X29.1239 Y5.7537
G01 X29.1239 Y4.2759
G01 X29.1519 Y4.1351
G01 X29.2112 Y4.0464
G01 X29.2400 Y4.0272
G01 X29.2622 Y4.0110
G01 X29.2825 Y3.9939
G01 X29.2979 Y3.9792
G01 X29.3202 Y3.9542
G01 X29.3363 Y3.9330
G01 X29.3454 Y3.9195
G01 X29.3643 Y3.8860
G01 X29.3753 Y3.8618
G01 X29.3804 Y3.8487
G01 X29.3887 Y3.8234
G01 X29.3923 Y3.8098
G01 X29.3977 Y3.7837
G01 X29.3998 Y3.7698
G01 X29.4023 Y3.7433
G01 X29.4030 Y3.7200
G01 X29.4014 Y3.6886
G01 X29.4008 Y3.6886
G01 X29.3980 Y3.6622
G01 X29.3945 Y3.6437
G01 X29.3850 Y3.6090
G01 X29.3759 Y3.5841
G01 X29.3699 Y3.5702
G01 X29.3515 Y3.5351
G01 X29.3372 Y3.5127
G01 X29.3289 Y3.5013
G01 X29.3121 Y3.4807
G01 X29.3026 Y3.4702
G01 X29.2837 Y3.4516
G01 X29.2731 Y3.4423
G01 X29.2522 Y3.4259
G01 X29.2382 Y3.4161
G01 X29.2180 Y3.4038
G01 X29.2056 Y3.3970
G01 X29.1816 Y3.3856
G01 X29.1686 Y3.3803
G01 X29.1435 Y3.3716
G01 X29.1299 Y3.3677
G01 X29.1040 Y3.3619
G01 X29.0901 Y3.3595
G01 X29.0636 Y3.3566
G01 X29.0363 Y3.3554
G01 X26.0741 Y3.3554
G01 X26.0472 Y3.3565
G01 X26.0213 Y3.3594
G01 X26.0026 Y3.3625
G01 X25.9687 Y3.3710
G01 X25.9440 Y3.3794
G01 X25.9302 Y3.3850
G01 X25.9074 Y3.3956
G01 X25.8729 Y3.4157
G01 X25.8615 Y3.4236
G01 X25.8407 Y3.4395
G01 X25.8113 Y3.4666
G01 X25.7851 Y3.4967
G01 X25.7692 Y3.5184
G01 X25.7098 Y3.6074
G01 X25.5399 Y3.7208
G01 X25.3035 Y3.7679
G01 X24.7257 Y3.7679
G01 X24.4893 Y3.7208
G01 X24.4794 Y3.7142
G01 X24.4794 Y3.6792
G01 X24.5132 Y3.6939
G00 Z5.0000
G00 X24.3546 Y3.2372
G01 F5050.00
G01 Z-0.1306
G01 F500.00
G01 X24.3546 Y2.3372
G01 X24.3567 Y2.3002
G01 X24.3620 Y2.2678
G01 X24.3679 Y2.2440
G01 X24.3786 Y2.2129
G01 X24.3923 Y2.1830
G01 X24.4088 Y2.1546
G01 X24.4334 Y2.1215
G01 X24.4557 Y2.0974
G01 X24.4739 Y2.0810
G01 X24.5070 Y2.0564
G01 X24.5354 Y2.0399
G01 X24.5576 Y2.0294
G01 X24.5964 Y2.0155
G01 X24.6202 Y2.0096
G01 X24.6526 Y2.0043
G01 X24.6896 Y2.0022
G01 X25.3438 Y2.0023
G01 X25.3766 Y2.0043
G01 X25.4090 Y2.0096
G01 X25.4328 Y2.0155
G01 X25.4639 Y2.0262
G01 X25.4938 Y2.0399
G01 X25.5222 Y2.0564
G01 X25.5553 Y2.0810
G01 X25.5794 Y2.1033
G01 X25.6011 Y2.1280
G01 X25.6157 Y2.1477
G01 X25.6330 Y2.1757
G01 X25.6474 Y2.2052
G01 X25.6589 Y2.2360
G01 X25.6689 Y2.2760
G01 X25.6725 Y2.3002
G01 X25.6745 Y2.3330
G01 X25.6746 Y2.4020
G01 X30.6952 Y2.4020
G01 X30.7430 Y2.4051
G01 X30.7855 Y2.4129
G01 X30.8179 Y2.4222
G01 X30.8580 Y2.4382
G01 X30.8960 Y2.4587
G01 X30.9315 Y2.4832
G01 X30.9675 Y2.5149
G01 X31.2469 Y2.7943
G01 X31.2605 Y2.8092
G01 X32.4727 Y1.5972
G01 X32.5053 Y1.5688
G01 X32.5327 Y1.5493
G01 X32.5703 Y1.5280
G01 X32.6099 Y1.5110
G01 X32.6189 Y1.5078
G01 X32.6606 Y1.4964
G01 X32.7032 Y1.4897
G01 X32.7416 Y1.4876
G01 X38.8976 Y1.4876
G01 X38.9454 Y1.4907
G01 X38.9786 Y1.4964
G01 X39.0203 Y1.5078
G01 X39.0604 Y1.5238
G01 X39.0689 Y1.5280
G01 X39.1055 Y1.5487
G01 X39.1339 Y1.5688
G01 X39.1699 Y1.6005
G01 X42.0927 Y4.5233
G01 X42.1184 Y4.5518
G01 X42.1439 Y4.5867
G01 X42.1652 Y4.6243
G01 X42.1822 Y4.6639
G01 X42.1947 Y4.7053
G01 X42.2025 Y4.7478
G01 X42.2054 Y4.7908
G01 X42.2056 Y4.8106
G01 X42.2704 Y4.8106
G01 X42.2991 Y4.8119
G01 X42.3398 Y4.8180
G01 X42.3716 Y4.8263
G01 X42.4024 Y4.8378
G01 X42.4319 Y4.8522
G01 X42.4594 Y4.8690
G01 X42.4861 Y4.8894
G01 X42.5102 Y4.9117
G01 X42.5319 Y4.9364
G01 X42.5512 Y4.9630
G01 X42.5677 Y4.9914
G01 X42.5814 Y5.0213
G01 X42.5921 Y5.0524
G01 X42.5998 Y5.0854
G01 X43.5810 Y5.0854
G01 X43.5911 Y5.0444
G01 X43.6026 Y5.0136
G01 X43.6131 Y4.9914
G01 X43.6343 Y4.9561
G01 X43.6542 Y4.9299
G01 X43.6765 Y4.9058
G01 X43.7012 Y4.8841
G01 X43.7209 Y4.8695
G01 X43.7489 Y4.8522
G01 X43.7784 Y4.8378
G01 X43.8172 Y4.8239
G01 X43.8410 Y4.8180
G01 X43.8734 Y4.8127
G01 X43.9104 Y4.8106
G01 X44.8104 Y4.8106
G01 X44.8391 Y4.8119
G01 X44.8716 Y4.8163
G01 X44.9116 Y4.8263
G01 X44.9424 Y4.8378
G01 X44.9646 Y4.8483
G01 X44.9994 Y4.8690
G01 X45.0261 Y4.8894
G01 X45.0502 Y4.9117
G01 X45.0666 Y4.9299
G01 X45.0865 Y4.9561
G01 X45.1077 Y4.9914
G01 X45.1182 Y5.0136
G01 X45.1297 Y5.0444
G01 X45.1380 Y5.0762
G01 X45.1433 Y5.1086
G01 X45.1454 Y5.1456
G01 X45.1454 Y5.7956
G01 X45.1433 Y5.8326
G01 X45.1380 Y5.8650
G01 X45.1297 Y5.8968
G01 X45.1182 Y5.9276
G01 X45.1077 Y5.9498
G01 X45.0865 Y5.9851
G01 X45.0666 Y6.0113
G01 X45.0443 Y6.0354
G01 X45.0196 Y6.0571
G01 X44.9999 Y6.0717
G01 X44.9719 Y6.0890
G01 X44.9424 Y6.1034
G01 X44.9036 Y6.1173
G01 X44.8716 Y6.1249
G01 X44.8391 Y6.1293
G01 X44.8104 Y6.1306
G01 X43.9104 Y6.1306
G01 X43.8734 Y6.1285
G01 X43.8410 Y6.1232
G01 X43.8172 Y6.1173
G01 X43.7861 Y6.1066
G01 X43.7489 Y6.0890
G01 X43.7214 Y6.0722
G01 X43.7012 Y6.0571
G01 X43.6706 Y6.0295
G01 X43.6489 Y6.0048
G01 X43.6343 Y5.9851
G01 X43.6131 Y5.9498
G01 X43.6026 Y5.9276
G01 X43.5911 Y5.8968
G01 X43.5810 Y5.8558
G01 X42.5998 Y5.8558
G01 X42.5897 Y5.8968
G01 X42.5782 Y5.9276
G01 X42.5677 Y5.9498
G01 X42.5465 Y5.9851
G01 X42.5266 Y6.0113
G01 X42.5043 Y6.0354
G01 X42.4796 Y6.0571
G01 X42.4599 Y6.0717
G01 X42.4319 Y6.0890
G01 X42.4024 Y6.1034
G01 X42.3636 Y6.1173
G01 X42.3316 Y6.1249
G01 X42.2991 Y6.1293
G01 X42.2704 Y6.1306
G01 X41.3662 Y6.1305
G01 X41.3334 Y6.1285
G01 X41.3010 Y6.1232
G01 X41.2772 Y6.1173
G01 X41.2461 Y6.1066
G01 X41.2089 Y6.0890
G01 X41.1814 Y6.0722
G01 X41.1547 Y6.0518
G01 X41.1306 Y6.0295
G01 X41.1142 Y6.0113
G01 X41.0943 Y5.9851
G01 X41.0770 Y5.9571
G01 X41.0594 Y5.9199
G01 X41.0487 Y5.8888
G01 X41.0411 Y5.8568
G01 X41.0367 Y5.8243
G01 X41.0354 Y5.7956
G01 X41.0354 Y5.1456
G01 X41.0367 Y5.1169
G01 X41.0428 Y5.0762
G01 X41.0487 Y5.0524
G01 X41.0594 Y5.0213
G01 X41.0731 Y4.9914
G01 X41.0896 Y4.9630
G01 X41.1142 Y4.9299
G01 X41.1365 Y4.9058
G01 X41.1547 Y4.8894
G01 X41.1878 Y4.8648
G01 X41.2162 Y4.8483
G01 X41.2384 Y4.8378
G01 X41.2692 Y4.8263
G01 X41.2986 Y4.8185
G01 X38.7381 Y2.2580
G01 X32.9011 Y2.2580
G01 X31.3598 Y3.7993
G01 X31.3596 Y5.7898
G01 X31.3591 Y5.7992
G01 X31.3575 Y5.8084
G01 X31.3550 Y5.8175
G01 X31.3514 Y5.8261
G01 X31.3468 Y5.8347
G01 X31.3412 Y5.8426
G01 X31.3347 Y5.8499
G01 X31.3274 Y5.8564
G01 X31.3195 Y5.8620
G01 X31.3109 Y5.8666
G01 X31.3023 Y5.8702
G01 X31.2932 Y5.8727
G01 X31.2840 Y5.8743
G01 X31.2746 Y5.8748
G01 X30.6746 Y5.8748
G01 X30.6652 Y5.8743
G01 X30.6560 Y5.8727
G01 X30.6469 Y5.8702
G01 X30.6383 Y5.8666
G01 X30.6297 Y5.8620
G01 X30.6218 Y5.8564
G01 X30.6145 Y5.8499
G01 X30.6080 Y5.8426
G01 X30.6024 Y5.8347
G01 X30.5978 Y5.8261
G01 X30.5942 Y5.8175
G01 X30.5917 Y5.8084
G01 X30.5901 Y5.7992
G01 X30.5896 Y5.7898
G01 X30.5894 Y3.2261
G01 X30.5357 Y3.1724
G01 X25.6746 Y3.1724
G01 X25.6746 Y3.2372
G01 X25.6733 Y3.2659
G01 X25.6689 Y3.2984
G01 X25.6613 Y3.3304
G01 X25.6506 Y3.3615
G01 X25.6330 Y3.3987
G01 X25.6162 Y3.4262
G01 X25.5958 Y3.4529
G01 X25.5735 Y3.4770
G01 X25.5553 Y3.4934
G01 X25.5291 Y3.5133
G01 X25.5011 Y3.5306
G01 X25.4716 Y3.5450
G01 X25.4408 Y3.5565
G01 X25.4090 Y3.5648
G01 X25.3766 Y3.5701
G01 X25.3396 Y3.5722
G01 X24.6896 Y3.5722
G01 X24.6609 Y3.5709
G01 X24.6284 Y3.5665
G01 X24.5884 Y3.5565
G01 X24.5576 Y3.5450
G01 X24.5354 Y3.5345
G01 X24.5001 Y3.5133
G01 X24.4739 Y3.4934
G01 X24.4498 Y3.4711
G01 X24.4281 Y3.4464
G01 X24.4135 Y3.4267
G01 X24.3923 Y3.3914
G01 X24.3818 Y3.3692
G01 X24.3703 Y3.3384
G01 X24.3603 Y3.2984
G01 X24.3559 Y3.2659
G01 X24.3546 Y3.2372
G01 X24.3546 Y2.3372
G00 Z5.0000
G00 X22.4742 Y3.6978
G01 F5050.00
G01 Z-0.1306
G01 F500.00
G01 X22.5088 Y3.7090
G01 X22.5326 Y3.7149
G01 X22.5557 Y3.7195
G01 X22.5799 Y3.7231
G01 X22.6033 Y3.7254
G01 X22.6278 Y3.7266
G01 X23.2896 Y3.7269
G01 X23.3259 Y3.7254
G01 X23.3493 Y3.7231
G01 X23.3735 Y3.7195
G01 X23.3734 Y3.7187
G01 X23.3966 Y3.7149
G01 X23.4204 Y3.7090
G01 X23.4429 Y3.7021
G01 X23.4660 Y3.6939
G01 X23.4878 Y3.6849
G01 X23.5099 Y3.6744
G01 X23.5307 Y3.6633
G01 X23.5517 Y3.6507
G01 X23.5713 Y3.6376
G01 X23.5998 Y3.6158
G01 X23.5998 Y3.6474
G01 X23.4899 Y3.7208
G01 X23.2535 Y3.7679
G01 X22.6757 Y3.7679
G01 X22.5116 Y3.7352
G01 X22.4742 Y3.6978
G01 X22.5088 Y3.7090
G00 Z5.0000
G00 X20.8348 Y3.8236
G01 F5050.00
G01 Z-0.1306
G01 F500.00
G01 X20.8642 Y3.8119
G01 X20.8863 Y3.8014
G01 X20.9071 Y3.7903
G01 X20.9281 Y3.7777
G01 X20.9477 Y3.7646
G01 X20.9674 Y3.7500
G01 X20.9856 Y3.7351
G01 X21.0038 Y3.7186
G01 X21.0204 Y3.7020
G01 X21.0369 Y3.6838
G01 X21.0518 Y3.6656
G01 X21.0676 Y3.6443
G01 X21.0795 Y3.6263
G01 X21.0921 Y3.6053
G01 X21.1076 Y3.5752
G01 X21.1842 Y3.6518
G01 X21.1842 Y3.6676
G01 X21.1434 Y3.7661
G01 X21.0679 Y3.8416
G01 X20.9694 Y3.8824
G01 X20.8348 Y3.8824
G01 X20.8348 Y3.8236
G01 X20.8642 Y3.8119
G00 Z5.0000
G00 X20.6801 Y3.6986
G01 F5050.00
G01 Z-0.1306
G01 F500.00
G01 X20.7030 Y3.6971
G01 X20.7272 Y3.6935
G01 X20.7592 Y3.6859
G01 X20.7903 Y3.6752
G01 X20.8275 Y3.6576
G01 X20.8555 Y3.6403
G01 X20.8752 Y3.6257
G01 X20.8999 Y3.6040
G01 X20.9222 Y3.5799
G01 X20.9426 Y3.5532
G01 X20.9633 Y3.5184
G01 X20.9770 Y3.4885
G01 X20.9877 Y3.4574
G01 X20.9953 Y3.4254
G01 X20.9989 Y3.4012
G01 X21.0009 Y3.3684
G01 X21.0010 Y3.2533
G01 X21.0045 Y3.2533
G01 X21.3389 Y3.5877
G01 X21.3389 Y3.6983
G01 X21.2745 Y3.8538
G01 X21.1556 Y3.9727
G01 X21.0001 Y4.0371
G01 X20.7146 Y4.0371
G01 X20.6801 Y4.0026
G01 X20.6801 Y3.6986
G01 X20.7030 Y3.6971
G00 Z5.0000
G00 X19.2503 Y3.4762
G01 F5050.00
G01 Z-0.1306
G01 F500.00
G01 X19.2549 Y3.4466
G01 X19.2587 Y3.4081
G01 X19.2604 Y3.3642
G01 X19.2599 Y2.4448
G01 X19.2587 Y2.4203
G01 X19.2581 Y2.4204
G01 X19.2549 Y2.3818
G01 X19.2513 Y2.3576
G01 X19.2501 Y2.3577
G01 X19.2438 Y2.3196
G01 X19.2378 Y2.2958
G01 X19.2266 Y2.2588
G01 X19.2183 Y2.2357
G01 X19.2090 Y2.2133
G01 X19.4229 Y2.2133
G01 X19.4137 Y2.2357
G01 X19.4054 Y2.2588
G01 X19.3942 Y2.2958
G01 X19.3882 Y2.3196
G01 X19.3807 Y2.3576
G01 X19.3771 Y2.3818
G01 X19.3733 Y2.4203
G01 X19.3721 Y2.4448
G01 X19.3716 Y3.3642
G01 X19.3733 Y3.4081
G01 X19.3739 Y3.4080
G01 X19.3771 Y3.4466
G01 X19.3807 Y3.4708
G01 X19.3819 Y3.4707
G01 X19.3858 Y3.4942
G01 X19.3506 Y3.4858
G01 X19.3368 Y3.4833
G01 X19.2936 Y3.4780
G01 X19.2503 Y3.4762
G01 X19.2549 Y3.4466
G00 Z5.0000
G00 X17.8750 Y4.1048
G01 F5050.00
G01 Z-0.1306
G01 F500.00
G01 X17.7363 Y3.9660
G01 X17.7606 Y3.9748
G01 X17.7976 Y3.9860
G01 X17.8214 Y3.9920
G01 X17.8594 Y3.9995
G01 X17.8836 Y4.0031
G01 X17.9174 Y4.0065
G01 X17.8931 Y4.0556
G01 X17.8876 Y4.0687
G01 X17.8750 Y4.1048
G01 X17.7363 Y3.9660
G00 Z5.0000
G00 X17.3729 Y2.2133
G01 F5050.00
G01 Z-0.1306
G01 F500.00
G01 X17.3703 Y2.2196
G01 X16.9476 Y2.2196
G01 X16.9431 Y2.2133
G01 X17.3729 Y2.2133
G01 X17.3703 Y2.2196
G00 Z5.0000
G00 X17.6921 Y2.0586
G01 F5050.00
G01 Z-0.1306
G01 F500.00
G01 X17.6646 Y2.0784
G01 X17.6464 Y2.0933
G01 X17.6282 Y2.1098
G01 X17.6116 Y2.1264
G01 X17.5951 Y2.1446
G01 X17.5802 Y2.1628
G01 X17.5644 Y2.1841
G01 X17.5525 Y2.2021
G01 X17.5399 Y2.2231
G01 X17.5288 Y2.2439
G01 X17.5183 Y2.2660
G01 X17.5093 Y2.2878
G01 X17.5011 Y2.3109
G01 X17.4942 Y2.3334
G01 X17.4883 Y2.3572
G01 X17.4849 Y2.3743
G01 X16.8653 Y2.3743
G01 X16.8490 Y2.3481
G01 X16.7841 Y2.2566
G01 X16.7674 Y2.2356
G01 X16.6927 Y2.1520
G01 X16.6736 Y2.1330
G01 X16.5904 Y2.0586
G01 X17.6921 Y2.0586
G01 X17.6646 Y2.0784
G00 Z5.0000
G00 X16.5897 Y2.0586
G01 F5050.00
G01 Z-0.1306
G01 F500.00
G01 X16.5897 Y2.0587
G01 X16.5896 Y2.0586
G01 X16.5897 Y2.0586
G01 X16.5897 Y2.0587
G00 Z5.0000
G00 X14.7284 Y3.1355
G01 F5050.00
G01 Z-0.1306
G01 F500.00
G01 X14.7218 Y3.0188
G01 X14.7282 Y2.9021
G01 X14.7293 Y2.8926
G01 X14.7502 Y2.7728
G01 X14.7844 Y2.6560
G01 X14.8315 Y2.5438
G01 X14.8901 Y2.4386
G01 X14.9557 Y2.3461
G01 X15.0363 Y2.2551
G01 X15.0431 Y2.2483
G01 X15.1341 Y2.1677
G01 X15.2256 Y2.1028
G01 X15.3318 Y2.0434
G01 X15.3404 Y2.0393
G01 X15.4530 Y1.9932
G01 X15.5682 Y1.9604
G01 X15.6901 Y1.9402
G01 X15.8068 Y1.9338
G01 X15.9235 Y1.9402
G01 X15.9330 Y1.9413
G01 X16.0529 Y1.9622
G01 X16.1606 Y1.9932
G01 X16.2732 Y2.0393
G01 X16.3800 Y2.0977
G01 X16.3880 Y2.1028
G01 X16.4795 Y2.1677
G01 X16.5706 Y2.2483
G01 X16.5773 Y2.2551
G01 X16.6580 Y2.3461
G01 X16.7229 Y2.4376
G01 X16.7740 Y2.5290
G01 X17.6310 Y2.5290
G01 X17.6310 Y2.4642
G01 X17.6323 Y2.4355
G01 X17.6384 Y2.3948
G01 X17.6467 Y2.3630
G01 X17.6582 Y2.3322
G01 X17.6726 Y2.3027
G01 X17.6894 Y2.2752
G01 X17.7098 Y2.2485
G01 X17.7321 Y2.2244
G01 X17.7568 Y2.2027
G01 X17.7834 Y2.1834
G01 X17.8118 Y2.1669
G01 X17.8417 Y2.1532
G01 X17.8728 Y2.1425
G01 X17.9048 Y2.1349
G01 X17.9373 Y2.1305
G01 X17.9660 Y2.1292
G01 X18.6160 Y2.1292
G01 X18.6447 Y2.1305
G01 X18.6854 Y2.1366
G01 X18.7172 Y2.1449
G01 X18.7480 Y2.1564
G01 X18.7702 Y2.1669
G01 X18.8050 Y2.1876
G01 X18.8317 Y2.2080
G01 X18.8558 Y2.2303
G01 X18.8775 Y2.2550
G01 X18.8968 Y2.2816
G01 X18.9133 Y2.3100
G01 X18.9238 Y2.3322
G01 X18.9353 Y2.3630
G01 X18.9436 Y2.3948
G01 X18.9489 Y2.4272
G01 X18.9510 Y2.4642
G01 X18.9510 Y3.3642
G01 X18.9489 Y3.4012
G01 X18.9436 Y3.4336
G01 X18.9377 Y3.4574
G01 X18.9270 Y3.4885
G01 X18.9094 Y3.5257
G01 X18.8921 Y3.5537
G01 X18.8775 Y3.5734
G01 X18.8558 Y3.5981
G01 X18.8252 Y3.6257
G01 X18.7986 Y3.6450
G01 X18.7702 Y3.6615
G01 X18.7480 Y3.6720
G01 X18.7172 Y3.6835
G01 X18.6772 Y3.6935
G01 X18.6530 Y3.6971
G01 X18.6202 Y3.6991
G01 X17.9660 Y3.6992
G01 X17.9290 Y3.6971
G01 X17.8966 Y3.6918
G01 X17.8728 Y3.6859
G01 X17.8340 Y3.6720
G01 X17.8045 Y3.6576
G01 X17.7765 Y3.6403
G01 X17.7503 Y3.6204
G01 X17.7262 Y3.5981
G01 X17.7045 Y3.5734
G01 X17.6852 Y3.5468
G01 X17.6687 Y3.5184
G01 X17.6550 Y3.4885
G01 X17.6443 Y3.4574
G01 X17.6384 Y3.4336
G01 X17.6323 Y3.3929
G01 X17.6310 Y3.3642
G01 X17.6310 Y3.2994
G01 X16.8535 Y3.2994
G01 X16.8292 Y3.3816
G01 X16.7956 Y3.4629
G01 X20.4591 Y7.1264
G01 X35.6266 Y7.1264
G01 X35.6576 Y7.1281
G01 X35.6663 Y7.0944
G01 X35.6778 Y7.0636
G01 X35.6883 Y7.0414
G01 X35.7090 Y7.0066
G01 X35.7241 Y6.9864
G01 X35.7458 Y6.9617
G01 X35.7764 Y6.9341
G01 X35.7961 Y6.9195
G01 X35.8241 Y6.9022
G01 X35.8613 Y6.8846
G01 X35.8924 Y6.8739
G01 X35.9162 Y6.8680
G01 X35.9486 Y6.8627
G01 X35.9856 Y6.8606
G01 X36.8898 Y6.8607
G01 X36.9226 Y6.8627
G01 X36.9468 Y6.8663
G01 X36.9868 Y6.8763
G01 X37.0176 Y6.8878
G01 X37.0398 Y6.8983
G01 X37.0751 Y6.9195
G01 X37.1013 Y6.9394
G01 X37.1254 Y6.9617
G01 X37.1471 Y6.9864
G01 X37.1617 Y7.0061
G01 X37.1829 Y7.0414
G01 X37.1934 Y7.0636
G01 X37.2049 Y7.0944
G01 X37.2149 Y7.1344
G01 X37.2193 Y7.1669
G01 X37.2206 Y7.1956
G01 X37.2206 Y7.8456
G01 X37.2185 Y7.8826
G01 X37.2132 Y7.9150
G01 X37.2073 Y7.9388
G01 X37.1966 Y7.9699
G01 X37.1790 Y8.0071
G01 X37.1622 Y8.0346
G01 X37.1471 Y8.0548
G01 X37.1195 Y8.0854
G01 X37.0948 Y8.1071
G01 X37.0751 Y8.1217
G01 X37.0471 Y8.1390
G01 X37.0099 Y8.1566
G01 X36.9788 Y8.1673
G01 X36.9550 Y8.1732
G01 X36.9226 Y8.1785
G01 X36.8856 Y8.1806
G01 X35.9856 Y8.1806
G01 X35.9486 Y8.1785
G01 X35.9162 Y8.1732
G01 X35.8924 Y8.1673
G01 X35.8536 Y8.1534
G01 X35.8314 Y8.1429
G01 X35.8030 Y8.1264
G01 X35.7764 Y8.1071
G01 X35.7458 Y8.0795
G01 X35.7241 Y8.0548
G01 X35.7048 Y8.0282
G01 X35.6883 Y7.9998
G01 X35.6746 Y7.9699
G01 X35.6639 Y7.9388
G01 X35.6562 Y7.9058
G01 X35.6308 Y7.9056
G01 X35.5972 Y7.9037
G01 X35.5534 Y7.8968
G01 X30.3762 Y7.8968
G01 X31.2502 Y8.7709
G01 X31.2786 Y8.8035
G01 X31.3031 Y8.8390
G01 X31.3234 Y8.8766
G01 X31.3396 Y8.9171
G01 X31.3507 Y8.9569
G01 X31.3567 Y8.9920
G01 X31.3598 Y9.0398
G01 X31.3598 Y12.1622
G01 X31.6044 Y12.1622
G01 X31.6331 Y12.1635
G01 X31.6656 Y12.1679
G01 X31.6976 Y12.1755
G01 X31.7287 Y12.1862
G01 X31.7586 Y12.1999
G01 X31.7934 Y12.2206
G01 X31.8201 Y12.2410
G01 X31.8442 Y12.2633
G01 X31.8606 Y12.2815
G01 X31.8805 Y12.3077
G01 X31.9017 Y12.3430
G01 X31.9122 Y12.3652
G01 X31.9237 Y12.3960
G01 X31.9320 Y12.4278
G01 X31.9381 Y12.4685
G01 X31.9394 Y12.4972
G01 X31.9394 Y13.3972
G01 X31.9381 Y13.4259
G01 X31.9320 Y13.4666
G01 X31.9261 Y13.4904
G01 X31.9154 Y13.5215
G01 X31.9017 Y13.5514
G01 X31.8852 Y13.5798
G01 X31.8606 Y13.6129
G01 X31.8383 Y13.6370
G01 X31.8136 Y13.6587
G01 X31.7939 Y13.6733
G01 X31.7659 Y13.6906
G01 X31.7364 Y13.7050
G01 X31.7056 Y13.7165
G01 X31.6738 Y13.7248
G01 X31.6414 Y13.7301
G01 X31.6044 Y13.7322
G01 X30.9544 Y13.7322
G01 X30.9174 Y13.7301
G01 X30.8850 Y13.7248
G01 X30.8612 Y13.7189
G01 X30.8301 Y13.7082
G01 X30.8002 Y13.6945
G01 X30.7718 Y13.6780
G01 X30.7387 Y13.6534
G01 X30.7146 Y13.6311
G01 X30.6982 Y13.6129
G01 X30.6736 Y13.5798
G01 X30.6571 Y13.5514
G01 X30.6434 Y13.5215
G01 X30.6327 Y13.4904
G01 X30.6268 Y13.4666
G01 X30.6207 Y13.4259
G01 X30.6194 Y13.3972
G01 X30.6192 Y12.7896
G01 X30.6096 Y12.7651
G01 X30.5985 Y12.7253
G01 X30.5915 Y12.6808
G01 X30.5894 Y12.6424
G01 X30.5894 Y9.1993
G01 X29.2869 Y7.8968
G01 X20.2996 Y7.8968
G01 X20.2518 Y7.8937
G01 X20.2186 Y7.8880
G01 X20.1769 Y7.8766
G01 X20.1368 Y7.8606
G01 X20.1283 Y7.8564
G01 X20.0917 Y7.8357
G01 X20.0558 Y7.8096
G01 X20.0273 Y7.7839
G01 X16.2509 Y4.0076
G01 X16.1606 Y4.0444
G01 X16.0529 Y4.0754
G01 X15.9330 Y4.0963
G01 X15.9235 Y4.0974
G01 X15.8068 Y4.1038
G01 X15.6901 Y4.0974
G01 X15.5701 Y4.0775
G01 X15.4530 Y4.0444
G01 X15.3404 Y3.9983
G01 X15.2337 Y3.9399
G01 X15.1341 Y3.8700
G01 X15.0431 Y3.7893
G01 X15.0363 Y3.7826
G01 X14.9557 Y3.6915
G01 X14.8857 Y3.5920
G01 X14.8275 Y3.4857
G01 X14.7813 Y3.3726
G01 X14.7484 Y3.2575
G01 X14.7293 Y3.1450
G01 X14.7284 Y3.1355
G01 X14.7218 Y3.0188
G00 Z5.0000
G00 X9.7891 Y3.1339
G01 F5050.00
G01 Z-0.1306
G01 F500.00
G01 X9.7825 Y3.0172
G01 X9.7889 Y2.9005
G01 X9.7900 Y2.8910
G01 X9.8109 Y2.7712
G01 X9.8451 Y2.6544
G01 X9.8921 Y2.5422
G01 X9.9515 Y2.4360
G01 X10.0164 Y2.3445
G01 X10.0970 Y2.2535
G01 X10.1874 Y2.1720
G01 X10.2863 Y2.1012
G01 X10.2944 Y2.0961
G01 X10.4006 Y2.0379
G01 X10.5137 Y1.9916
G01 X10.6289 Y1.9588
G01 X10.7413 Y1.9397
G01 X10.7508 Y1.9386
G01 X10.8675 Y1.9322
G01 X10.9842 Y1.9386
G01 X10.9937 Y1.9397
G01 X11.1136 Y1.9606
G01 X11.2213 Y1.9916
G01 X11.3116 Y2.0285
G01 X12.8692 Y0.4710
G01 X12.9018 Y0.4426
G01 X12.9292 Y0.4231
G01 X12.9373 Y0.4181
G01 X12.9749 Y0.3978
G01 X13.0065 Y0.3848
G01 X13.0478 Y0.3723
G01 X13.0571 Y0.3702
G01 X13.0997 Y0.3635
G01 X13.1381 Y0.3615
G01 X20.9240 Y0.3614
G01 X20.9624 Y0.3635
G01 X21.0050 Y0.3702
G01 X21.0467 Y0.3816
G01 X21.0868 Y0.3976
G01 X21.0953 Y0.4018
G01 X21.1319 Y0.4224
G01 X21.1603 Y0.4426
G01 X21.1963 Y0.4743
G01 X22.7243 Y2.0022
G01 X23.2896 Y2.0022
G01 X23.3183 Y2.0035
G01 X23.3508 Y2.0079
G01 X23.3908 Y2.0179
G01 X23.4216 Y2.0294
G01 X23.4438 Y2.0399
G01 X23.4786 Y2.0606
G01 X23.4988 Y2.0757
G01 X23.5235 Y2.0974
G01 X23.5511 Y2.1280
G01 X23.5657 Y2.1477
G01 X23.5830 Y2.1757
G01 X23.6006 Y2.2129
G01 X23.6113 Y2.2440
G01 X23.6172 Y2.2678
G01 X23.6233 Y2.3085
G01 X23.6246 Y2.3372
G01 X23.6246 Y3.2372
G01 X23.6233 Y3.2659
G01 X23.6172 Y3.3066
G01 X23.6113 Y3.3304
G01 X23.6006 Y3.3615
G01 X23.5830 Y3.3987
G01 X23.5662 Y3.4262
G01 X23.5511 Y3.4464
G01 X23.5294 Y3.4711
G01 X23.5053 Y3.4934
G01 X23.4791 Y3.5133
G01 X23.4511 Y3.5306
G01 X23.4216 Y3.5450
G01 X23.3908 Y3.5565
G01 X23.3590 Y3.5648
G01 X23.3266 Y3.5701
G01 X23.2896 Y3.5722
G01 X22.6396 Y3.5722
G01 X22.6026 Y3.5701
G01 X22.5702 Y3.5648
G01 X22.5464 Y3.5589
G01 X22.5153 Y3.5482
G01 X22.4781 Y3.5306
G01 X22.4506 Y3.5138
G01 X22.4304 Y3.4987
G01 X22.3998 Y3.4711
G01 X22.3781 Y3.4464
G01 X22.3635 Y3.4267
G01 X22.3423 Y3.3914
G01 X22.3318 Y3.3692
G01 X22.3203 Y3.3384
G01 X22.3103 Y3.2984
G01 X22.3059 Y3.2659
G01 X22.3046 Y3.2372
G01 X22.3046 Y2.6719
G01 X20.7645 Y1.1318
G01 X13.2976 Y1.1318
G01 X11.8563 Y2.5731
G01 X11.8931 Y2.6634
G01 X11.9259 Y2.7786
G01 X11.9450 Y2.8910
G01 X11.9524 Y3.0124
G01 X11.9524 Y3.0220
G01 X11.9450 Y3.1434
G01 X11.9262 Y3.2540
G01 X11.8931 Y3.3710
G01 X11.8470 Y3.4836
G01 X11.8429 Y3.4922
G01 X11.7842 Y3.5975
G01 X11.7187 Y3.6899
G01 X11.6380 Y3.7810
G01 X11.6313 Y3.7877
G01 X11.5402 Y3.8684
G01 X11.4407 Y3.9383
G01 X11.3344 Y3.9965
G01 X11.2303 Y4.0396
G01 X11.1136 Y4.0738
G01 X10.9937 Y4.0947
G01 X10.8723 Y4.1021
G01 X10.7508 Y4.0958
G01 X10.6308 Y4.0759
G01 X10.5137 Y4.0428
G01 X10.4011 Y3.9967
G01 X10.3925 Y3.9926
G01 X10.2863 Y3.9333
G01 X10.1948 Y3.8684
G01 X10.1038 Y3.7877
G01 X10.0223 Y3.6973
G01 X9.9515 Y3.5984
G01 X9.9464 Y3.5904
G01 X9.8882 Y3.4841
G01 X9.8419 Y3.3710
G01 X9.8091 Y3.2559
G01 X9.7900 Y3.1434
G01 X9.7891 Y3.1339
G01 X9.7825 Y3.0172
G00 Z5.0000
G00 X20.0609 Y1.2865
G01 F5050.00
G01 Z-0.1306
G01 F500.00
G01 X20.7004 Y1.2865
G01 X22.1499 Y2.7360
G01 X22.1502 Y3.2490
G01 X22.1514 Y3.2735
G01 X22.1537 Y3.2969
G01 X22.1573 Y3.3211
G01 X22.1581 Y3.3210
G01 X22.1619 Y3.3442
G01 X22.1678 Y3.3680
G01 X22.1790 Y3.4026
G01 X22.1416 Y3.3652
G01 X22.1089 Y3.2011
G01 X22.1089 Y2.8870
G01 X22.1077 Y2.8594
G01 X22.1047 Y2.8327
G01 X22.1014 Y2.8133
G01 X22.0924 Y2.7787
G01 X22.0835 Y2.7534
G01 X22.0776 Y2.7389
G01 X22.0595 Y2.7035
G01 X22.0452 Y2.6807
G01 X22.0370 Y2.6691
G01 X22.0202 Y2.6481
G01 X22.0015 Y2.6277
G01 X21.7766 Y2.4028
G01 X21.7562 Y2.3841
G01 X21.7558 Y2.3845
G01 X21.7352 Y2.3673
G01 X21.7208 Y2.3572
G01 X21.6884 Y2.3379
G01 X21.6641 Y2.3262
G01 X21.6510 Y2.3208
G01 X21.6256 Y2.3119
G01 X21.6119 Y2.3080
G01 X21.5857 Y2.3020
G01 X21.5717 Y2.2996
G01 X21.5449 Y2.2966
G01 X21.5173 Y2.2954
G01 X21.5038 Y2.2958
G01 X21.4896 Y2.2966
G01 X21.4629 Y2.2996
G01 X21.4435 Y2.3029
G01 X21.4090 Y2.3119
G01 X21.3836 Y2.3208
G01 X21.3691 Y2.3268
G01 X21.3462 Y2.3379
G01 X21.3337 Y2.3448
G01 X21.3110 Y2.3591
G01 X21.2993 Y2.3673
G01 X21.2783 Y2.3841
G01 X21.2579 Y2.4028
G01 X21.2403 Y2.4204
G01 X21.1968 Y2.4204
G01 X21.1457 Y2.3694
G01 X21.1437 Y2.3572
G01 X21.1378 Y2.3334
G01 X21.1309 Y2.3109
G01 X21.1227 Y2.2878
G01 X21.1137 Y2.2660
G01 X21.1032 Y2.2439
G01 X21.0921 Y2.2231
G01 X21.0795 Y2.2021
G01 X21.0664 Y2.1825
G01 X21.0518 Y2.1628
G01 X21.0369 Y2.1446
G01 X21.0204 Y2.1264
G01 X21.0038 Y2.1098
G01 X20.9856 Y2.0933
G01 X20.9674 Y2.0784
G01 X20.9461 Y2.0626
G01 X20.9281 Y2.0507
G01 X20.9071 Y2.0381
G01 X20.8863 Y2.0270
G01 X20.8642 Y2.0165
G01 X20.8424 Y2.0075
G01 X20.8193 Y1.9993
G01 X20.7968 Y1.9924
G01 X20.7603 Y1.9840
G01 X20.0842 Y1.3078
G01 X20.0609 Y1.2865
G01 X20.7004 Y1.2865
G00 Z5.0000
G00 X21.3604 Y2.1653
G01 F5050.00
G01 Z-0.1306
G01 F500.00
G01 X21.3244 Y2.1779
G01 X21.3091 Y2.1842
G01 X21.2714 Y2.2025
G01 X21.2577 Y2.2101
G01 X21.2430 Y2.1777
G01 X21.2248 Y2.1436
G01 X21.2122 Y2.1226
G01 X21.1907 Y2.0904
G01 X21.1760 Y2.0707
G01 X21.1515 Y2.0407
G01 X21.1350 Y2.0226
G01 X21.1076 Y1.9952
G01 X21.0895 Y1.9787
G01 X21.0890 Y1.9793
G01 X21.0595 Y1.9542
G01 X21.0398 Y1.9395
G01 X21.0076 Y1.9180
G01 X20.9866 Y1.9054
G01 X20.9525 Y1.8872
G01 X20.9303 Y1.8767
G01 X20.8945 Y1.8619
G01 X20.8714 Y1.8536
G01 X20.8390 Y1.8438
G01 X20.4363 Y1.4412
G01 X20.6363 Y1.4412
G01 X21.3604 Y2.1653
G01 X21.3244 Y2.1779
G00 Z5.0000
G00 X29.4984 Y3.4818
G01 F5050.00
G01 Z-0.1306
G01 F500.00
G01 X30.2800 Y3.4818
G01 X30.2800 Y3.9579
G01 X30.2498 Y3.9309
G01 X30.2129 Y3.9049
G01 X30.1732 Y3.8833
G01 X30.1329 Y3.8669
G01 X30.0910 Y3.8550
G01 X30.0481 Y3.8478
G01 X30.0046 Y3.8454
G01 X29.5427 Y3.8454
G01 X29.5507 Y3.8068
G01 X29.5528 Y3.7928
G01 X29.5569 Y3.7493
G01 X29.5577 Y3.7200
G01 X29.5557 Y3.6774
G01 X29.5548 Y3.6774
G01 X29.5501 Y3.6340
G01 X29.5460 Y3.6124
G01 X29.5371 Y3.5776
G01 X29.5331 Y3.5641
G01 X29.5180 Y3.5230
G01 X29.5118 Y3.5086
G01 X29.4984 Y3.4818
G01 X30.2800 Y3.4818
G00 Z5.0000
G00 X29.7055 Y3.6365
G01 F5050.00
G01 Z-0.1306
G01 F500.00
G01 X30.1253 Y3.6365
G01 X30.1253 Y3.7042
G01 X30.0651 Y3.6940
G01 X30.0046 Y3.6907
G01 X29.7114 Y3.6907
G01 X29.7100 Y3.6662
G01 X29.7087 Y3.6663
G01 X29.7055 Y3.6365
G01 X30.1253 Y3.6365
G00 Z5.0000
G00 X29.3683 Y4.1630
G01 F5050.00
G01 Z-0.1306
G01 F500.00
G01 X29.3769 Y4.1594
G01 X29.3860 Y4.1569
G01 X29.3952 Y4.1553
G01 X29.4046 Y4.1548
G01 X30.0046 Y4.1548
G01 X30.0140 Y4.1553
G01 X30.0232 Y4.1569
G01 X30.0323 Y4.1594
G01 X30.0409 Y4.1630
G01 X30.0495 Y4.1676
G01 X30.0574 Y4.1732
G01 X30.0647 Y4.1797
G01 X30.0712 Y4.1870
G01 X30.0768 Y4.1949
G01 X30.0814 Y4.2035
G01 X30.0850 Y4.2121
G01 X30.0875 Y4.2212
G01 X30.0891 Y4.2304
G01 X30.0896 Y4.2398
G01 X30.0896 Y5.7898
G01 X30.0891 Y5.7992
G01 X30.0875 Y5.8084
G01 X30.0850 Y5.8175
G01 X30.0814 Y5.8261
G01 X30.0768 Y5.8347
G01 X30.0712 Y5.8426
G01 X30.0647 Y5.8499
G01 X30.0574 Y5.8564
G01 X30.0495 Y5.8620
G01 X30.0409 Y5.8666
G01 X30.0323 Y5.8702
G01 X30.0232 Y5.8727
G01 X30.0140 Y5.8743
G01 X30.0046 Y5.8748
G01 X29.4046 Y5.8748
G01 X29.3952 Y5.8743
G01 X29.3860 Y5.8727
G01 X29.3769 Y5.8702
G01 X29.3683 Y5.8666
G01 X29.3597 Y5.8620
G01 X29.3518 Y5.8564
G01 X29.3445 Y5.8499
G01 X29.3380 Y5.8426
G01 X29.3324 Y5.8347
G01 X29.3278 Y5.8261
G01 X29.3242 Y5.8175
G01 X29.3217 Y5.8084
G01 X29.3201 Y5.7992
G01 X29.3196 Y5.7898
G01 X29.3196 Y4.2398
G01 X29.3201 Y4.2304
G01 X29.3217 Y4.2212
G01 X29.3242 Y4.2121
G01 X29.3278 Y4.2035
G01 X29.3324 Y4.1949
G01 X29.3380 Y4.1870
G01 X29.3445 Y4.1797
G01 X29.3518 Y4.1732
G01 X29.3597 Y4.1676
G01 X29.3683 Y4.1630
G01 X29.3769 Y4.1594
G00 Z5.0000
G00 X31.8596 Y3.6350
G01 F5050.00
G01 Z-0.1306
G01 F500.00
G01 X31.8625 Y3.5920
G01 X31.8703 Y3.5495
G01 X31.8796 Y3.5171
G01 X31.8956 Y3.4770
G01 X31.8998 Y3.4685
G01 X31.9205 Y3.4319
G01 X31.9406 Y3.4035
G01 X31.9690 Y3.3709
G01 X32.8757 Y2.4641
G01 X32.9117 Y2.4324
G01 X32.9472 Y2.4079
G01 X32.9848 Y2.3876
G01 X33.0253 Y2.3714
G01 X33.0651 Y2.3603
G01 X33.1002 Y2.3543
G01 X33.1480 Y2.3512
G01 X35.9784 Y2.3512
G01 X36.0262 Y2.3543
G01 X36.0687 Y2.3621
G01 X36.1011 Y2.3714
G01 X36.1412 Y2.3874
G01 X36.1792 Y2.4079
G01 X36.2147 Y2.4324
G01 X36.2507 Y2.4641
G01 X36.7112 Y2.9247
G01 X36.7396 Y2.9573
G01 X36.7641 Y2.9928
G01 X36.7844 Y3.0304
G01 X36.8006 Y3.0709
G01 X36.8117 Y3.1107
G01 X36.8177 Y3.1458
G01 X36.8208 Y3.1936
G01 X36.8208 Y4.8106
G01 X36.8856 Y4.8106
G01 X36.9143 Y4.8119
G01 X36.9550 Y4.8180
G01 X36.9868 Y4.8263
G01 X37.0176 Y4.8378
G01 X37.0471 Y4.8522
G01 X37.0746 Y4.8690
G01 X37.1013 Y4.8894
G01 X37.1254 Y4.9117
G01 X37.1471 Y4.9364
G01 X37.1664 Y4.9630
G01 X37.1829 Y4.9914
G01 X37.1966 Y5.0213
G01 X37.2073 Y5.0524
G01 X37.2150 Y5.0854
G01 X38.2470 Y5.0854
G01 X38.2571 Y5.0444
G01 X38.2686 Y5.0136
G01 X38.2791 Y4.9914
G01 X38.3003 Y4.9561
G01 X38.3202 Y4.9299
G01 X38.3425 Y4.9058
G01 X38.3672 Y4.8841
G01 X38.3869 Y4.8695
G01 X38.4149 Y4.8522
G01 X38.4444 Y4.8378
G01 X38.4832 Y4.8239
G01 X38.5070 Y4.8180
G01 X38.5394 Y4.8127
G01 X38.5764 Y4.8106
G01 X39.4764 Y4.8106
G01 X39.5051 Y4.8119
G01 X39.5376 Y4.8163
G01 X39.5696 Y4.8239
G01 X39.6007 Y4.8346
G01 X39.6379 Y4.8522
G01 X39.6659 Y4.8695
G01 X39.6856 Y4.8841
G01 X39.7103 Y4.9058
G01 X39.7379 Y4.9364
G01 X39.7572 Y4.9630
G01 X39.7737 Y4.9914
G01 X39.7842 Y5.0136
G01 X39.7957 Y5.0444
G01 X39.8057 Y5.0844
G01 X39.8101 Y5.1169
G01 X39.8114 Y5.1456
G01 X39.8114 Y5.7956
G01 X39.8093 Y5.8326
G01 X39.8040 Y5.8650
G01 X39.7981 Y5.8888
G01 X39.7842 Y5.9276
G01 X39.7698 Y5.9571
G01 X39.7530 Y5.9846
G01 X39.7379 Y6.0048
G01 X39.7162 Y6.0295
G01 X39.6856 Y6.0571
G01 X39.6659 Y6.0717
G01 X39.6379 Y6.0890
G01 X39.6084 Y6.1034
G01 X39.5776 Y6.1149
G01 X39.5376 Y6.1249
G01 X39.5134 Y6.1285
G01 X39.4806 Y6.1305
G01 X38.5764 Y6.1306
G01 X38.5394 Y6.1285
G01 X38.5070 Y6.1232
G01 X38.4832 Y6.1173
G01 X38.4521 Y6.1066
G01 X38.4149 Y6.0890
G01 X38.3874 Y6.0722
G01 X38.3672 Y6.0571
G01 X38.3366 Y6.0295
G01 X38.3149 Y6.0048
G01 X38.3003 Y5.9851
G01 X38.2791 Y5.9498
G01 X38.2686 Y5.9276
G01 X38.2571 Y5.8968
G01 X38.2470 Y5.8558
G01 X37.2150 Y5.8558
G01 X37.2049 Y5.8968
G01 X37.1934 Y5.9276
G01 X37.1829 Y5.9498
G01 X37.1617 Y5.9851
G01 X37.1418 Y6.0113
G01 X37.1195 Y6.0354
G01 X37.0948 Y6.0571
G01 X37.0751 Y6.0717
G01 X37.0471 Y6.0890
G01 X37.0176 Y6.1034
G01 X36.9788 Y6.1173
G01 X36.9468 Y6.1249
G01 X36.9143 Y6.1293
G01 X36.8856 Y6.1306
G01 X35.9856 Y6.1306
G01 X35.9569 Y6.1293
G01 X35.9162 Y6.1232
G01 X35.8844 Y6.1149
G01 X35.8536 Y6.1034
G01 X35.8314 Y6.0929
G01 X35.7966 Y6.0722
G01 X35.7699 Y6.0518
G01 X35.7458 Y6.0295
