(G-CODE GENERATED BY FLATCAM v8.91 - www.flatcam.org - Version Date: 2019/02/23)

(Name: V3.drl_mill_cnc)
(Type: G-code from Geometry)
(Units: MM)

(Created on Saturday, 23 February 2019 at 21:03)

(TOOL DIAMETER: 0.8 mm)
(Feedrate: 500.0 mm/min)
(Feedrate_Z: 5050.0 mm/min)
(Feedrate rapids 3.0 mm/min)

(Z_Cut: -2.1 mm)
(Z_Move: 5.0 mm)
(Z Toolchange: 5.0 mm)
(X,Y Toolchange: 0.0000, 0.0000 mm)
(Z Start: 20.0 mm)
(Z End: 20.0 mm)
(Steps per circle: 64)
(Postprocessor Geometry: default)

(X range:    2.4223 ...  104.5598  mm)
(Y range:    2.8622 ...   65.8588  mm)

(Spindle Speed: 18000 RPM)
G94 ( Millimeters per minute feed rate. )
G21 ( Units == Millimeters. )
G90 ( Absolute coordinates. )
G64 P0.01000 ( set maximum deviation from commanded toolpath )
G21
G90
G94
G21
G90
G94
G21
G90
G94

G01 F500.00
G00 Z5.0000
G00 Z20.0000
M03 S18000
G00 X3.7228 Y7.6890
G01 F5050.00
G01 Z-2.1000
G01 F500.00
G01 X3.7220 Y7.6738
G01 X3.7198 Y7.6588
G01 X3.7161 Y7.6441
G01 X3.7110 Y7.6298
G01 X3.7045 Y7.6161
G01 X3.6967 Y7.6030
G01 X3.6876 Y7.5908
G01 X3.6774 Y7.5796
G01 X3.6662 Y7.5694
G01 X3.6540 Y7.5603
G01 X3.6409 Y7.5525
G01 X3.6272 Y7.5460
G01 X3.6129 Y7.5409
G01 X3.5982 Y7.5372
G01 X3.5832 Y7.5350
G01 X3.5680 Y7.5343
G01 X3.5528 Y7.5350
G01 X3.5378 Y7.5372
G01 X3.5231 Y7.5409
G01 X3.5088 Y7.5460
G01 X3.4951 Y7.5525
G01 X3.4820 Y7.5603
G01 X3.4698 Y7.5694
G01 X3.4586 Y7.5796
G01 X3.4484 Y7.5908
G01 X3.4393 Y7.6030
G01 X3.4315 Y7.6161
G01 X3.4250 Y7.6298
G01 X3.4199 Y7.6441
G01 X3.4162 Y7.6588
G01 X3.4140 Y7.6738
G01 X3.4133 Y7.6890
G01 X3.4140 Y7.7042
G01 X3.4162 Y7.7192
G01 X3.4199 Y7.7339
G01 X3.4250 Y7.7482
G01 X3.4315 Y7.7619
G01 X3.4393 Y7.7750
G01 X3.4484 Y7.7872
G01 X3.4586 Y7.7984
G01 X3.4698 Y7.8086
G01 X3.4820 Y7.8177
G01 X3.4951 Y7.8255
G01 X3.5088 Y7.8320
G01 X3.5231 Y7.8371
G01 X3.5378 Y7.8408
G01 X3.5528 Y7.8430
G01 X3.5680 Y7.8438
G01 X3.5832 Y7.8430
G01 X3.5982 Y7.8408
G01 X3.6129 Y7.8371
G01 X3.6272 Y7.8320
G01 X3.6409 Y7.8255
G01 X3.6540 Y7.8177
G01 X3.6662 Y7.8086
G01 X3.6774 Y7.7984
G01 X3.6876 Y7.7872
G01 X3.6967 Y7.7750
G01 X3.7045 Y7.7619
G01 X3.7110 Y7.7482
G01 X3.7161 Y7.7339
G01 X3.7198 Y7.7192
G01 X3.7220 Y7.7042
G01 X3.7228 Y7.6890
G01 X3.7220 Y7.6738
G00 Z5.0000
G00 X10.3018 Y9.1370
G01 F5050.00
G01 Z-2.1000
G01 F500.00
G01 X10.3010 Y9.1218
G01 X10.2988 Y9.1068
G01 X10.2951 Y9.0921
G01 X10.2900 Y9.0778
G01 X10.2835 Y9.0641
G01 X10.2757 Y9.0510
G01 X10.2666 Y9.0388
G01 X10.2564 Y9.0276
G01 X10.2452 Y9.0174
G01 X10.2330 Y9.0083
G01 X10.2199 Y9.0005
G01 X10.2062 Y8.9940
G01 X10.1919 Y8.9889
G01 X10.1772 Y8.9852
G01 X10.1622 Y8.9830
G01 X10.1470 Y8.9823
G01 X10.1318 Y8.9830
G01 X10.1168 Y8.9852
G01 X10.1021 Y8.9889
G01 X10.0878 Y8.9940
G01 X10.0741 Y9.0005
G01 X10.0610 Y9.0083
G01 X10.0488 Y9.0174
G01 X10.0376 Y9.0276
G01 X10.0274 Y9.0388
G01 X10.0183 Y9.0510
G01 X10.0105 Y9.0641
G01 X10.0040 Y9.0778
G01 X9.9989 Y9.0921
G01 X9.9952 Y9.1068
G01 X9.9930 Y9.1218
G01 X9.9923 Y9.1370
G01 X9.9930 Y9.1522
G01 X9.9952 Y9.1672
G01 X9.9989 Y9.1819
G01 X10.0040 Y9.1962
G01 X10.0105 Y9.2099
G01 X10.0183 Y9.2230
G01 X10.0274 Y9.2352
G01 X10.0376 Y9.2464
G01 X10.0488 Y9.2566
G01 X10.0610 Y9.2657
G01 X10.0741 Y9.2735
G01 X10.0878 Y9.2800
G01 X10.1021 Y9.2851
G01 X10.1168 Y9.2888
G01 X10.1318 Y9.2910
G01 X10.1470 Y9.2918
G01 X10.1622 Y9.2910
G01 X10.1772 Y9.2888
G01 X10.1919 Y9.2851
G01 X10.2062 Y9.2800
G01 X10.2199 Y9.2735
G01 X10.2330 Y9.2657
G01 X10.2452 Y9.2566
G01 X10.2564 Y9.2464
G01 X10.2666 Y9.2352
G01 X10.2757 Y9.2230
G01 X10.2835 Y9.2099
G01 X10.2900 Y9.1962
G01 X10.2951 Y9.1819
G01 X10.2988 Y9.1672
G01 X10.3010 Y9.1522
G01 X10.3018 Y9.1370
G01 X10.3010 Y9.1218
G00 Z5.0000
G00 X12.8157 Y7.0290
G01 F5050.00
G01 Z-2.1000
G01 F500.00
G01 X12.8150 Y7.0138
G01 X12.8128 Y6.9988
G01 X12.8091 Y6.9841
G01 X12.8040 Y6.9698
G01 X12.7975 Y6.9561
G01 X12.7897 Y6.9430
G01 X12.7806 Y6.9308
G01 X12.7704 Y6.9196
G01 X12.7592 Y6.9094
G01 X12.7470 Y6.9003
G01 X12.7339 Y6.8925
G01 X12.7202 Y6.8860
G01 X12.7059 Y6.8809
G01 X12.6912 Y6.8772
G01 X12.6762 Y6.8750
G01 X12.6610 Y6.8742
G01 X12.6458 Y6.8750
G01 X12.6308 Y6.8772
G01 X12.6161 Y6.8809
G01 X12.6018 Y6.8860
G01 X12.5881 Y6.8925
G01 X12.5750 Y6.9003
G01 X12.5628 Y6.9094
G01 X12.5516 Y6.9196
G01 X12.5414 Y6.9308
G01 X12.5323 Y6.9430
G01 X12.5245 Y6.9561
G01 X12.5180 Y6.9698
G01 X12.5129 Y6.9841
G01 X12.5092 Y6.9988
G01 X12.5070 Y7.0138
G01 X12.5062 Y7.0290
G01 X12.5070 Y7.0442
G01 X12.5092 Y7.0592
G01 X12.5129 Y7.0739
G01 X12.5180 Y7.0882
G01 X12.5245 Y7.1019
G01 X12.5323 Y7.1150
G01 X12.5414 Y7.1272
G01 X12.5516 Y7.1384
G01 X12.5628 Y7.1486
G01 X12.5750 Y7.1577
G01 X12.5881 Y7.1655
G01 X12.6018 Y7.1720
G01 X12.6161 Y7.1771
G01 X12.6308 Y7.1808
G01 X12.6458 Y7.1830
G01 X12.6610 Y7.1837
G01 X12.6762 Y7.1830
G01 X12.6912 Y7.1808
G01 X12.7059 Y7.1771
G01 X12.7202 Y7.1720
G01 X12.7339 Y7.1655
G01 X12.7470 Y7.1577
G01 X12.7592 Y7.1486
G01 X12.7704 Y7.1384
G01 X12.7806 Y7.1272
G01 X12.7897 Y7.1150
G01 X12.7975 Y7.1019
G01 X12.8040 Y7.0882
G01 X12.8091 Y7.0739
G01 X12.8128 Y7.0592
G01 X12.8150 Y7.0442
G01 X12.8157 Y7.0290
G01 X12.8150 Y7.0138
G00 Z5.0000
G00 X15.9627 Y9.4930
G01 F5050.00
G01 Z-2.1000
G01 F500.00
G01 X15.9610 Y9.4582
G01 X15.9559 Y9.4238
G01 X15.9475 Y9.3900
G01 X15.9357 Y9.3572
G01 X15.9209 Y9.3258
G01 X15.9030 Y9.2959
G01 X15.8822 Y9.2679
G01 X15.8588 Y9.2422
G01 X15.8331 Y9.2188
G01 X15.8051 Y9.1980
G01 X15.7752 Y9.1801
G01 X15.7438 Y9.1653
G01 X15.7110 Y9.1535
G01 X15.6772 Y9.1451
G01 X15.6428 Y9.1400
G01 X15.6080 Y9.1383
G01 X15.5732 Y9.1400
G01 X15.5388 Y9.1451
G01 X15.5050 Y9.1535
G01 X15.4722 Y9.1653
G01 X15.4408 Y9.1801
G01 X15.4109 Y9.1980
G01 X15.3829 Y9.2188
G01 X15.3572 Y9.2422
G01 X15.3338 Y9.2679
G01 X15.3130 Y9.2959
G01 X15.2951 Y9.3258
G01 X15.2803 Y9.3572
G01 X15.2685 Y9.3900
G01 X15.2601 Y9.4238
G01 X15.2550 Y9.4582
G01 X15.2533 Y9.4930
G01 X15.2550 Y9.5278
G01 X15.2601 Y9.5622
G01 X15.2685 Y9.5960
G01 X15.2803 Y9.6288
G01 X15.2951 Y9.6602
G01 X15.3130 Y9.6901
G01 X15.3338 Y9.7181
G01 X15.3572 Y9.7438
G01 X15.3829 Y9.7672
G01 X15.4109 Y9.7880
G01 X15.4408 Y9.8059
G01 X15.4722 Y9.8207
G01 X15.5050 Y9.8325
G01 X15.5388 Y9.8409
G01 X15.5732 Y9.8460
G01 X15.6080 Y9.8477
G01 X15.6428 Y9.8460
G01 X15.6772 Y9.8409
G01 X15.7110 Y9.8325
G01 X15.7438 Y9.8207
G01 X15.7752 Y9.8059
G01 X15.8051 Y9.7880
G01 X15.8331 Y9.7672
G01 X15.8588 Y9.7438
G01 X15.8822 Y9.7181
G01 X15.9030 Y9.6901
G01 X15.9209 Y9.6602
G01 X15.9357 Y9.6288
G01 X15.9475 Y9.5960
G01 X15.9559 Y9.5622
G01 X15.9610 Y9.5278
G01 X15.9627 Y9.4930
G01 X15.9610 Y9.4582
G00 Z5.0000
G00 X19.3917 Y11.3980
G01 F5050.00
G01 Z-2.1000
G01 F500.00
G01 X19.3900 Y11.3632
G01 X19.3849 Y11.3288
G01 X19.3765 Y11.2950
G01 X19.3647 Y11.2622
G01 X19.3499 Y11.2308
G01 X19.3320 Y11.2009
G01 X19.3112 Y11.1729
G01 X19.2878 Y11.1472
G01 X19.2621 Y11.1238
G01 X19.2341 Y11.1030
G01 X19.2042 Y11.0851
G01 X19.1728 Y11.0703
G01 X19.1400 Y11.0585
G01 X19.1062 Y11.0501
G01 X19.0718 Y11.0450
G01 X19.0370 Y11.0433
G01 X19.0022 Y11.0450
G01 X18.9678 Y11.0501
G01 X18.9340 Y11.0585
G01 X18.9012 Y11.0703
G01 X18.8698 Y11.0851
G01 X18.8399 Y11.1030
G01 X18.8119 Y11.1238
G01 X18.7862 Y11.1472
G01 X18.7628 Y11.1729
G01 X18.7420 Y11.2009
G01 X18.7241 Y11.2308
G01 X18.7093 Y11.2622
G01 X18.6975 Y11.2950
G01 X18.6891 Y11.3288
G01 X18.6840 Y11.3632
G01 X18.6822 Y11.3980
G01 X18.6840 Y11.4328
G01 X18.6891 Y11.4672
G01 X18.6975 Y11.5010
G01 X18.7093 Y11.5338
G01 X18.7241 Y11.5652
G01 X18.7420 Y11.5951
G01 X18.7628 Y11.6231
G01 X18.7862 Y11.6488
G01 X18.8119 Y11.6722
G01 X18.8399 Y11.6930
G01 X18.8698 Y11.7109
G01 X18.9012 Y11.7257
G01 X18.9340 Y11.7375
G01 X18.9678 Y11.7459
G01 X19.0022 Y11.7510
G01 X19.0370 Y11.7527
G01 X19.0718 Y11.7510
G01 X19.1062 Y11.7459
G01 X19.1400 Y11.7375
G01 X19.1728 Y11.7257
G01 X19.2042 Y11.7109
G01 X19.2341 Y11.6930
G01 X19.2621 Y11.6722
G01 X19.2878 Y11.6488
G01 X19.3112 Y11.6231
G01 X19.3320 Y11.5951
G01 X19.3499 Y11.5652
G01 X19.3647 Y11.5338
G01 X19.3765 Y11.5010
G01 X19.3849 Y11.4672
G01 X19.3900 Y11.4328
G01 X19.3917 Y11.3980
G01 X19.3900 Y11.3632
G00 Z5.0000
G00 X22.5948 Y13.3030
G01 F5050.00
G01 Z-2.1000
G01 F500.00
G01 X22.5940 Y13.2878
G01 X22.5918 Y13.2728
G01 X22.5881 Y13.2581
G01 X22.5830 Y13.2438
G01 X22.5765 Y13.2301
G01 X22.5687 Y13.2170
G01 X22.5596 Y13.2048
G01 X22.5494 Y13.1936
G01 X22.5382 Y13.1834
G01 X22.5260 Y13.1743
G01 X22.5129 Y13.1665
G01 X22.4992 Y13.1600
G01 X22.4849 Y13.1549
G01 X22.4702 Y13.1512
G01 X22.4552 Y13.1490
G01 X22.4400 Y13.1483
G01 X22.4248 Y13.1490
G01 X22.4098 Y13.1512
G01 X22.3951 Y13.1549
G01 X22.3808 Y13.1600
G01 X22.3671 Y13.1665
G01 X22.3540 Y13.1743
G01 X22.3418 Y13.1834
G01 X22.3306 Y13.1936
G01 X22.3204 Y13.2048
G01 X22.3113 Y13.2170
G01 X22.3035 Y13.2301
G01 X22.2970 Y13.2438
G01 X22.2919 Y13.2581
G01 X22.2882 Y13.2728
G01 X22.2860 Y13.2878
G01 X22.2853 Y13.3030
G01 X22.2860 Y13.3182
G01 X22.2882 Y13.3332
G01 X22.2919 Y13.3479
G01 X22.2970 Y13.3622
G01 X22.3035 Y13.3759
G01 X22.3113 Y13.3890
G01 X22.3204 Y13.4012
G01 X22.3306 Y13.4124
G01 X22.3418 Y13.4226
G01 X22.3540 Y13.4317
G01 X22.3671 Y13.4395
G01 X22.3808 Y13.4460
G01 X22.3951 Y13.4511
G01 X22.4098 Y13.4548
G01 X22.4248 Y13.4570
G01 X22.4400 Y13.4578
G01 X22.4552 Y13.4570
G01 X22.4702 Y13.4548
G01 X22.4849 Y13.4511
G01 X22.4992 Y13.4460
G01 X22.5129 Y13.4395
G01 X22.5260 Y13.4317
G01 X22.5382 Y13.4226
G01 X22.5494 Y13.4124
G01 X22.5596 Y13.4012
G01 X22.5687 Y13.3890
G01 X22.5765 Y13.3759
G01 X22.5830 Y13.3622
G01 X22.5881 Y13.3479
G01 X22.5918 Y13.3332
G01 X22.5940 Y13.3182
G01 X22.5948 Y13.3030
G01 X22.5940 Y13.2878
G00 Z5.0000
G00 X19.3917 Y15.5890
G01 F5050.00
G01 Z-2.1000
G01 F500.00
G01 X19.3900 Y15.5542
G01 X19.3849 Y15.5198
G01 X19.3765 Y15.4860
G01 X19.3647 Y15.4532
G01 X19.3499 Y15.4218
G01 X19.3320 Y15.3919
G01 X19.3112 Y15.3639
G01 X19.2878 Y15.3382
G01 X19.2621 Y15.3148
G01 X19.2341 Y15.2940
G01 X19.2042 Y15.2761
G01 X19.1728 Y15.2613
G01 X19.1400 Y15.2495
G01 X19.1062 Y15.2411
G01 X19.0718 Y15.2360
G01 X19.0370 Y15.2343
G01 X19.0022 Y15.2360
G01 X18.9678 Y15.2411
G01 X18.9340 Y15.2495
G01 X18.9012 Y15.2613
G01 X18.8698 Y15.2761
G01 X18.8399 Y15.2940
G01 X18.8119 Y15.3148
G01 X18.7862 Y15.3382
G01 X18.7628 Y15.3639
G01 X18.7420 Y15.3919
G01 X18.7241 Y15.4218
G01 X18.7093 Y15.4532
G01 X18.6975 Y15.4860
G01 X18.6891 Y15.5198
G01 X18.6840 Y15.5542
G01 X18.6822 Y15.5890
G01 X18.6840 Y15.6238
G01 X18.6891 Y15.6582
G01 X18.6975 Y15.6920
G01 X18.7093 Y15.7248
G01 X18.7241 Y15.7562
G01 X18.7420 Y15.7861
G01 X18.7628 Y15.8141
G01 X18.7862 Y15.8398
G01 X18.8119 Y15.8632
G01 X18.8399 Y15.8840
G01 X18.8698 Y15.9019
G01 X18.9012 Y15.9167
G01 X18.9340 Y15.9285
G01 X18.9678 Y15.9369
G01 X19.0022 Y15.9420
G01 X19.0370 Y15.9437
G01 X19.0718 Y15.9420
G01 X19.1062 Y15.9369
G01 X19.1400 Y15.9285
G01 X19.1728 Y15.9167
G01 X19.2042 Y15.9019
G01 X19.2341 Y15.8840
G01 X19.2621 Y15.8632
G01 X19.2878 Y15.8398
G01 X19.3112 Y15.8141
G01 X19.3320 Y15.7861
G01 X19.3499 Y15.7562
G01 X19.3647 Y15.7248
G01 X19.3765 Y15.6920
G01 X19.3849 Y15.6582
G01 X19.3900 Y15.6238
G01 X19.3917 Y15.5890
G01 X19.3900 Y15.5542
G00 Z5.0000
G00 X15.9627 Y17.6210
G01 F5050.00
G01 Z-2.1000
G01 F500.00
G01 X15.9610 Y17.5862
G01 X15.9559 Y17.5518
G01 X15.9475 Y17.5180
G01 X15.9357 Y17.4852
G01 X15.9209 Y17.4538
G01 X15.9030 Y17.4239
G01 X15.8822 Y17.3959
G01 X15.8588 Y17.3702
G01 X15.8331 Y17.3468
G01 X15.8051 Y17.3260
G01 X15.7752 Y17.3081
G01 X15.7438 Y17.2933
G01 X15.7110 Y17.2815
G01 X15.6772 Y17.2731
G01 X15.6428 Y17.2680
G01 X15.6080 Y17.2662
G01 X15.5732 Y17.2680
G01 X15.5388 Y17.2731
G01 X15.5050 Y17.2815
G01 X15.4722 Y17.2933
G01 X15.4408 Y17.3081
G01 X15.4109 Y17.3260
G01 X15.3829 Y17.3468
G01 X15.3572 Y17.3702
G01 X15.3338 Y17.3959
G01 X15.3130 Y17.4239
G01 X15.2951 Y17.4538
G01 X15.2803 Y17.4852
G01 X15.2685 Y17.5180
G01 X15.2601 Y17.5518
G01 X15.2550 Y17.5862
G01 X15.2533 Y17.6210
G01 X15.2550 Y17.6558
G01 X15.2601 Y17.6902
G01 X15.2685 Y17.7240
G01 X15.2803 Y17.7568
G01 X15.2951 Y17.7882
G01 X15.3130 Y17.8181
G01 X15.3338 Y17.8461
G01 X15.3572 Y17.8718
G01 X15.3829 Y17.8952
G01 X15.4109 Y17.9160
G01 X15.4408 Y17.9339
G01 X15.4722 Y17.9487
G01 X15.5050 Y17.9605
G01 X15.5388 Y17.9689
G01 X15.5732 Y17.9740
G01 X15.6080 Y17.9757
G01 X15.6428 Y17.9740
G01 X15.6772 Y17.9689
G01 X15.7110 Y17.9605
G01 X15.7438 Y17.9487
G01 X15.7752 Y17.9339
G01 X15.8051 Y17.9160
G01 X15.8331 Y17.8952
G01 X15.8588 Y17.8718
G01 X15.8822 Y17.8461
G01 X15.9030 Y17.8181
G01 X15.9209 Y17.7882
G01 X15.9357 Y17.7568
G01 X15.9475 Y17.7240
G01 X15.9559 Y17.6902
G01 X15.9610 Y17.6558
G01 X15.9627 Y17.6210
G01 X15.9610 Y17.5862
G00 Z5.0000
G00 X12.5337 Y15.7160
G01 F5050.00
G01 Z-2.1000
G01 F500.00
G01 X12.5320 Y15.6812
G01 X12.5269 Y15.6468
G01 X12.5185 Y15.6130
G01 X12.5067 Y15.5802
G01 X12.4919 Y15.5488
G01 X12.4740 Y15.5189
G01 X12.4532 Y15.4909
G01 X12.4298 Y15.4652
G01 X12.4041 Y15.4418
G01 X12.3761 Y15.4210
G01 X12.3462 Y15.4031
G01 X12.3148 Y15.3883
G01 X12.2820 Y15.3765
G01 X12.2482 Y15.3681
G01 X12.2138 Y15.3630
G01 X12.1790 Y15.3613
G01 X12.1442 Y15.3630
G01 X12.1098 Y15.3681
G01 X12.0760 Y15.3765
G01 X12.0432 Y15.3883
G01 X12.0118 Y15.4031
G01 X11.9819 Y15.4210
G01 X11.9539 Y15.4418
G01 X11.9282 Y15.4652
G01 X11.9048 Y15.4909
G01 X11.8840 Y15.5189
G01 X11.8661 Y15.5488
G01 X11.8513 Y15.5802
G01 X11.8395 Y15.6130
G01 X11.8311 Y15.6468
G01 X11.8260 Y15.6812
G01 X11.8243 Y15.7160
G01 X11.8260 Y15.7508
G01 X11.8311 Y15.7852
G01 X11.8395 Y15.8190
G01 X11.8513 Y15.8518
G01 X11.8661 Y15.8832
G01 X11.8840 Y15.9131
G01 X11.9048 Y15.9411
G01 X11.9282 Y15.9668
G01 X11.9539 Y15.9902
G01 X11.9819 Y16.0110
G01 X12.0118 Y16.0289
G01 X12.0432 Y16.0437
G01 X12.0760 Y16.0555
G01 X12.1098 Y16.0639
G01 X12.1442 Y16.0690
G01 X12.1790 Y16.0708
G01 X12.2138 Y16.0690
G01 X12.2482 Y16.0639
G01 X12.2820 Y16.0555
G01 X12.3148 Y16.0437
G01 X12.3462 Y16.0289
G01 X12.3761 Y16.0110
G01 X12.4041 Y15.9902
G01 X12.4298 Y15.9668
G01 X12.4532 Y15.9411
G01 X12.4740 Y15.9131
G01 X12.4919 Y15.8832
G01 X12.5067 Y15.8518
G01 X12.5185 Y15.8190
G01 X12.5269 Y15.7852
G01 X12.5320 Y15.7508
G01 X12.5337 Y15.7160
G01 X12.5320 Y15.6812
G00 Z5.0000
G00 X15.9627 Y13.5570
G01 F5050.00
G01 Z-2.1000
G01 F500.00
G01 X15.9610 Y13.5222
G01 X15.9559 Y13.4878
G01 X15.9475 Y13.4540
G01 X15.9357 Y13.4212
G01 X15.9209 Y13.3898
G01 X15.9030 Y13.3599
G01 X15.8822 Y13.3319
G01 X15.8588 Y13.3062
G01 X15.8331 Y13.2828
G01 X15.8051 Y13.2620
G01 X15.7752 Y13.2441
G01 X15.7438 Y13.2293
G01 X15.7110 Y13.2175
G01 X15.6772 Y13.2091
G01 X15.6428 Y13.2040
G01 X15.6080 Y13.2023
G01 X15.5732 Y13.2040
G01 X15.5388 Y13.2091
G01 X15.5050 Y13.2175
G01 X15.4722 Y13.2293
G01 X15.4408 Y13.2441
G01 X15.4109 Y13.2620
G01 X15.3829 Y13.2828
G01 X15.3572 Y13.3062
G01 X15.3338 Y13.3319
G01 X15.3130 Y13.3599
G01 X15.2951 Y13.3898
G01 X15.2803 Y13.4212
G01 X15.2685 Y13.4540
G01 X15.2601 Y13.4878
G01 X15.2550 Y13.5222
G01 X15.2533 Y13.5570
G01 X15.2550 Y13.5918
G01 X15.2601 Y13.6262
G01 X15.2685 Y13.6600
G01 X15.2803 Y13.6928
G01 X15.2951 Y13.7242
G01 X15.3130 Y13.7541
G01 X15.3338 Y13.7821
G01 X15.3572 Y13.8078
G01 X15.3829 Y13.8312
G01 X15.4109 Y13.8520
G01 X15.4408 Y13.8699
G01 X15.4722 Y13.8847
G01 X15.5050 Y13.8965
G01 X15.5388 Y13.9049
G01 X15.5732 Y13.9100
G01 X15.6080 Y13.9117
G01 X15.6428 Y13.9100
G01 X15.6772 Y13.9049
G01 X15.7110 Y13.8965
G01 X15.7438 Y13.8847
G01 X15.7752 Y13.8699
G01 X15.8051 Y13.8520
G01 X15.8331 Y13.8312
G01 X15.8588 Y13.8078
G01 X15.8822 Y13.7821
G01 X15.9030 Y13.7541
G01 X15.9209 Y13.7242
G01 X15.9357 Y13.6928
G01 X15.9475 Y13.6600
G01 X15.9559 Y13.6262
G01 X15.9610 Y13.5918
G01 X15.9627 Y13.5570
G01 X15.9610 Y13.5222
G00 Z5.0000
G00 X12.5337 Y11.6520
G01 F5050.00
G01 Z-2.1000
G01 F500.00
G01 X12.5320 Y11.6172
G01 X12.5269 Y11.5828
G01 X12.5185 Y11.5490
G01 X12.5067 Y11.5162
G01 X12.4919 Y11.4848
G01 X12.4740 Y11.4549
G01 X12.4532 Y11.4269
G01 X12.4298 Y11.4012
G01 X12.4041 Y11.3778
G01 X12.3761 Y11.3570
G01 X12.3462 Y11.3391
G01 X12.3148 Y11.3243
G01 X12.2820 Y11.3125
G01 X12.2482 Y11.3041
G01 X12.2138 Y11.2990
G01 X12.1790 Y11.2973
G01 X12.1442 Y11.2990
G01 X12.1098 Y11.3041
G01 X12.0760 Y11.3125
G01 X12.0432 Y11.3243
G01 X12.0118 Y11.3391
G01 X11.9819 Y11.3570
G01 X11.9539 Y11.3778
G01 X11.9282 Y11.4012
G01 X11.9048 Y11.4269
G01 X11.8840 Y11.4549
G01 X11.8661 Y11.4848
G01 X11.8513 Y11.5162
G01 X11.8395 Y11.5490
G01 X11.8311 Y11.5828
G01 X11.8260 Y11.6172
G01 X11.8243 Y11.6520
G01 X11.8260 Y11.6868
G01 X11.8311 Y11.7212
G01 X11.8395 Y11.7550
G01 X11.8513 Y11.7878
G01 X11.8661 Y11.8192
G01 X11.8840 Y11.8491
G01 X11.9048 Y11.8771
G01 X11.9282 Y11.9028
G01 X11.9539 Y11.9262
G01 X11.9819 Y11.9470
G01 X12.0118 Y11.9649
G01 X12.0432 Y11.9797
G01 X12.0760 Y11.9915
G01 X12.1098 Y11.9999
G01 X12.1442 Y12.0050
G01 X12.1790 Y12.0067
G01 X12.2138 Y12.0050
G01 X12.2482 Y11.9999
G01 X12.2820 Y11.9915
G01 X12.3148 Y11.9797
G01 X12.3462 Y11.9649
G01 X12.3761 Y11.9470
G01 X12.4041 Y11.9262
G01 X12.4298 Y11.9028
G01 X12.4532 Y11.8771
G01 X12.4740 Y11.8491
G01 X12.4919 Y11.8192
G01 X12.5067 Y11.7878
G01 X12.5185 Y11.7550
G01 X12.5269 Y11.7212
G01 X12.5320 Y11.6868
G01 X12.5337 Y11.6520
G01 X12.5320 Y11.6172
G00 Z5.0000
G00 X11.0228 Y3.0170
G01 F5050.00
G01 Z-2.1000
G01 F500.00
G01 X11.0220 Y3.0018
G01 X11.0198 Y2.9868
G01 X11.0161 Y2.9721
G01 X11.0110 Y2.9578
G01 X11.0045 Y2.9441
G01 X10.9967 Y2.9310
G01 X10.9876 Y2.9188
G01 X10.9774 Y2.9076
G01 X10.9662 Y2.8974
G01 X10.9540 Y2.8883
G01 X10.9409 Y2.8805
G01 X10.9272 Y2.8740
G01 X10.9129 Y2.8689
G01 X10.8982 Y2.8652
G01 X10.8832 Y2.8630
G01 X10.8680 Y2.8622
G01 X10.8528 Y2.8630
G01 X10.8378 Y2.8652
G01 X10.8231 Y2.8689
G01 X10.8088 Y2.8740
G01 X10.7951 Y2.8805
G01 X10.7820 Y2.8883
G01 X10.7698 Y2.8974
G01 X10.7586 Y2.9076
G01 X10.7484 Y2.9188
G01 X10.7393 Y2.9310
G01 X10.7315 Y2.9441
G01 X10.7250 Y2.9578
G01 X10.7199 Y2.9721
G01 X10.7162 Y2.9868
G01 X10.7140 Y3.0018
G01 X10.7133 Y3.0170
G01 X10.7140 Y3.0322
G01 X10.7162 Y3.0472
G01 X10.7199 Y3.0619
G01 X10.7250 Y3.0762
G01 X10.7315 Y3.0899
G01 X10.7393 Y3.1030
G01 X10.7484 Y3.1152
G01 X10.7586 Y3.1264
G01 X10.7698 Y3.1366
G01 X10.7820 Y3.1457
G01 X10.7951 Y3.1535
G01 X10.8088 Y3.1600
G01 X10.8231 Y3.1651
G01 X10.8378 Y3.1688
G01 X10.8528 Y3.1710
G01 X10.8680 Y3.1717
G01 X10.8832 Y3.1710
G01 X10.8982 Y3.1688
G01 X10.9129 Y3.1651
G01 X10.9272 Y3.1600
G01 X10.9409 Y3.1535
G01 X10.9540 Y3.1457
G01 X10.9662 Y3.1366
G01 X10.9774 Y3.1264
G01 X10.9876 Y3.1152
G01 X10.9967 Y3.1030
G01 X11.0045 Y3.0899
G01 X11.0110 Y3.0762
G01 X11.0161 Y3.0619
G01 X11.0198 Y3.0472
G01 X11.0220 Y3.0322
G01 X11.0228 Y3.0170
G01 X11.0220 Y3.0018
G00 Z5.0000
G00 X15.9618 Y3.0190
G01 F5050.00
G01 Z-2.1000
G01 F500.00
G01 X15.9610 Y3.0038
G01 X15.9588 Y2.9888
G01 X15.9551 Y2.9741
G01 X15.9500 Y2.9598
G01 X15.9435 Y2.9461
G01 X15.9357 Y2.9330
G01 X15.9266 Y2.9208
G01 X15.9164 Y2.9096
G01 X15.9052 Y2.8994
G01 X15.8930 Y2.8903
G01 X15.8799 Y2.8825
G01 X15.8662 Y2.8760
G01 X15.8519 Y2.8709
G01 X15.8372 Y2.8672
G01 X15.8222 Y2.8650
G01 X15.8070 Y2.8643
G01 X15.7918 Y2.8650
G01 X15.7768 Y2.8672
G01 X15.7621 Y2.8709
G01 X15.7478 Y2.8760
G01 X15.7341 Y2.8825
G01 X15.7210 Y2.8903
G01 X15.7088 Y2.8994
G01 X15.6976 Y2.9096
G01 X15.6874 Y2.9208
G01 X15.6783 Y2.9330
G01 X15.6705 Y2.9461
G01 X15.6640 Y2.9598
G01 X15.6589 Y2.9741
G01 X15.6552 Y2.9888
G01 X15.6530 Y3.0038
G01 X15.6523 Y3.0190
G01 X15.6530 Y3.0342
G01 X15.6552 Y3.0492
G01 X15.6589 Y3.0639
G01 X15.6640 Y3.0782
G01 X15.6705 Y3.0919
G01 X15.6783 Y3.1050
G01 X15.6874 Y3.1172
G01 X15.6976 Y3.1284
G01 X15.7088 Y3.1386
G01 X15.7210 Y3.1477
G01 X15.7341 Y3.1555
G01 X15.7478 Y3.1620
G01 X15.7621 Y3.1671
G01 X15.7768 Y3.1708
G01 X15.7918 Y3.1730
G01 X15.8070 Y3.1738
G01 X15.8222 Y3.1730
G01 X15.8372 Y3.1708
G01 X15.8519 Y3.1671
G01 X15.8662 Y3.1620
G01 X15.8799 Y3.1555
G01 X15.8930 Y3.1477
G01 X15.9052 Y3.1386
G01 X15.9164 Y3.1284
G01 X15.9266 Y3.1172
G01 X15.9357 Y3.1050
G01 X15.9435 Y3.0919
G01 X15.9500 Y3.0782
G01 X15.9551 Y3.0639
G01 X15.9588 Y3.0492
G01 X15.9610 Y3.0342
G01 X15.9618 Y3.0190
G01 X15.9610 Y3.0038
G00 Z5.0000
G00 X12.8667 Y23.4120
G01 F5050.00
G01 Z-2.1000
G01 F500.00
G01 X12.8660 Y23.3968
G01 X12.8638 Y23.3818
G01 X12.8601 Y23.3671
G01 X12.8550 Y23.3528
G01 X12.8485 Y23.3391
G01 X12.8407 Y23.3260
G01 X12.8316 Y23.3138
G01 X12.8214 Y23.3026
G01 X12.8102 Y23.2924
G01 X12.7980 Y23.2833
G01 X12.7849 Y23.2755
G01 X12.7712 Y23.2690
G01 X12.7569 Y23.2639
G01 X12.7422 Y23.2602
G01 X12.7272 Y23.2580
G01 X12.7120 Y23.2572
G01 X12.6968 Y23.2580
G01 X12.6818 Y23.2602
G01 X12.6671 Y23.2639
G01 X12.6528 Y23.2690
G01 X12.6391 Y23.2755
G01 X12.6260 Y23.2833
G01 X12.6138 Y23.2924
G01 X12.6026 Y23.3026
G01 X12.5924 Y23.3138
G01 X12.5833 Y23.3260
G01 X12.5755 Y23.3391
G01 X12.5690 Y23.3528
G01 X12.5639 Y23.3671
G01 X12.5602 Y23.3818
G01 X12.5580 Y23.3968
G01 X12.5572 Y23.4120
G01 X12.5580 Y23.4272
G01 X12.5602 Y23.4422
G01 X12.5639 Y23.4569
G01 X12.5690 Y23.4712
G01 X12.5755 Y23.4849
G01 X12.5833 Y23.4980
G01 X12.5924 Y23.5102
G01 X12.6026 Y23.5214
G01 X12.6138 Y23.5316
G01 X12.6260 Y23.5407
G01 X12.6391 Y23.5485
G01 X12.6528 Y23.5550
G01 X12.6671 Y23.5601
G01 X12.6818 Y23.5638
G01 X12.6968 Y23.5660
G01 X12.7120 Y23.5667
G01 X12.7272 Y23.5660
G01 X12.7422 Y23.5638
G01 X12.7569 Y23.5601
G01 X12.7712 Y23.5550
G01 X12.7849 Y23.5485
G01 X12.7980 Y23.5407
G01 X12.8102 Y23.5316
G01 X12.8214 Y23.5214
G01 X12.8316 Y23.5102
G01 X12.8407 Y23.4980
G01 X12.8485 Y23.4849
G01 X12.8550 Y23.4712
G01 X12.8601 Y23.4569
G01 X12.8638 Y23.4422
G01 X12.8660 Y23.4272
G01 X12.8667 Y23.4120
G01 X12.8660 Y23.3968
G00 Z5.0000
G00 X12.0057 Y26.6630
G01 F5050.00
G01 Z-2.1000
G01 F500.00
G01 X12.0044 Y26.6596
G01 X12.0010 Y26.6582
G01 X11.9976 Y26.6596
G01 X11.9962 Y26.6630
G01 X11.9976 Y26.6664
G01 X12.0010 Y26.6678
G01 X12.0044 Y26.6664
G01 X12.0057 Y26.6630
G01 X12.0044 Y26.6596
G00 Z5.0000
G00 X14.5457 Y26.6630
G01 F5050.00
G01 Z-2.1000
G01 F500.00
G01 X14.5444 Y26.6596
G01 X14.5410 Y26.6582
G01 X14.5376 Y26.6596
G01 X14.5363 Y26.6630
G01 X14.5376 Y26.6664
G01 X14.5410 Y26.6678
G01 X14.5444 Y26.6664
G01 X14.5457 Y26.6630
G01 X14.5444 Y26.6596
G00 Z5.0000
G00 X17.0858 Y26.6630
G01 F5050.00
G01 Z-2.1000
G01 F500.00
G01 X17.0844 Y26.6596
G01 X17.0810 Y26.6582
G01 X17.0776 Y26.6596
G01 X17.0762 Y26.6630
G01 X17.0776 Y26.6664
G01 X17.0810 Y26.6678
G01 X17.0844 Y26.6664
G01 X17.0858 Y26.6630
G01 X17.0844 Y26.6596
G00 Z5.0000
G00 X19.6258 Y26.6630
G01 F5050.00
G01 Z-2.1000
G01 F500.00
G01 X19.6244 Y26.6596
G01 X19.6210 Y26.6582
G01 X19.6176 Y26.6596
G01 X19.6162 Y26.6630
G01 X19.6176 Y26.6664
G01 X19.6210 Y26.6678
G01 X19.6244 Y26.6664
G01 X19.6258 Y26.6630
G01 X19.6244 Y26.6596
G00 Z5.0000
G00 X19.6258 Y34.2830
G01 F5050.00
G01 Z-2.1000
G01 F500.00
G01 X19.6244 Y34.2796
G01 X19.6210 Y34.2782
G01 X19.6176 Y34.2796
G01 X19.6162 Y34.2830
G01 X19.6176 Y34.2864
G01 X19.6210 Y34.2878
G01 X19.6244 Y34.2864
G01 X19.6258 Y34.2830
G01 X19.6244 Y34.2796
G00 Z5.0000
G00 X17.0858 Y34.2830
G01 F5050.00
G01 Z-2.1000
G01 F500.00
G01 X17.0844 Y34.2796
G01 X17.0810 Y34.2782
G01 X17.0776 Y34.2796
G01 X17.0762 Y34.2830
G01 X17.0776 Y34.2864
G01 X17.0810 Y34.2878
G01 X17.0844 Y34.2864
G01 X17.0858 Y34.2830
G01 X17.0844 Y34.2796
G00 Z5.0000
G00 X14.5457 Y34.2830
G01 F5050.00
G01 Z-2.1000
G01 F500.00
G01 X14.5444 Y34.2796
G01 X14.5410 Y34.2782
G01 X14.5376 Y34.2796
G01 X14.5363 Y34.2830
G01 X14.5376 Y34.2864
G01 X14.5410 Y34.2878
G01 X14.5444 Y34.2864
G01 X14.5457 Y34.2830
G01 X14.5444 Y34.2796
G00 Z5.0000
G00 X12.0057 Y34.2830
G01 F5050.00
G01 Z-2.1000
G01 F500.00
G01 X12.0044 Y34.2796
G01 X12.0010 Y34.2782
G01 X11.9976 Y34.2796
G01 X11.9962 Y34.2830
G01 X11.9976 Y34.2864
G01 X12.0010 Y34.2878
G01 X12.0044 Y34.2864
G01 X12.0057 Y34.2830
G01 X12.0044 Y34.2796
G00 Z5.0000
G00 X2.7317 Y34.9180
G01 F5050.00
G01 Z-2.1000
G01 F500.00
G01 X2.7310 Y34.9028
G01 X2.7288 Y34.8878
G01 X2.7251 Y34.8731
G01 X2.7200 Y34.8588
G01 X2.7135 Y34.8451
G01 X2.7057 Y34.8320
G01 X2.6966 Y34.8198
G01 X2.6864 Y34.8086
G01 X2.6752 Y34.7984
G01 X2.6630 Y34.7893
G01 X2.6499 Y34.7815
G01 X2.6362 Y34.7750
G01 X2.6219 Y34.7699
G01 X2.6072 Y34.7662
G01 X2.5922 Y34.7640
G01 X2.5770 Y34.7632
G01 X2.5618 Y34.7640
G01 X2.5468 Y34.7662
G01 X2.5321 Y34.7699
G01 X2.5178 Y34.7750
G01 X2.5041 Y34.7815
G01 X2.4910 Y34.7893
G01 X2.4788 Y34.7984
G01 X2.4676 Y34.8086
G01 X2.4574 Y34.8198
G01 X2.4483 Y34.8320
G01 X2.4405 Y34.8451
G01 X2.4340 Y34.8588
G01 X2.4289 Y34.8731
G01 X2.4252 Y34.8878
G01 X2.4230 Y34.9028
G01 X2.4223 Y34.9180
G01 X2.4230 Y34.9332
G01 X2.4252 Y34.9482
G01 X2.4289 Y34.9629
G01 X2.4340 Y34.9772
G01 X2.4405 Y34.9909
G01 X2.4483 Y35.0040
G01 X2.4574 Y35.0162
G01 X2.4676 Y35.0274
G01 X2.4788 Y35.0376
G01 X2.4910 Y35.0467
G01 X2.5041 Y35.0545
G01 X2.5178 Y35.0610
G01 X2.5321 Y35.0661
G01 X2.5468 Y35.0698
G01 X2.5618 Y35.0720
G01 X2.5770 Y35.0727
G01 X2.5922 Y35.0720
G01 X2.6072 Y35.0698
G01 X2.6219 Y35.0661
G01 X2.6362 Y35.0610
G01 X2.6499 Y35.0545
G01 X2.6630 Y35.0467
G01 X2.6752 Y35.0376
G01 X2.6864 Y35.0274
G01 X2.6966 Y35.0162
G01 X2.7057 Y35.0040
G01 X2.7135 Y34.9909
G01 X2.7200 Y34.9772
G01 X2.7251 Y34.9629
G01 X2.7288 Y34.9482
G01 X2.7310 Y34.9332
G01 X2.7317 Y34.9180
G01 X2.7310 Y34.9028
G00 Z5.0000
G00 X30.8257 Y50.0640
G01 F5050.00
G01 Z-2.1000
G01 F500.00
G01 X30.8250 Y50.0488
G01 X30.8228 Y50.0338
G01 X30.8191 Y50.0191
G01 X30.8140 Y50.0048
G01 X30.8075 Y49.9911
G01 X30.7997 Y49.9780
G01 X30.7906 Y49.9658
G01 X30.7804 Y49.9546
G01 X30.7692 Y49.9444
G01 X30.7570 Y49.9353
G01 X30.7439 Y49.9275
G01 X30.7302 Y49.9210
G01 X30.7159 Y49.9159
G01 X30.7012 Y49.9122
G01 X30.6862 Y49.9100
G01 X30.6710 Y49.9093
G01 X30.6558 Y49.9100
G01 X30.6408 Y49.9122
G01 X30.6261 Y49.9159
G01 X30.6118 Y49.9210
G01 X30.5981 Y49.9275
G01 X30.5850 Y49.9353
G01 X30.5728 Y49.9444
G01 X30.5616 Y49.9546
G01 X30.5514 Y49.9658
G01 X30.5423 Y49.9780
G01 X30.5345 Y49.9911
G01 X30.5280 Y50.0048
G01 X30.5229 Y50.0191
G01 X30.5192 Y50.0338
G01 X30.5170 Y50.0488
G01 X30.5162 Y50.0640
G01 X30.5170 Y50.0792
G01 X30.5192 Y50.0942
G01 X30.5229 Y50.1089
G01 X30.5280 Y50.1232
G01 X30.5345 Y50.1369
G01 X30.5423 Y50.1500
G01 X30.5514 Y50.1622
G01 X30.5616 Y50.1734
G01 X30.5728 Y50.1836
G01 X30.5850 Y50.1927
G01 X30.5981 Y50.2005
G01 X30.6118 Y50.2070
G01 X30.6261 Y50.2121
G01 X30.6408 Y50.2158
G01 X30.6558 Y50.2180
G01 X30.6710 Y50.2188
G01 X30.6862 Y50.2180
G01 X30.7012 Y50.2158
G01 X30.7159 Y50.2121
G01 X30.7302 Y50.2070
G01 X30.7439 Y50.2005
G01 X30.7570 Y50.1927
G01 X30.7692 Y50.1836
G01 X30.7804 Y50.1734
G01 X30.7906 Y50.1622
G01 X30.7997 Y50.1500
G01 X30.8075 Y50.1369
G01 X30.8140 Y50.1232
G01 X30.8191 Y50.1089
G01 X30.8228 Y50.0942
G01 X30.8250 Y50.0792
G01 X30.8257 Y50.0640
G01 X30.8250 Y50.0488
G00 Z5.0000
G00 X45.9117 Y50.6150
G01 F5050.00
G01 Z-2.1000
G01 F500.00
G01 X45.9110 Y50.5998
G01 X45.9088 Y50.5848
G01 X45.9051 Y50.5701
G01 X45.9000 Y50.5558
G01 X45.8935 Y50.5421
G01 X45.8857 Y50.5290
G01 X45.8766 Y50.5168
G01 X45.8664 Y50.5056
G01 X45.8552 Y50.4954
G01 X45.8430 Y50.4863
G01 X45.8299 Y50.4785
G01 X45.8162 Y50.4720
G01 X45.8019 Y50.4669
G01 X45.7872 Y50.4632
G01 X45.7722 Y50.4610
G01 X45.7570 Y50.4603
G01 X45.7418 Y50.4610
G01 X45.7268 Y50.4632
G01 X45.7121 Y50.4669
G01 X45.6978 Y50.4720
G01 X45.6841 Y50.4785
G01 X45.6710 Y50.4863
G01 X45.6588 Y50.4954
G01 X45.6476 Y50.5056
G01 X45.6374 Y50.5168
G01 X45.6283 Y50.5290
G01 X45.6205 Y50.5421
G01 X45.6140 Y50.5558
G01 X45.6089 Y50.5701
G01 X45.6052 Y50.5848
G01 X45.6030 Y50.5998
G01 X45.6022 Y50.6150
G01 X45.6030 Y50.6302
G01 X45.6052 Y50.6452
G01 X45.6089 Y50.6599
G01 X45.6140 Y50.6742
G01 X45.6205 Y50.6879
G01 X45.6283 Y50.7010
G01 X45.6374 Y50.7132
G01 X45.6476 Y50.7244
G01 X45.6588 Y50.7346
G01 X45.6710 Y50.7437
G01 X45.6841 Y50.7515
G01 X45.6978 Y50.7580
G01 X45.7121 Y50.7631
G01 X45.7268 Y50.7668
G01 X45.7418 Y50.7690
G01 X45.7570 Y50.7698
G01 X45.7722 Y50.7690
G01 X45.7872 Y50.7668
G01 X45.8019 Y50.7631
G01 X45.8162 Y50.7580
G01 X45.8299 Y50.7515
G01 X45.8430 Y50.7437
G01 X45.8552 Y50.7346
G01 X45.8664 Y50.7244
G01 X45.8766 Y50.7132
G01 X45.8857 Y50.7010
G01 X45.8935 Y50.6879
G01 X45.9000 Y50.6742
G01 X45.9051 Y50.6599
G01 X45.9088 Y50.6452
G01 X45.9110 Y50.6302
G01 X45.9117 Y50.6150
G01 X45.9110 Y50.5998
G00 Z5.0000
G00 X49.7658 Y49.8530
G01 F5050.00
G01 Z-2.1000
G01 F500.00
G01 X49.7628 Y49.7937
G01 X49.7541 Y49.7350
G01 X49.7397 Y49.6775
G01 X49.7197 Y49.6216
G01 X49.6943 Y49.5679
G01 X49.6638 Y49.5170
G01 X49.6285 Y49.4694
G01 X49.5886 Y49.4254
G01 X49.5446 Y49.3855
G01 X49.4970 Y49.3502
G01 X49.4461 Y49.3197
G01 X49.3924 Y49.2943
G01 X49.3365 Y49.2743
G01 X49.2790 Y49.2599
G01 X49.2203 Y49.2512
G01 X49.1610 Y49.2482
G01 X49.1017 Y49.2512
G01 X49.0430 Y49.2599
G01 X48.9855 Y49.2743
G01 X48.9296 Y49.2943
G01 X48.8759 Y49.3197
G01 X48.8250 Y49.3502
G01 X48.7774 Y49.3855
G01 X48.7334 Y49.4254
G01 X48.6935 Y49.4694
G01 X48.6582 Y49.5170
G01 X48.6277 Y49.5679
G01 X48.6023 Y49.6216
G01 X48.5823 Y49.6775
G01 X48.5679 Y49.7350
G01 X48.5592 Y49.7937
G01 X48.5562 Y49.8530
G01 X48.5592 Y49.9123
G01 X48.5679 Y49.9710
G01 X48.5823 Y50.0285
G01 X48.6023 Y50.0844
G01 X48.6277 Y50.1381
G01 X48.6582 Y50.1890
G01 X48.6935 Y50.2366
G01 X48.7334 Y50.2806
G01 X48.7774 Y50.3205
G01 X48.8250 Y50.3558
G01 X48.8759 Y50.3863
G01 X48.9296 Y50.4117
G01 X48.9855 Y50.4317
G01 X49.0430 Y50.4461
G01 X49.1017 Y50.4548
G01 X49.1610 Y50.4578
G01 X49.2203 Y50.4548
G01 X49.2790 Y50.4461
G01 X49.3365 Y50.4317
G01 X49.3924 Y50.4117
G01 X49.4461 Y50.3863
G01 X49.4970 Y50.3558
G01 X49.5446 Y50.3205
G01 X49.5886 Y50.2806
G01 X49.6285 Y50.2366
G01 X49.6638 Y50.1890
G01 X49.6943 Y50.1381
G01 X49.7197 Y50.0844
G01 X49.7397 Y50.0285
G01 X49.7541 Y49.9710
G01 X49.7628 Y49.9123
G01 X49.7658 Y49.8530
G01 X49.7628 Y49.7937
G00 Z5.0000
G00 X57.1318 Y49.8530
G01 F5050.00
G01 Z-2.1000
G01 F500.00
G01 X57.1288 Y49.7937
G01 X57.1201 Y49.7350
G01 X57.1057 Y49.6775
G01 X57.0857 Y49.6216
G01 X57.0603 Y49.5679
G01 X57.0298 Y49.5170
G01 X56.9945 Y49.4694
G01 X56.9546 Y49.4254
G01 X56.9106 Y49.3855
G01 X56.8630 Y49.3502
G01 X56.8121 Y49.3197
G01 X56.7584 Y49.2943
G01 X56.7025 Y49.2743
G01 X56.6450 Y49.2599
G01 X56.5863 Y49.2512
G01 X56.5270 Y49.2482
G01 X56.4677 Y49.2512
G01 X56.4090 Y49.2599
G01 X56.3515 Y49.2743
G01 X56.2956 Y49.2943
G01 X56.2419 Y49.3197
G01 X56.1910 Y49.3502
G01 X56.1434 Y49.3855
G01 X56.0994 Y49.4254
G01 X56.0595 Y49.4694
G01 X56.0242 Y49.5170
G01 X55.9937 Y49.5679
G01 X55.9683 Y49.6216
G01 X55.9483 Y49.6775
G01 X55.9339 Y49.7350
G01 X55.9252 Y49.7937
G01 X55.9222 Y49.8530
G01 X55.9252 Y49.9123
G01 X55.9339 Y49.9710
G01 X55.9483 Y50.0285
G01 X55.9683 Y50.0844
G01 X55.9937 Y50.1381
G01 X56.0242 Y50.1890
G01 X56.0595 Y50.2366
G01 X56.0994 Y50.2806
G01 X56.1434 Y50.3205
G01 X56.1910 Y50.3558
G01 X56.2419 Y50.3863
G01 X56.2956 Y50.4117
G01 X56.3515 Y50.4317
G01 X56.4090 Y50.4461
G01 X56.4677 Y50.4548
G01 X56.5270 Y50.4578
G01 X56.5863 Y50.4548
G01 X56.6450 Y50.4461
G01 X56.7025 Y50.4317
G01 X56.7584 Y50.4117
G01 X56.8121 Y50.3863
G01 X56.8630 Y50.3558
G01 X56.9106 Y50.3205
G01 X56.9546 Y50.2806
G01 X56.9945 Y50.2366
G01 X57.0298 Y50.1890
G01 X57.0603 Y50.1381
G01 X57.0857 Y50.0844
G01 X57.1057 Y50.0285
G01 X57.1201 Y49.9710
G01 X57.1288 Y49.9123
G01 X57.1318 Y49.8530
G01 X57.1288 Y49.7937
G00 Z5.0000
G00 X61.1778 Y56.4570
G01 F5050.00
G01 Z-2.1000
G01 F500.00
G01 X61.1770 Y56.4418
G01 X61.1748 Y56.4268
G01 X61.1711 Y56.4121
G01 X61.1660 Y56.3978
G01 X61.1595 Y56.3841
G01 X61.1517 Y56.3710
G01 X61.1426 Y56.3588
G01 X61.1324 Y56.3476
G01 X61.1212 Y56.3374
G01 X61.1090 Y56.3283
G01 X61.0959 Y56.3205
G01 X61.0822 Y56.3140
G01 X61.0679 Y56.3089
G01 X61.0532 Y56.3052
G01 X61.0382 Y56.3030
G01 X61.0230 Y56.3023
G01 X61.0078 Y56.3030
G01 X60.9928 Y56.3052
G01 X60.9781 Y56.3089
G01 X60.9638 Y56.3140
G01 X60.9501 Y56.3205
G01 X60.9370 Y56.3283
G01 X60.9248 Y56.3374
G01 X60.9136 Y56.3476
G01 X60.9034 Y56.3588
G01 X60.8943 Y56.3710
G01 X60.8865 Y56.3841
G01 X60.8800 Y56.3978
G01 X60.8749 Y56.4121
G01 X60.8712 Y56.4268
G01 X60.8690 Y56.4418
G01 X60.8683 Y56.4570
G01 X60.8690 Y56.4722
G01 X60.8712 Y56.4872
G01 X60.8749 Y56.5019
G01 X60.8800 Y56.5162
G01 X60.8865 Y56.5299
G01 X60.8943 Y56.5430
G01 X60.9034 Y56.5552
G01 X60.9136 Y56.5664
G01 X60.9248 Y56.5766
G01 X60.9370 Y56.5857
G01 X60.9501 Y56.5935
G01 X60.9638 Y56.6000
G01 X60.9781 Y56.6051
G01 X60.9928 Y56.6088
G01 X61.0078 Y56.6110
G01 X61.0230 Y56.6118
G01 X61.0382 Y56.6110
G01 X61.0532 Y56.6088
G01 X61.0679 Y56.6051
G01 X61.0822 Y56.6000
G01 X61.0959 Y56.5935
G01 X61.1090 Y56.5857
G01 X61.1212 Y56.5766
G01 X61.1324 Y56.5664
G01 X61.1426 Y56.5552
G01 X61.1517 Y56.5430
G01 X61.1595 Y56.5299
G01 X61.1660 Y56.5162
G01 X61.1711 Y56.5019
G01 X61.1748 Y56.4872
G01 X61.1770 Y56.4722
G01 X61.1778 Y56.4570
G01 X61.1770 Y56.4418
G00 Z5.0000
G00 X54.5988 Y59.8360
G01 F5050.00
G01 Z-2.1000
G01 F500.00
G01 X54.5980 Y59.8208
G01 X54.5958 Y59.8058
G01 X54.5921 Y59.7911
G01 X54.5870 Y59.7768
G01 X54.5805 Y59.7631
G01 X54.5727 Y59.7500
G01 X54.5636 Y59.7378
G01 X54.5534 Y59.7266
G01 X54.5422 Y59.7164
G01 X54.5300 Y59.7073
G01 X54.5169 Y59.6995
G01 X54.5032 Y59.6930
G01 X54.4889 Y59.6879
G01 X54.4742 Y59.6842
G01 X54.4592 Y59.6820
G01 X54.4440 Y59.6812
G01 X54.4288 Y59.6820
G01 X54.4138 Y59.6842
G01 X54.3991 Y59.6879
G01 X54.3848 Y59.6930
G01 X54.3711 Y59.6995
G01 X54.3580 Y59.7073
G01 X54.3458 Y59.7164
G01 X54.3346 Y59.7266
G01 X54.3244 Y59.7378
G01 X54.3153 Y59.7500
G01 X54.3075 Y59.7631
G01 X54.3010 Y59.7768
G01 X54.2959 Y59.7911
G01 X54.2922 Y59.8058
G01 X54.2900 Y59.8208
G01 X54.2893 Y59.8360
G01 X54.2900 Y59.8512
G01 X54.2922 Y59.8662
G01 X54.2959 Y59.8809
G01 X54.3010 Y59.8952
G01 X54.3075 Y59.9089
G01 X54.3153 Y59.9220
G01 X54.3244 Y59.9342
G01 X54.3346 Y59.9454
G01 X54.3458 Y59.9556
G01 X54.3580 Y59.9647
G01 X54.3711 Y59.9725
G01 X54.3848 Y59.9790
G01 X54.3991 Y59.9841
G01 X54.4138 Y59.9878
G01 X54.4288 Y59.9900
G01 X54.4440 Y59.9907
G01 X54.4592 Y59.9900
G01 X54.4742 Y59.9878
G01 X54.4889 Y59.9841
G01 X54.5032 Y59.9790
G01 X54.5169 Y59.9725
G01 X54.5300 Y59.9647
G01 X54.5422 Y59.9556
G01 X54.5534 Y59.9454
G01 X54.5636 Y59.9342
G01 X54.5727 Y59.9220
G01 X54.5805 Y59.9089
G01 X54.5870 Y59.8952
G01 X54.5921 Y59.8809
G01 X54.5958 Y59.8662
G01 X54.5980 Y59.8512
G01 X54.5988 Y59.8360
G01 X54.5980 Y59.8208
G00 Z5.0000
G00 X54.1748 Y64.8190
G01 F5050.00
G01 Z-2.1000
G01 F500.00
G01 X54.1742 Y64.8132
G01 X54.1725 Y64.8076
G01 X54.1697 Y64.8025
G01 X54.1660 Y64.7980
G01 X54.1615 Y64.7943
G01 X54.1564 Y64.7915
G01 X54.1508 Y64.7898
G01 X54.1450 Y64.7892
G01 X54.1392 Y64.7898
G01 X54.1336 Y64.7915
G01 X54.1285 Y64.7943
G01 X54.1240 Y64.7980
G01 X54.1203 Y64.8025
G01 X54.1175 Y64.8076
G01 X54.1158 Y64.8132
G01 X54.1153 Y64.8190
G01 X54.1158 Y64.8248
G01 X54.1175 Y64.8304
G01 X54.1203 Y64.8355
G01 X54.1240 Y64.8400
G01 X54.1285 Y64.8437
G01 X54.1336 Y64.8465
G01 X54.1392 Y64.8482
G01 X54.1450 Y64.8488
G01 X54.1508 Y64.8482
G01 X54.1564 Y64.8465
G01 X54.1615 Y64.8437
G01 X54.1660 Y64.8400
G01 X54.1697 Y64.8355
G01 X54.1725 Y64.8304
G01 X54.1742 Y64.8248
G01 X54.1748 Y64.8190
G01 X54.1742 Y64.8132
G00 Z5.0000
G00 X56.7148 Y64.8190
G01 F5050.00
G01 Z-2.1000
G01 F500.00
G01 X56.7142 Y64.8132
G01 X56.7125 Y64.8076
G01 X56.7097 Y64.8025
G01 X56.7060 Y64.7980
G01 X56.7015 Y64.7943
G01 X56.6964 Y64.7915
G01 X56.6908 Y64.7898
G01 X56.6850 Y64.7892
G01 X56.6792 Y64.7898
G01 X56.6736 Y64.7915
G01 X56.6685 Y64.7943
G01 X56.6640 Y64.7980
G01 X56.6603 Y64.8025
G01 X56.6575 Y64.8076
G01 X56.6558 Y64.8132
G01 X56.6553 Y64.8190
G01 X56.6558 Y64.8248
G01 X56.6575 Y64.8304
G01 X56.6603 Y64.8355
G01 X56.6640 Y64.8400
G01 X56.6685 Y64.8437
G01 X56.6736 Y64.8465
G01 X56.6792 Y64.8482
G01 X56.6850 Y64.8488
G01 X56.6908 Y64.8482
G01 X56.6964 Y64.8465
G01 X56.7015 Y64.8437
G01 X56.7060 Y64.8400
G01 X56.7097 Y64.8355
G01 X56.7125 Y64.8304
G01 X56.7142 Y64.8248
G01 X56.7148 Y64.8190
G01 X56.7142 Y64.8132
G00 Z5.0000
G00 X51.6347 Y64.8190
G01 F5050.00
G01 Z-2.1000
G01 F500.00
G01 X51.6342 Y64.8132
G01 X51.6325 Y64.8076
G01 X51.6297 Y64.8025
G01 X51.6260 Y64.7980
G01 X51.6215 Y64.7943
G01 X51.6164 Y64.7915
G01 X51.6108 Y64.7898
G01 X51.6050 Y64.7892
G01 X51.5992 Y64.7898
G01 X51.5936 Y64.7915
G01 X51.5885 Y64.7943
G01 X51.5840 Y64.7980
G01 X51.5803 Y64.8025
G01 X51.5775 Y64.8076
G01 X51.5758 Y64.8132
G01 X51.5752 Y64.8190
G01 X51.5758 Y64.8248
G01 X51.5775 Y64.8304
G01 X51.5803 Y64.8355
G01 X51.5840 Y64.8400
G01 X51.5885 Y64.8437
G01 X51.5936 Y64.8465
G01 X51.5992 Y64.8482
G01 X51.6050 Y64.8488
G01 X51.6108 Y64.8482
G01 X51.6164 Y64.8465
G01 X51.6215 Y64.8437
G01 X51.6260 Y64.8400
G01 X51.6297 Y64.8355
G01 X51.6325 Y64.8304
G01 X51.6342 Y64.8248
G01 X51.6347 Y64.8190
G01 X51.6342 Y64.8132
G00 Z5.0000
G00 X49.0947 Y64.8190
G01 F5050.00
G01 Z-2.1000
G01 F500.00
G01 X49.0942 Y64.8132
G01 X49.0925 Y64.8076
G01 X49.0897 Y64.8025
G01 X49.0860 Y64.7980
G01 X49.0815 Y64.7943
G01 X49.0764 Y64.7915
G01 X49.0708 Y64.7898
G01 X49.0650 Y64.7892
G01 X49.0592 Y64.7898
G01 X49.0536 Y64.7915
G01 X49.0485 Y64.7943
G01 X49.0440 Y64.7980
G01 X49.0403 Y64.8025
G01 X49.0375 Y64.8076
G01 X49.0358 Y64.8132
G01 X49.0352 Y64.8190
G01 X49.0358 Y64.8248
G01 X49.0375 Y64.8304
G01 X49.0403 Y64.8355
G01 X49.0440 Y64.8400
G01 X49.0485 Y64.8437
G01 X49.0536 Y64.8465
G01 X49.0592 Y64.8482
G01 X49.0650 Y64.8488
G01 X49.0708 Y64.8482
G01 X49.0764 Y64.8465
G01 X49.0815 Y64.8437
G01 X49.0860 Y64.8400
G01 X49.0897 Y64.8355
G01 X49.0925 Y64.8304
G01 X49.0942 Y64.8248
G01 X49.0947 Y64.8190
G01 X49.0942 Y64.8132
G00 Z5.0000
G00 X39.5197 Y64.5690
G01 F5050.00
G01 Z-2.1000
G01 F500.00
G01 X39.5139 Y64.4509
G01 X39.4966 Y64.3340
G01 X39.4679 Y64.2193
G01 X39.4280 Y64.1080
G01 X39.3775 Y64.0011
G01 X39.3167 Y63.8997
G01 X39.2463 Y63.8047
G01 X39.1669 Y63.7171
G01 X39.0793 Y63.6377
G01 X38.9843 Y63.5673
G01 X38.8829 Y63.5065
G01 X38.7760 Y63.4560
G01 X38.6647 Y63.4161
G01 X38.5500 Y63.3874
G01 X38.4331 Y63.3701
G01 X38.3150 Y63.3643
G01 X38.1969 Y63.3701
G01 X38.0800 Y63.3874
G01 X37.9653 Y63.4161
G01 X37.8540 Y63.4560
G01 X37.7471 Y63.5065
G01 X37.6457 Y63.5673
G01 X37.5507 Y63.6377
G01 X37.4631 Y63.7171
G01 X37.3837 Y63.8047
G01 X37.3133 Y63.8997
G01 X37.2525 Y64.0011
G01 X37.2020 Y64.1080
G01 X37.1621 Y64.2193
G01 X37.1334 Y64.3340
G01 X37.1161 Y64.4509
G01 X37.1103 Y64.5690
G01 X37.1161 Y64.6871
G01 X37.1334 Y64.8040
G01 X37.1621 Y64.9187
G01 X37.2020 Y65.0300
G01 X37.2525 Y65.1369
G01 X37.3133 Y65.2383
G01 X37.3837 Y65.3333
G01 X37.4631 Y65.4209
G01 X37.5507 Y65.5003
G01 X37.6457 Y65.5707
G01 X37.7471 Y65.6315
G01 X37.8540 Y65.6820
G01 X37.9653 Y65.7219
G01 X38.0800 Y65.7506
G01 X38.1969 Y65.7679
G01 X38.3150 Y65.7738
G01 X38.4331 Y65.7679
G01 X38.5500 Y65.7506
G01 X38.6647 Y65.7219
G01 X38.7760 Y65.6820
G01 X38.8829 Y65.6315
G01 X38.9843 Y65.5707
G01 X39.0793 Y65.5003
G01 X39.1669 Y65.4209
G01 X39.2463 Y65.3333
G01 X39.3167 Y65.2383
G01 X39.3775 Y65.1369
G01 X39.4280 Y65.0300
G01 X39.4679 Y64.9187
G01 X39.4966 Y64.8040
G01 X39.5139 Y64.6871
G01 X39.5197 Y64.5690
G01 X39.5139 Y64.4509
G00 Z5.0000
G00 X39.5027 Y64.6540
G01 F5050.00
G01 Z-2.1000
G01 F500.00
G01 X39.4969 Y64.5359
G01 X39.4796 Y64.4190
G01 X39.4509 Y64.3043
G01 X39.4110 Y64.1930
G01 X39.3605 Y64.0861
G01 X39.2997 Y63.9847
G01 X39.2293 Y63.8897
G01 X39.1499 Y63.8021
G01 X39.0623 Y63.7227
G01 X38.9673 Y63.6523
G01 X38.8659 Y63.5915
G01 X38.7590 Y63.5410
G01 X38.6477 Y63.5011
G01 X38.5330 Y63.4724
G01 X38.4161 Y63.4551
G01 X38.2980 Y63.4492
G01 X38.1799 Y63.4551
G01 X38.0630 Y63.4724
G01 X37.9483 Y63.5011
G01 X37.8370 Y63.5410
G01 X37.7301 Y63.5915
G01 X37.6287 Y63.6523
G01 X37.5337 Y63.7227
G01 X37.4461 Y63.8021
G01 X37.3667 Y63.8897
G01 X37.2963 Y63.9847
G01 X37.2355 Y64.0861
G01 X37.1850 Y64.1930
G01 X37.1451 Y64.3043
G01 X37.1164 Y64.4190
G01 X37.0991 Y64.5359
G01 X37.0933 Y64.6540
G01 X37.0991 Y64.7721
G01 X37.1164 Y64.8890
G01 X37.1451 Y65.0037
G01 X37.1850 Y65.1150
G01 X37.2355 Y65.2219
G01 X37.2963 Y65.3233
G01 X37.3667 Y65.4183
G01 X37.4461 Y65.5059
G01 X37.5337 Y65.5853
G01 X37.6287 Y65.6557
G01 X37.7301 Y65.7165
G01 X37.8370 Y65.7670
G01 X37.9483 Y65.8069
G01 X38.0630 Y65.8356
G01 X38.1799 Y65.8529
G01 X38.2980 Y65.8588
G01 X38.4161 Y65.8529
G01 X38.5330 Y65.8356
G01 X38.6477 Y65.8069
G01 X38.7590 Y65.7670
G01 X38.8659 Y65.7165
G01 X38.9673 Y65.6557
G01 X39.0623 Y65.5853
G01 X39.1499 Y65.5059
G01 X39.2293 Y65.4183
G01 X39.2997 Y65.3233
G01 X39.3605 Y65.2219
G01 X39.4110 Y65.1150
G01 X39.4509 Y65.0037
G01 X39.4796 Y64.8890
G01 X39.4969 Y64.7721
G01 X39.5027 Y64.6540
G01 X39.4969 Y64.5359
G00 Z5.0000
G00 X44.9727 Y42.7160
G01 F5050.00
G01 Z-2.1000
G01 F500.00
G01 X44.9720 Y42.7008
G01 X44.9698 Y42.6858
G01 X44.9661 Y42.6711
G01 X44.9610 Y42.6568
G01 X44.9545 Y42.6431
G01 X44.9467 Y42.6300
G01 X44.9376 Y42.6178
G01 X44.9274 Y42.6066
G01 X44.9162 Y42.5964
G01 X44.9040 Y42.5873
G01 X44.8909 Y42.5795
G01 X44.8772 Y42.5730
G01 X44.8629 Y42.5679
G01 X44.8482 Y42.5642
G01 X44.8332 Y42.5620
G01 X44.8180 Y42.5613
G01 X44.8028 Y42.5620
G01 X44.7878 Y42.5642
G01 X44.7731 Y42.5679
G01 X44.7588 Y42.5730
G01 X44.7451 Y42.5795
G01 X44.7320 Y42.5873
G01 X44.7198 Y42.5964
G01 X44.7086 Y42.6066
G01 X44.6984 Y42.6178
G01 X44.6893 Y42.6300
G01 X44.6815 Y42.6431
G01 X44.6750 Y42.6568
G01 X44.6699 Y42.6711
G01 X44.6662 Y42.6858
G01 X44.6640 Y42.7008
G01 X44.6632 Y42.7160
G01 X44.6640 Y42.7312
G01 X44.6662 Y42.7462
G01 X44.6699 Y42.7609
G01 X44.6750 Y42.7752
G01 X44.6815 Y42.7889
G01 X44.6893 Y42.8020
G01 X44.6984 Y42.8142
G01 X44.7086 Y42.8254
G01 X44.7198 Y42.8356
G01 X44.7320 Y42.8447
G01 X44.7451 Y42.8525
G01 X44.7588 Y42.8590
G01 X44.7731 Y42.8641
G01 X44.7878 Y42.8678
G01 X44.8028 Y42.8700
G01 X44.8180 Y42.8708
G01 X44.8332 Y42.8700
G01 X44.8482 Y42.8678
G01 X44.8629 Y42.8641
G01 X44.8772 Y42.8590
G01 X44.8909 Y42.8525
G01 X44.9040 Y42.8447
G01 X44.9162 Y42.8356
G01 X44.9274 Y42.8254
G01 X44.9376 Y42.8142
G01 X44.9467 Y42.8020
G01 X44.9545 Y42.7889
G01 X44.9610 Y42.7752
G01 X44.9661 Y42.7609
G01 X44.9698 Y42.7462
G01 X44.9720 Y42.7312
G01 X44.9727 Y42.7160
G01 X44.9720 Y42.7008
G00 Z5.0000
G00 X45.0588 Y37.3790
G01 F5050.00
G01 Z-2.1000
G01 F500.00
G01 X45.0582 Y37.3732
G01 X45.0565 Y37.3676
G01 X45.0537 Y37.3625
G01 X45.0500 Y37.3580
G01 X45.0455 Y37.3543
G01 X45.0404 Y37.3515
G01 X45.0348 Y37.3498
G01 X45.0290 Y37.3492
G01 X45.0232 Y37.3498
G01 X45.0176 Y37.3515
G01 X45.0125 Y37.3543
G01 X45.0080 Y37.3580
G01 X45.0043 Y37.3625
G01 X45.0015 Y37.3676
G01 X44.9998 Y37.3732
G01 X44.9993 Y37.3790
G01 X44.9998 Y37.3848
G01 X45.0015 Y37.3904
G01 X45.0043 Y37.3955
G01 X45.0080 Y37.4000
G01 X45.0125 Y37.4037
G01 X45.0176 Y37.4065
G01 X45.0232 Y37.4082
G01 X45.0290 Y37.4087
G01 X45.0348 Y37.4082
G01 X45.0404 Y37.4065
G01 X45.0455 Y37.4037
G01 X45.0500 Y37.4000
G01 X45.0537 Y37.3955
G01 X45.0565 Y37.3904
G01 X45.0582 Y37.3848
G01 X45.0588 Y37.3790
G01 X45.0582 Y37.3732
G00 Z5.0000
G00 X47.5988 Y37.3790
G01 F5050.00
G01 Z-2.1000
G01 F500.00
G01 X47.5982 Y37.3732
G01 X47.5965 Y37.3676
G01 X47.5937 Y37.3625
G01 X47.5900 Y37.3580
G01 X47.5855 Y37.3543
G01 X47.5804 Y37.3515
G01 X47.5748 Y37.3498
G01 X47.5690 Y37.3492
G01 X47.5632 Y37.3498
G01 X47.5576 Y37.3515
G01 X47.5525 Y37.3543
G01 X47.5480 Y37.3580
G01 X47.5443 Y37.3625
G01 X47.5415 Y37.3676
G01 X47.5398 Y37.3732
G01 X47.5393 Y37.3790
G01 X47.5398 Y37.3848
G01 X47.5415 Y37.3904
G01 X47.5443 Y37.3955
G01 X47.5480 Y37.4000
G01 X47.5525 Y37.4037
G01 X47.5576 Y37.4065
G01 X47.5632 Y37.4082
G01 X47.5690 Y37.4087
G01 X47.5748 Y37.4082
G01 X47.5804 Y37.4065
G01 X47.5855 Y37.4037
G01 X47.5900 Y37.4000
G01 X47.5937 Y37.3955
G01 X47.5965 Y37.3904
G01 X47.5982 Y37.3848
G01 X47.5988 Y37.3790
G01 X47.5982 Y37.3732
G00 Z5.0000
G00 X50.1388 Y37.3790
G01 F5050.00
G01 Z-2.1000
G01 F500.00
G01 X50.1382 Y37.3732
G01 X50.1365 Y37.3676
G01 X50.1337 Y37.3625
G01 X50.1300 Y37.3580
G01 X50.1255 Y37.3543
G01 X50.1204 Y37.3515
G01 X50.1148 Y37.3498
G01 X50.1090 Y37.3492
G01 X50.1032 Y37.3498
G01 X50.0976 Y37.3515
G01 X50.0925 Y37.3543
G01 X50.0880 Y37.3580
G01 X50.0843 Y37.3625
G01 X50.0815 Y37.3676
G01 X50.0798 Y37.3732
G01 X50.0793 Y37.3790
G01 X50.0798 Y37.3848
G01 X50.0815 Y37.3904
G01 X50.0843 Y37.3955
G01 X50.0880 Y37.4000
G01 X50.0925 Y37.4037
G01 X50.0976 Y37.4065
G01 X50.1032 Y37.4082
G01 X50.1090 Y37.4087
G01 X50.1148 Y37.4082
G01 X50.1204 Y37.4065
G01 X50.1255 Y37.4037
G01 X50.1300 Y37.4000
G01 X50.1337 Y37.3955
G01 X50.1365 Y37.3904
G01 X50.1382 Y37.3848
G01 X50.1388 Y37.3790
G01 X50.1382 Y37.3732
G00 Z5.0000
G00 X52.6788 Y37.3790
G01 F5050.00
G01 Z-2.1000
G01 F500.00
G01 X52.6782 Y37.3732
G01 X52.6765 Y37.3676
G01 X52.6737 Y37.3625
G01 X52.6700 Y37.3580
G01 X52.6655 Y37.3543
G01 X52.6604 Y37.3515
G01 X52.6548 Y37.3498
G01 X52.6490 Y37.3492
G01 X52.6432 Y37.3498
G01 X52.6376 Y37.3515
G01 X52.6325 Y37.3543
G01 X52.6280 Y37.3580
G01 X52.6243 Y37.3625
G01 X52.6215 Y37.3676
G01 X52.6198 Y37.3732
G01 X52.6193 Y37.3790
G01 X52.6198 Y37.3848
G01 X52.6215 Y37.3904
G01 X52.6243 Y37.3955
G01 X52.6280 Y37.4000
G01 X52.6325 Y37.4037
G01 X52.6376 Y37.4065
G01 X52.6432 Y37.4082
G01 X52.6490 Y37.4087
G01 X52.6548 Y37.4082
G01 X52.6604 Y37.4065
G01 X52.6655 Y37.4037
G01 X52.6700 Y37.4000
G01 X52.6737 Y37.3955
G01 X52.6765 Y37.3904
G01 X52.6782 Y37.3848
G01 X52.6788 Y37.3790
G01 X52.6782 Y37.3732
G00 Z5.0000
G00 X55.2188 Y37.3790
G01 F5050.00
G01 Z-2.1000
G01 F500.00
G01 X55.2182 Y37.3732
G01 X55.2165 Y37.3676
G01 X55.2137 Y37.3625
G01 X55.2100 Y37.3580
G01 X55.2055 Y37.3543
G01 X55.2004 Y37.3515
G01 X55.1948 Y37.3498
G01 X55.1890 Y37.3492
G01 X55.1832 Y37.3498
G01 X55.1776 Y37.3515
G01 X55.1725 Y37.3543
G01 X55.1680 Y37.3580
G01 X55.1643 Y37.3625
G01 X55.1615 Y37.3676
G01 X55.1598 Y37.3732
G01 X55.1593 Y37.3790
G01 X55.1598 Y37.3848
G01 X55.1615 Y37.3904
G01 X55.1643 Y37.3955
G01 X55.1680 Y37.4000
G01 X55.1725 Y37.4037
G01 X55.1776 Y37.4065
G01 X55.1832 Y37.4082
G01 X55.1890 Y37.4087
G01 X55.1948 Y37.4082
G01 X55.2004 Y37.4065
G01 X55.2055 Y37.4037
G01 X55.2100 Y37.4000
G01 X55.2137 Y37.3955
G01 X55.2165 Y37.3904
G01 X55.2182 Y37.3848
G01 X55.2188 Y37.3790
G01 X55.2182 Y37.3732
G00 Z5.0000
G00 X57.7587 Y37.3790
G01 F5050.00
G01 Z-2.1000
G01 F500.00
G01 X57.7582 Y37.3732
G01 X57.7565 Y37.3676
G01 X57.7537 Y37.3625
G01 X57.7500 Y37.3580
G01 X57.7455 Y37.3543
G01 X57.7404 Y37.3515
G01 X57.7348 Y37.3498
G01 X57.7290 Y37.3492
G01 X57.7232 Y37.3498
G01 X57.7176 Y37.3515
G01 X57.7125 Y37.3543
G01 X57.7080 Y37.3580
G01 X57.7043 Y37.3625
G01 X57.7015 Y37.3676
G01 X57.6998 Y37.3732
G01 X57.6992 Y37.3790
G01 X57.6998 Y37.3848
G01 X57.7015 Y37.3904
G01 X57.7043 Y37.3955
G01 X57.7080 Y37.4000
G01 X57.7125 Y37.4037
G01 X57.7176 Y37.4065
G01 X57.7232 Y37.4082
G01 X57.7290 Y37.4087
G01 X57.7348 Y37.4082
G01 X57.7404 Y37.4065
G01 X57.7455 Y37.4037
G01 X57.7500 Y37.4000
G01 X57.7537 Y37.3955
G01 X57.7565 Y37.3904
G01 X57.7582 Y37.3848
G01 X57.7587 Y37.3790
G01 X57.7582 Y37.3732
G00 Z5.0000
G00 X60.4258 Y37.5060
G01 F5050.00
G01 Z-2.1000
G01 F500.00
G01 X60.4252 Y37.5002
G01 X60.4235 Y37.4946
G01 X60.4207 Y37.4895
G01 X60.4170 Y37.4850
G01 X60.4125 Y37.4813
G01 X60.4074 Y37.4785
G01 X60.4018 Y37.4768
G01 X60.3960 Y37.4763
G01 X60.3902 Y37.4768
G01 X60.3846 Y37.4785
G01 X60.3795 Y37.4813
G01 X60.3750 Y37.4850
G01 X60.3713 Y37.4895
G01 X60.3685 Y37.4946
G01 X60.3668 Y37.5002
G01 X60.3663 Y37.5060
G01 X60.3668 Y37.5118
G01 X60.3685 Y37.5174
G01 X60.3713 Y37.5225
G01 X60.3750 Y37.5270
G01 X60.3795 Y37.5307
G01 X60.3846 Y37.5335
G01 X60.3902 Y37.5352
G01 X60.3960 Y37.5358
G01 X60.4018 Y37.5352
G01 X60.4074 Y37.5335
G01 X60.4125 Y37.5307
G01 X60.4170 Y37.5270
G01 X60.4207 Y37.5225
G01 X60.4235 Y37.5174
G01 X60.4252 Y37.5118
G01 X60.4258 Y37.5060
G01 X60.4252 Y37.5002
G00 Z5.0000
G00 X65.8008 Y41.6490
G01 F5050.00
G01 Z-2.1000
G01 F500.00
G01 X65.8000 Y41.6338
G01 X65.7978 Y41.6188
G01 X65.7941 Y41.6041
G01 X65.7890 Y41.5898
G01 X65.7825 Y41.5761
G01 X65.7747 Y41.5630
G01 X65.7656 Y41.5508
G01 X65.7554 Y41.5396
G01 X65.7442 Y41.5294
G01 X65.7320 Y41.5203
G01 X65.7189 Y41.5125
G01 X65.7052 Y41.5060
G01 X65.6909 Y41.5009
G01 X65.6762 Y41.4972
G01 X65.6612 Y41.4950
G01 X65.6460 Y41.4943
G01 X65.6308 Y41.4950
G01 X65.6158 Y41.4972
G01 X65.6011 Y41.5009
G01 X65.5868 Y41.5060
G01 X65.5731 Y41.5125
G01 X65.5600 Y41.5203
G01 X65.5478 Y41.5294
G01 X65.5366 Y41.5396
G01 X65.5264 Y41.5508
G01 X65.5173 Y41.5630
G01 X65.5095 Y41.5761
G01 X65.5030 Y41.5898
G01 X65.4979 Y41.6041
G01 X65.4942 Y41.6188
G01 X65.4920 Y41.6338
G01 X65.4912 Y41.6490
G01 X65.4920 Y41.6642
G01 X65.4942 Y41.6792
G01 X65.4979 Y41.6939
G01 X65.5030 Y41.7082
G01 X65.5095 Y41.7219
G01 X65.5173 Y41.7350
G01 X65.5264 Y41.7472
G01 X65.5366 Y41.7584
G01 X65.5478 Y41.7686
G01 X65.5600 Y41.7777
G01 X65.5731 Y41.7855
G01 X65.5868 Y41.7920
G01 X65.6011 Y41.7971
G01 X65.6158 Y41.8008
G01 X65.6308 Y41.8030
G01 X65.6460 Y41.8038
G01 X65.6612 Y41.8030
G01 X65.6762 Y41.8008
G01 X65.6909 Y41.7971
G01 X65.7052 Y41.7920
G01 X65.7189 Y41.7855
G01 X65.7320 Y41.7777
G01 X65.7442 Y41.7686
G01 X65.7554 Y41.7584
G01 X65.7656 Y41.7472
G01 X65.7747 Y41.7350
G01 X65.7825 Y41.7219
G01 X65.7890 Y41.7082
G01 X65.7941 Y41.6939
G01 X65.7978 Y41.6792
G01 X65.8000 Y41.6642
G01 X65.8008 Y41.6490
G01 X65.8000 Y41.6338
G00 Z5.0000
G00 X68.5028 Y37.6540
G01 F5050.00
G01 Z-2.1000
G01 F500.00
G01 X68.4969 Y37.5359
G01 X68.4796 Y37.4190
G01 X68.4509 Y37.3043
G01 X68.4110 Y37.1930
G01 X68.3605 Y37.0861
G01 X68.2997 Y36.9847
G01 X68.2293 Y36.8897
G01 X68.1499 Y36.8021
G01 X68.0623 Y36.7227
G01 X67.9673 Y36.6523
G01 X67.8659 Y36.5915
G01 X67.7590 Y36.5410
G01 X67.6477 Y36.5011
G01 X67.5330 Y36.4724
G01 X67.4161 Y36.4551
G01 X67.2980 Y36.4493
G01 X67.1799 Y36.4551
G01 X67.0630 Y36.4724
G01 X66.9483 Y36.5011
G01 X66.8370 Y36.5410
G01 X66.7301 Y36.5915
G01 X66.6287 Y36.6523
G01 X66.5337 Y36.7227
G01 X66.4461 Y36.8021
G01 X66.3667 Y36.8897
G01 X66.2963 Y36.9847
G01 X66.2355 Y37.0861
G01 X66.1850 Y37.1930
G01 X66.1451 Y37.3043
G01 X66.1164 Y37.4190
G01 X66.0991 Y37.5359
G01 X66.0932 Y37.6540
G01 X66.0991 Y37.7721
G01 X66.1164 Y37.8890
G01 X66.1451 Y38.0037
G01 X66.1850 Y38.1150
G01 X66.2355 Y38.2219
G01 X66.2963 Y38.3233
G01 X66.3667 Y38.4183
G01 X66.4461 Y38.5059
G01 X66.5337 Y38.5853
G01 X66.6287 Y38.6557
G01 X66.7301 Y38.7165
G01 X66.8370 Y38.7670
G01 X66.9483 Y38.8069
G01 X67.0630 Y38.8356
G01 X67.1799 Y38.8529
G01 X67.2980 Y38.8588
G01 X67.4161 Y38.8529
G01 X67.5330 Y38.8356
G01 X67.6477 Y38.8069
G01 X67.7590 Y38.7670
G01 X67.8659 Y38.7165
G01 X67.9673 Y38.6557
G01 X68.0623 Y38.5853
G01 X68.1499 Y38.5059
G01 X68.2293 Y38.4183
G01 X68.2997 Y38.3233
G01 X68.3605 Y38.2219
G01 X68.4110 Y38.1150
G01 X68.4509 Y38.0037
G01 X68.4796 Y37.8890
G01 X68.4969 Y37.7721
G01 X68.5028 Y37.6540
G01 X68.4969 Y37.5359
G00 Z5.0000
G00 X68.5198 Y37.5690
G01 F5050.00
G01 Z-2.1000
G01 F500.00
G01 X68.5139 Y37.4509
G01 X68.4966 Y37.3340
G01 X68.4679 Y37.2193
G01 X68.4280 Y37.1080
G01 X68.3775 Y37.0011
G01 X68.3167 Y36.8997
G01 X68.2463 Y36.8047
G01 X68.1669 Y36.7171
G01 X68.0793 Y36.6377
G01 X67.9843 Y36.5673
G01 X67.8829 Y36.5065
G01 X67.7760 Y36.4560
G01 X67.6647 Y36.4161
G01 X67.5500 Y36.3874
G01 X67.4331 Y36.3701
G01 X67.3150 Y36.3643
G01 X67.1969 Y36.3701
G01 X67.0800 Y36.3874
G01 X66.9653 Y36.4161
G01 X66.8540 Y36.4560
G01 X66.7471 Y36.5065
G01 X66.6457 Y36.5673
G01 X66.5507 Y36.6377
G01 X66.4631 Y36.7171
G01 X66.3837 Y36.8047
G01 X66.3133 Y36.8997
G01 X66.2525 Y37.0011
G01 X66.2020 Y37.1080
G01 X66.1621 Y37.2193
G01 X66.1334 Y37.3340
G01 X66.1161 Y37.4509
G01 X66.1102 Y37.5690
G01 X66.1161 Y37.6871
G01 X66.1334 Y37.8040
G01 X66.1621 Y37.9187
G01 X66.2020 Y38.0300
G01 X66.2525 Y38.1369
G01 X66.3133 Y38.2383
G01 X66.3837 Y38.3333
G01 X66.4631 Y38.4209
G01 X66.5507 Y38.5003
G01 X66.6457 Y38.5707
G01 X66.7471 Y38.6315
G01 X66.8540 Y38.6820
G01 X66.9653 Y38.7219
G01 X67.0800 Y38.7506
G01 X67.1969 Y38.7679
G01 X67.3150 Y38.7737
G01 X67.4331 Y38.7679
G01 X67.5500 Y38.7506
G01 X67.6647 Y38.7219
G01 X67.7760 Y38.6820
G01 X67.8829 Y38.6315
G01 X67.9843 Y38.5707
G01 X68.0793 Y38.5003
G01 X68.1669 Y38.4209
G01 X68.2463 Y38.3333
G01 X68.3167 Y38.2383
G01 X68.3775 Y38.1369
G01 X68.4280 Y38.0300
G01 X68.4679 Y37.9187
G01 X68.4966 Y37.8040
G01 X68.5139 Y37.6871
G01 X68.5198 Y37.5690
G01 X68.5139 Y37.4509
G00 Z5.0000
G00 X70.9058 Y41.1670
G01 F5050.00
G01 Z-2.1000
G01 F500.00
G01 X70.9050 Y41.1518
G01 X70.9028 Y41.1368
G01 X70.8991 Y41.1221
G01 X70.8940 Y41.1078
G01 X70.8875 Y41.0941
G01 X70.8797 Y41.0810
G01 X70.8706 Y41.0688
G01 X70.8604 Y41.0576
G01 X70.8492 Y41.0474
G01 X70.8370 Y41.0383
G01 X70.8239 Y41.0305
G01 X70.8102 Y41.0240
G01 X70.7959 Y41.0189
G01 X70.7812 Y41.0152
G01 X70.7662 Y41.0130
G01 X70.7510 Y41.0123
G01 X70.7358 Y41.0130
G01 X70.7208 Y41.0152
G01 X70.7061 Y41.0189
G01 X70.6918 Y41.0240
G01 X70.6781 Y41.0305
G01 X70.6650 Y41.0383
G01 X70.6528 Y41.0474
G01 X70.6416 Y41.0576
G01 X70.6314 Y41.0688
G01 X70.6223 Y41.0810
G01 X70.6145 Y41.0941
G01 X70.6080 Y41.1078
G01 X70.6029 Y41.1221
G01 X70.5992 Y41.1368
G01 X70.5970 Y41.1518
G01 X70.5962 Y41.1670
G01 X70.5970 Y41.1822
G01 X70.5992 Y41.1972
G01 X70.6029 Y41.2119
G01 X70.6080 Y41.2262
G01 X70.6145 Y41.2399
G01 X70.6223 Y41.2530
G01 X70.6314 Y41.2652
G01 X70.6416 Y41.2764
G01 X70.6528 Y41.2866
G01 X70.6650 Y41.2957
G01 X70.6781 Y41.3035
G01 X70.6918 Y41.3100
G01 X70.7061 Y41.3151
G01 X70.7208 Y41.3188
G01 X70.7358 Y41.3210
G01 X70.7510 Y41.3218
G01 X70.7662 Y41.3210
G01 X70.7812 Y41.3188
G01 X70.7959 Y41.3151
G01 X70.8102 Y41.3100
G01 X70.8239 Y41.3035
G01 X70.8370 Y41.2957
G01 X70.8492 Y41.2866
G01 X70.8604 Y41.2764
G01 X70.8706 Y41.2652
G01 X70.8797 Y41.2530
G01 X70.8875 Y41.2399
G01 X70.8940 Y41.2262
G01 X70.8991 Y41.2119
G01 X70.9028 Y41.1972
G01 X70.9050 Y41.1822
G01 X70.9058 Y41.1670
G01 X70.9050 Y41.1518
G00 Z5.0000
G00 X71.8468 Y25.5460
G01 F5050.00
G01 Z-2.1000
G01 F500.00
G01 X71.8457 Y25.5353
G01 X71.8426 Y25.5250
G01 X71.8375 Y25.5156
G01 X71.8307 Y25.5073
G01 X71.8224 Y25.5005
G01 X71.8130 Y25.4954
G01 X71.8027 Y25.4923
G01 X71.7920 Y25.4913
G01 X71.7813 Y25.4923
G01 X71.7710 Y25.4954
G01 X71.7616 Y25.5005
G01 X71.7533 Y25.5073
G01 X71.7465 Y25.5156
G01 X71.7414 Y25.5250
G01 X71.7383 Y25.5353
G01 X71.7373 Y25.5460
G01 X71.7383 Y25.5567
G01 X71.7414 Y25.5670
G01 X71.7465 Y25.5764
G01 X71.7533 Y25.5847
G01 X71.7616 Y25.5915
G01 X71.7710 Y25.5966
G01 X71.7813 Y25.5997
G01 X71.7920 Y25.6007
G01 X71.8027 Y25.5997
G01 X71.8130 Y25.5966
G01 X71.8224 Y25.5915
G01 X71.8307 Y25.5847
G01 X71.8375 Y25.5764
G01 X71.8426 Y25.5670
G01 X71.8457 Y25.5567
G01 X71.8468 Y25.5460
G01 X71.8457 Y25.5353
G00 Z5.0000
G00 X74.3867 Y25.5460
G01 F5050.00
G01 Z-2.1000
G01 F500.00
G01 X74.3857 Y25.5353
G01 X74.3826 Y25.5250
G01 X74.3775 Y25.5156
G01 X74.3707 Y25.5073
G01 X74.3624 Y25.5005
G01 X74.3530 Y25.4954
G01 X74.3427 Y25.4923
G01 X74.3320 Y25.4913
G01 X74.3213 Y25.4923
G01 X74.3110 Y25.4954
G01 X74.3016 Y25.5005
G01 X74.2933 Y25.5073
G01 X74.2865 Y25.5156
G01 X74.2814 Y25.5250
G01 X74.2783 Y25.5353
G01 X74.2772 Y25.5460
G01 X74.2783 Y25.5567
G01 X74.2814 Y25.5670
G01 X74.2865 Y25.5764
G01 X74.2933 Y25.5847
G01 X74.3016 Y25.5915
G01 X74.3110 Y25.5966
G01 X74.3213 Y25.5997
G01 X74.3320 Y25.6007
G01 X74.3427 Y25.5997
G01 X74.3530 Y25.5966
G01 X74.3624 Y25.5915
G01 X74.3707 Y25.5847
G01 X74.3775 Y25.5764
G01 X74.3826 Y25.5670
G01 X74.3857 Y25.5567
G01 X74.3867 Y25.5460
G01 X74.3857 Y25.5353
G00 Z5.0000
G00 X76.9267 Y25.5460
G01 F5050.00
G01 Z-2.1000
G01 F500.00
G01 X76.9257 Y25.5353
G01 X76.9226 Y25.5250
G01 X76.9175 Y25.5156
G01 X76.9107 Y25.5073
G01 X76.9024 Y25.5005
G01 X76.8930 Y25.4954
G01 X76.8827 Y25.4923
G01 X76.8720 Y25.4913
G01 X76.8613 Y25.4923
G01 X76.8510 Y25.4954
G01 X76.8416 Y25.5005
G01 X76.8333 Y25.5073
G01 X76.8265 Y25.5156
G01 X76.8214 Y25.5250
G01 X76.8183 Y25.5353
G01 X76.8173 Y25.5460
G01 X76.8183 Y25.5567
G01 X76.8214 Y25.5670
G01 X76.8265 Y25.5764
G01 X76.8333 Y25.5847
G01 X76.8416 Y25.5915
G01 X76.8510 Y25.5966
G01 X76.8613 Y25.5997
G01 X76.8720 Y25.6007
G01 X76.8827 Y25.5997
G01 X76.8930 Y25.5966
G01 X76.9024 Y25.5915
G01 X76.9107 Y25.5847
G01 X76.9175 Y25.5764
G01 X76.9226 Y25.5670
G01 X76.9257 Y25.5567
G01 X76.9267 Y25.5460
G01 X76.9257 Y25.5353
G00 Z5.0000
G00 X79.4668 Y25.5460
G01 F5050.00
G01 Z-2.1000
G01 F500.00
G01 X79.4657 Y25.5353
G01 X79.4626 Y25.5250
G01 X79.4575 Y25.5156
G01 X79.4507 Y25.5073
G01 X79.4424 Y25.5005
G01 X79.4330 Y25.4954
G01 X79.4227 Y25.4923
G01 X79.4120 Y25.4913
G01 X79.4013 Y25.4923
G01 X79.3910 Y25.4954
G01 X79.3816 Y25.5005
G01 X79.3733 Y25.5073
G01 X79.3665 Y25.5156
G01 X79.3614 Y25.5250
G01 X79.3583 Y25.5353
G01 X79.3573 Y25.5460
G01 X79.3583 Y25.5567
G01 X79.3614 Y25.5670
G01 X79.3665 Y25.5764
G01 X79.3733 Y25.5847
G01 X79.3816 Y25.5915
G01 X79.3910 Y25.5966
G01 X79.4013 Y25.5997
G01 X79.4120 Y25.6007
G01 X79.4227 Y25.5997
G01 X79.4330 Y25.5966
G01 X79.4424 Y25.5915
G01 X79.4507 Y25.5847
G01 X79.4575 Y25.5764
G01 X79.4626 Y25.5670
G01 X79.4657 Y25.5567
G01 X79.4668 Y25.5460
G01 X79.4657 Y25.5353
G00 Z5.0000
G00 X82.0067 Y25.5460
G01 F5050.00
G01 Z-2.1000
G01 F500.00
G01 X82.0057 Y25.5353
G01 X82.0026 Y25.5250
G01 X81.9975 Y25.5156
G01 X81.9907 Y25.5073
G01 X81.9824 Y25.5005
G01 X81.9730 Y25.4954
G01 X81.9627 Y25.4923
G01 X81.9520 Y25.4913
G01 X81.9413 Y25.4923
G01 X81.9310 Y25.4954
G01 X81.9216 Y25.5005
G01 X81.9133 Y25.5073
G01 X81.9065 Y25.5156
G01 X81.9014 Y25.5250
G01 X81.8983 Y25.5353
G01 X81.8972 Y25.5460
G01 X81.8983 Y25.5567
G01 X81.9014 Y25.5670
G01 X81.9065 Y25.5764
G01 X81.9133 Y25.5847
G01 X81.9216 Y25.5915
G01 X81.9310 Y25.5966
G01 X81.9413 Y25.5997
G01 X81.9520 Y25.6007
G01 X81.9627 Y25.5997
G01 X81.9730 Y25.5966
G01 X81.9824 Y25.5915
G01 X81.9907 Y25.5847
G01 X81.9975 Y25.5764
G01 X82.0026 Y25.5670
G01 X82.0057 Y25.5567
G01 X82.0067 Y25.5460
G01 X82.0057 Y25.5353
G00 Z5.0000
G00 X84.5468 Y25.5460
G01 F5050.00
G01 Z-2.1000
G01 F500.00
G01 X84.5457 Y25.5353
G01 X84.5426 Y25.5250
G01 X84.5375 Y25.5156
G01 X84.5307 Y25.5073
G01 X84.5224 Y25.5005
G01 X84.5130 Y25.4954
G01 X84.5027 Y25.4923
G01 X84.4920 Y25.4913
G01 X84.4813 Y25.4923
G01 X84.4710 Y25.4954
G01 X84.4616 Y25.5005
G01 X84.4533 Y25.5073
G01 X84.4465 Y25.5156
G01 X84.4414 Y25.5250
G01 X84.4383 Y25.5353
G01 X84.4373 Y25.5460
G01 X84.4383 Y25.5567
G01 X84.4414 Y25.5670
G01 X84.4465 Y25.5764
G01 X84.4533 Y25.5847
G01 X84.4616 Y25.5915
G01 X84.4710 Y25.5966
G01 X84.4813 Y25.5997
G01 X84.4920 Y25.6007
G01 X84.5027 Y25.5997
G01 X84.5130 Y25.5966
G01 X84.5224 Y25.5915
G01 X84.5307 Y25.5847
G01 X84.5375 Y25.5764
G01 X84.5426 Y25.5670
G01 X84.5457 Y25.5567
G01 X84.5468 Y25.5460
G01 X84.5457 Y25.5353
G00 Z5.0000
G00 X87.0867 Y25.5460
G01 F5050.00
G01 Z-2.1000
G01 F500.00
G01 X87.0857 Y25.5353
G01 X87.0826 Y25.5250
G01 X87.0775 Y25.5156
G01 X87.0707 Y25.5073
G01 X87.0624 Y25.5005
G01 X87.0530 Y25.4954
G01 X87.0427 Y25.4923
G01 X87.0320 Y25.4913
G01 X87.0213 Y25.4923
G01 X87.0110 Y25.4954
G01 X87.0016 Y25.5005
G01 X86.9933 Y25.5073
G01 X86.9865 Y25.5156
G01 X86.9814 Y25.5250
G01 X86.9783 Y25.5353
G01 X86.9772 Y25.5460
G01 X86.9783 Y25.5567
G01 X86.9814 Y25.5670
G01 X86.9865 Y25.5764
G01 X86.9933 Y25.5847
G01 X87.0016 Y25.5915
G01 X87.0110 Y25.5966
G01 X87.0213 Y25.5997
G01 X87.0320 Y25.6007
G01 X87.0427 Y25.5997
G01 X87.0530 Y25.5966
G01 X87.0624 Y25.5915
G01 X87.0707 Y25.5847
G01 X87.0775 Y25.5764
G01 X87.0826 Y25.5670
G01 X87.0857 Y25.5567
G01 X87.0867 Y25.5460
G01 X87.0857 Y25.5353
G00 Z5.0000
G00 X89.6268 Y25.5460
G01 F5050.00
G01 Z-2.1000
G01 F500.00
G01 X89.6257 Y25.5353
G01 X89.6226 Y25.5250
G01 X89.6175 Y25.5156
G01 X89.6107 Y25.5073
G01 X89.6024 Y25.5005
G01 X89.5930 Y25.4954
G01 X89.5827 Y25.4923
G01 X89.5720 Y25.4913
G01 X89.5613 Y25.4923
G01 X89.5510 Y25.4954
G01 X89.5416 Y25.5005
G01 X89.5333 Y25.5073
G01 X89.5265 Y25.5156
G01 X89.5214 Y25.5250
G01 X89.5183 Y25.5353
G01 X89.5173 Y25.5460
G01 X89.5183 Y25.5567
G01 X89.5214 Y25.5670
G01 X89.5265 Y25.5764
G01 X89.5333 Y25.5847
G01 X89.5416 Y25.5915
G01 X89.5510 Y25.5966
G01 X89.5613 Y25.5997
G01 X89.5720 Y25.6007
G01 X89.5827 Y25.5997
G01 X89.5930 Y25.5966
G01 X89.6024 Y25.5915
G01 X89.6107 Y25.5847
G01 X89.6175 Y25.5764
G01 X89.6226 Y25.5670
G01 X89.6257 Y25.5567
G01 X89.6268 Y25.5460
G01 X89.6257 Y25.5353
G00 Z5.0000
G00 X92.1667 Y25.5460
G01 F5050.00
G01 Z-2.1000
G01 F500.00
G01 X92.1657 Y25.5353
G01 X92.1626 Y25.5250
G01 X92.1575 Y25.5156
G01 X92.1507 Y25.5073
G01 X92.1424 Y25.5005
G01 X92.1330 Y25.4954
G01 X92.1227 Y25.4923
G01 X92.1120 Y25.4913
G01 X92.1013 Y25.4923
G01 X92.0910 Y25.4954
G01 X92.0816 Y25.5005
G01 X92.0733 Y25.5073
G01 X92.0665 Y25.5156
G01 X92.0614 Y25.5250
G01 X92.0583 Y25.5353
G01 X92.0572 Y25.5460
G01 X92.0583 Y25.5567
G01 X92.0614 Y25.5670
G01 X92.0665 Y25.5764
G01 X92.0733 Y25.5847
G01 X92.0816 Y25.5915
G01 X92.0910 Y25.5966
G01 X92.1013 Y25.5997
G01 X92.1120 Y25.6007
G01 X92.1227 Y25.5997
G01 X92.1330 Y25.5966
G01 X92.1424 Y25.5915
G01 X92.1507 Y25.5847
G01 X92.1575 Y25.5764
G01 X92.1626 Y25.5670
G01 X92.1657 Y25.5567
G01 X92.1667 Y25.5460
G01 X92.1657 Y25.5353
G00 Z5.0000
G00 X94.7067 Y25.5460
G01 F5050.00
G01 Z-2.1000
G01 F500.00
G01 X94.7057 Y25.5353
G01 X94.7026 Y25.5250
G01 X94.6975 Y25.5156
G01 X94.6907 Y25.5073
G01 X94.6824 Y25.5005
G01 X94.6730 Y25.4954
G01 X94.6627 Y25.4923
G01 X94.6520 Y25.4913
G01 X94.6413 Y25.4923
G01 X94.6310 Y25.4954
G01 X94.6216 Y25.5005
G01 X94.6133 Y25.5073
G01 X94.6065 Y25.5156
G01 X94.6014 Y25.5250
G01 X94.5983 Y25.5353
G01 X94.5973 Y25.5460
G01 X94.5983 Y25.5567
G01 X94.6014 Y25.5670
G01 X94.6065 Y25.5764
G01 X94.6133 Y25.5847
G01 X94.6216 Y25.5915
G01 X94.6310 Y25.5966
G01 X94.6413 Y25.5997
G01 X94.6520 Y25.6007
G01 X94.6627 Y25.5997
G01 X94.6730 Y25.5966
G01 X94.6824 Y25.5915
G01 X94.6907 Y25.5847
G01 X94.6975 Y25.5764
G01 X94.7026 Y25.5670
G01 X94.7057 Y25.5567
G01 X94.7067 Y25.5460
G01 X94.7057 Y25.5353
G00 Z5.0000
G00 X97.2467 Y25.5460
G01 F5050.00
G01 Z-2.1000
G01 F500.00
G01 X97.2457 Y25.5353
G01 X97.2426 Y25.5250
G01 X97.2375 Y25.5156
G01 X97.2307 Y25.5073
G01 X97.2224 Y25.5005
G01 X97.2130 Y25.4954
G01 X97.2027 Y25.4923
G01 X97.1920 Y25.4913
G01 X97.1813 Y25.4923
G01 X97.1710 Y25.4954
G01 X97.1616 Y25.5005
G01 X97.1533 Y25.5073
G01 X97.1465 Y25.5156
G01 X97.1414 Y25.5250
G01 X97.1383 Y25.5353
G01 X97.1372 Y25.5460
G01 X97.1383 Y25.5567
G01 X97.1414 Y25.5670
G01 X97.1465 Y25.5764
G01 X97.1533 Y25.5847
G01 X97.1616 Y25.5915
G01 X97.1710 Y25.5966
G01 X97.1813 Y25.5997
G01 X97.1920 Y25.6007
G01 X97.2027 Y25.5997
G01 X97.2130 Y25.5966
G01 X97.2224 Y25.5915
G01 X97.2307 Y25.5847
G01 X97.2375 Y25.5764
G01 X97.2426 Y25.5670
G01 X97.2457 Y25.5567
G01 X97.2467 Y25.5460
G01 X97.2457 Y25.5353
G00 Z5.0000
G00 X99.7867 Y25.5460
G01 F5050.00
G01 Z-2.1000
G01 F500.00
G01 X99.7857 Y25.5353
G01 X99.7826 Y25.5250
G01 X99.7775 Y25.5156
G01 X99.7707 Y25.5073
G01 X99.7624 Y25.5005
G01 X99.7530 Y25.4954
G01 X99.7427 Y25.4923
G01 X99.7320 Y25.4913
G01 X99.7213 Y25.4923
G01 X99.7110 Y25.4954
G01 X99.7016 Y25.5005
G01 X99.6933 Y25.5073
G01 X99.6865 Y25.5156
G01 X99.6814 Y25.5250
G01 X99.6783 Y25.5353
G01 X99.6773 Y25.5460
G01 X99.6783 Y25.5567
G01 X99.6814 Y25.5670
G01 X99.6865 Y25.5764
G01 X99.6933 Y25.5847
G01 X99.7016 Y25.5915
G01 X99.7110 Y25.5966
G01 X99.7213 Y25.5997
G01 X99.7320 Y25.6007
G01 X99.7427 Y25.5997
G01 X99.7530 Y25.5966
G01 X99.7624 Y25.5915
G01 X99.7707 Y25.5847
G01 X99.7775 Y25.5764
G01 X99.7826 Y25.5670
G01 X99.7857 Y25.5567
G01 X99.7867 Y25.5460
G01 X99.7857 Y25.5353
G00 Z5.0000
G00 X102.3268 Y25.5460
G01 F5050.00
G01 Z-2.1000
G01 F500.00
G01 X102.3257 Y25.5353
G01 X102.3226 Y25.5250
G01 X102.3175 Y25.5156
G01 X102.3107 Y25.5073
G01 X102.3024 Y25.5005
G01 X102.2930 Y25.4954
G01 X102.2827 Y25.4923
G01 X102.2720 Y25.4913
G01 X102.2613 Y25.4923
G01 X102.2510 Y25.4954
G01 X102.2416 Y25.5005
G01 X102.2333 Y25.5073
G01 X102.2265 Y25.5156
G01 X102.2214 Y25.5250
G01 X102.2183 Y25.5353
G01 X102.2173 Y25.5460
G01 X102.2183 Y25.5567
G01 X102.2214 Y25.5670
G01 X102.2265 Y25.5764
G01 X102.2333 Y25.5847
G01 X102.2416 Y25.5915
G01 X102.2510 Y25.5966
G01 X102.2613 Y25.5997
G01 X102.2720 Y25.6007
G01 X102.2827 Y25.5997
G01 X102.2930 Y25.5966
G01 X102.3024 Y25.5915
G01 X102.3107 Y25.5847
G01 X102.3175 Y25.5764
G01 X102.3226 Y25.5670
G01 X102.3257 Y25.5567
G01 X102.3268 Y25.5460
G01 X102.3257 Y25.5353
G00 Z5.0000
G00 X104.5598 Y19.1710
G01 F5050.00
G01 Z-2.1000
G01 F500.00
G01 X104.5590 Y19.1558
G01 X104.5568 Y19.1408
G01 X104.5531 Y19.1261
G01 X104.5480 Y19.1118
G01 X104.5415 Y19.0981
G01 X104.5337 Y19.0850
G01 X104.5246 Y19.0728
G01 X104.5144 Y19.0616
G01 X104.5032 Y19.0514
G01 X104.4910 Y19.0423
G01 X104.4779 Y19.0345
G01 X104.4642 Y19.0280
G01 X104.4499 Y19.0229
G01 X104.4352 Y19.0192
G01 X104.4202 Y19.0170
G01 X104.4050 Y19.0162
G01 X104.3898 Y19.0170
G01 X104.3748 Y19.0192
G01 X104.3601 Y19.0229
G01 X104.3458 Y19.0280
G01 X104.3321 Y19.0345
G01 X104.3190 Y19.0423
G01 X104.3068 Y19.0514
G01 X104.2956 Y19.0616
G01 X104.2854 Y19.0728
G01 X104.2763 Y19.0850
G01 X104.2685 Y19.0981
G01 X104.2620 Y19.1118
G01 X104.2569 Y19.1261
G01 X104.2532 Y19.1408
G01 X104.2510 Y19.1558
G01 X104.2502 Y19.1710
G01 X104.2510 Y19.1862
G01 X104.2532 Y19.2012
G01 X104.2569 Y19.2159
G01 X104.2620 Y19.2302
G01 X104.2685 Y19.2439
G01 X104.2763 Y19.2570
G01 X104.2854 Y19.2692
G01 X104.2956 Y19.2804
G01 X104.3068 Y19.2906
G01 X104.3190 Y19.2997
G01 X104.3321 Y19.3075
G01 X104.3458 Y19.3140
G01 X104.3601 Y19.3191
G01 X104.3748 Y19.3228
G01 X104.3898 Y19.3250
G01 X104.4050 Y19.3257
G01 X104.4202 Y19.3250
G01 X104.4352 Y19.3228
G01 X104.4499 Y19.3191
G01 X104.4642 Y19.3140
G01 X104.4779 Y19.3075
G01 X104.4910 Y19.2997
G01 X104.5032 Y19.2906
G01 X104.5144 Y19.2804
G01 X104.5246 Y19.2692
G01 X104.5337 Y19.2570
G01 X104.5415 Y19.2439
G01 X104.5480 Y19.2302
G01 X104.5531 Y19.2159
G01 X104.5568 Y19.2012
G01 X104.5590 Y19.1862
G01 X104.5598 Y19.1710
G01 X104.5590 Y19.1558
G00 Z5.0000
G00 X104.5598 Y14.8280
G01 F5050.00
G01 Z-2.1000
G01 F500.00
G01 X104.5590 Y14.8128
G01 X104.5568 Y14.7978
G01 X104.5531 Y14.7831
G01 X104.5480 Y14.7688
G01 X104.5415 Y14.7551
G01 X104.5337 Y14.7420
G01 X104.5246 Y14.7298
G01 X104.5144 Y14.7186
G01 X104.5032 Y14.7084
G01 X104.4910 Y14.6993
G01 X104.4779 Y14.6915
G01 X104.4642 Y14.6850
G01 X104.4499 Y14.6799
G01 X104.4352 Y14.6762
G01 X104.4202 Y14.6740
G01 X104.4050 Y14.6732
G01 X104.3898 Y14.6740
G01 X104.3748 Y14.6762
G01 X104.3601 Y14.6799
G01 X104.3458 Y14.6850
G01 X104.3321 Y14.6915
G01 X104.3190 Y14.6993
G01 X104.3068 Y14.7084
G01 X104.2956 Y14.7186
G01 X104.2854 Y14.7298
G01 X104.2763 Y14.7420
G01 X104.2685 Y14.7551
G01 X104.2620 Y14.7688
G01 X104.2569 Y14.7831
G01 X104.2532 Y14.7978
G01 X104.2510 Y14.8128
G01 X104.2502 Y14.8280
G01 X104.2510 Y14.8432
G01 X104.2532 Y14.8582
G01 X104.2569 Y14.8729
G01 X104.2620 Y14.8872
G01 X104.2685 Y14.9009
G01 X104.2763 Y14.9140
G01 X104.2854 Y14.9262
G01 X104.2956 Y14.9374
G01 X104.3068 Y14.9476
G01 X104.3190 Y14.9567
G01 X104.3321 Y14.9645
G01 X104.3458 Y14.9710
G01 X104.3601 Y14.9761
G01 X104.3748 Y14.9798
G01 X104.3898 Y14.9820
G01 X104.4050 Y14.9827
G01 X104.4202 Y14.9820
G01 X104.4352 Y14.9798
G01 X104.4499 Y14.9761
G01 X104.4642 Y14.9710
G01 X104.4779 Y14.9645
G01 X104.4910 Y14.9567
G01 X104.5032 Y14.9476
G01 X104.5144 Y14.9374
G01 X104.5246 Y14.9262
G01 X104.5337 Y14.9140
G01 X104.5415 Y14.9009
G01 X104.5480 Y14.8872
G01 X104.5531 Y14.8729
G01 X104.5568 Y14.8582
G01 X104.5590 Y14.8432
G01 X104.5598 Y14.8280
G01 X104.5590 Y14.8128
G00 Z5.0000
G00 X102.3268 Y10.8140
G01 F5050.00
G01 Z-2.1000
G01 F500.00
G01 X102.3257 Y10.8033
G01 X102.3226 Y10.7930
G01 X102.3175 Y10.7836
G01 X102.3107 Y10.7753
G01 X102.3024 Y10.7685
G01 X102.2930 Y10.7634
G01 X102.2827 Y10.7603
G01 X102.2720 Y10.7592
G01 X102.2613 Y10.7603
G01 X102.2510 Y10.7634
G01 X102.2416 Y10.7685
G01 X102.2333 Y10.7753
G01 X102.2265 Y10.7836
G01 X102.2214 Y10.7930
G01 X102.2183 Y10.8033
G01 X102.2173 Y10.8140
G01 X102.2183 Y10.8247
G01 X102.2214 Y10.8350
G01 X102.2265 Y10.8444
G01 X102.2333 Y10.8527
G01 X102.2416 Y10.8595
G01 X102.2510 Y10.8646
G01 X102.2613 Y10.8677
G01 X102.2720 Y10.8688
G01 X102.2827 Y10.8677
G01 X102.2930 Y10.8646
G01 X102.3024 Y10.8595
G01 X102.3107 Y10.8527
G01 X102.3175 Y10.8444
G01 X102.3226 Y10.8350
G01 X102.3257 Y10.8247
G01 X102.3268 Y10.8140
G01 X102.3257 Y10.8033
G00 Z5.0000
G00 X99.7867 Y10.8140
G01 F5050.00
G01 Z-2.1000
G01 F500.00
G01 X99.7857 Y10.8033
G01 X99.7826 Y10.7930
G01 X99.7775 Y10.7836
G01 X99.7707 Y10.7753
G01 X99.7624 Y10.7685
G01 X99.7530 Y10.7634
G01 X99.7427 Y10.7603
G01 X99.7320 Y10.7592
G01 X99.7213 Y10.7603
G01 X99.7110 Y10.7634
G01 X99.7016 Y10.7685
G01 X99.6933 Y10.7753
G01 X99.6865 Y10.7836
G01 X99.6814 Y10.7930
G01 X99.6783 Y10.8033
G01 X99.6773 Y10.8140
G01 X99.6783 Y10.8247
G01 X99.6814 Y10.8350
G01 X99.6865 Y10.8444
G01 X99.6933 Y10.8527
G01 X99.7016 Y10.8595
G01 X99.7110 Y10.8646
G01 X99.7213 Y10.8677
G01 X99.7320 Y10.8688
G01 X99.7427 Y10.8677
G01 X99.7530 Y10.8646
G01 X99.7624 Y10.8595
G01 X99.7707 Y10.8527
G01 X99.7775 Y10.8444
G01 X99.7826 Y10.8350
G01 X99.7857 Y10.8247
G01 X99.7867 Y10.8140
G01 X99.7857 Y10.8033
G00 Z5.0000
G00 X97.2467 Y10.8140
G01 F5050.00
G01 Z-2.1000
G01 F500.00
G01 X97.2457 Y10.8033
G01 X97.2426 Y10.7930
G01 X97.2375 Y10.7836
G01 X97.2307 Y10.7753
G01 X97.2224 Y10.7685
G01 X97.2130 Y10.7634
G01 X97.2027 Y10.7603
G01 X97.1920 Y10.7592
G01 X97.1813 Y10.7603
G01 X97.1710 Y10.7634
G01 X97.1616 Y10.7685
G01 X97.1533 Y10.7753
G01 X97.1465 Y10.7836
G01 X97.1414 Y10.7930
G01 X97.1383 Y10.8033
G01 X97.1372 Y10.8140
G01 X97.1383 Y10.8247
G01 X97.1414 Y10.8350
G01 X97.1465 Y10.8444
G01 X97.1533 Y10.8527
G01 X97.1616 Y10.8595
G01 X97.1710 Y10.8646
G01 X97.1813 Y10.8677
G01 X97.1920 Y10.8688
G01 X97.2027 Y10.8677
G01 X97.2130 Y10.8646
G01 X97.2224 Y10.8595
G01 X97.2307 Y10.8527
G01 X97.2375 Y10.8444
G01 X97.2426 Y10.8350
G01 X97.2457 Y10.8247
G01 X97.2467 Y10.8140
G01 X97.2457 Y10.8033
G00 Z5.0000
G00 X94.7067 Y10.8140
G01 F5050.00
G01 Z-2.1000
G01 F500.00
G01 X94.7057 Y10.8033
G01 X94.7026 Y10.7930
G01 X94.6975 Y10.7836
G01 X94.6907 Y10.7753
G01 X94.6824 Y10.7685
G01 X94.6730 Y10.7634
G01 X94.6627 Y10.7603
G01 X94.6520 Y10.7592
G01 X94.6413 Y10.7603
G01 X94.6310 Y10.7634
G01 X94.6216 Y10.7685
G01 X94.6133 Y10.7753
G01 X94.6065 Y10.7836
G01 X94.6014 Y10.7930
G01 X94.5983 Y10.8033
G01 X94.5973 Y10.8140
G01 X94.5983 Y10.8247
G01 X94.6014 Y10.8350
G01 X94.6065 Y10.8444
G01 X94.6133 Y10.8527
G01 X94.6216 Y10.8595
G01 X94.6310 Y10.8646
G01 X94.6413 Y10.8677
G01 X94.6520 Y10.8688
G01 X94.6627 Y10.8677
G01 X94.6730 Y10.8646
G01 X94.6824 Y10.8595
G01 X94.6907 Y10.8527
G01 X94.6975 Y10.8444
G01 X94.7026 Y10.8350
G01 X94.7057 Y10.8247
G01 X94.7067 Y10.8140
G01 X94.7057 Y10.8033
G00 Z5.0000
G00 X92.1667 Y10.8140
G01 F5050.00
G01 Z-2.1000
G01 F500.00
G01 X92.1657 Y10.8033
G01 X92.1626 Y10.7930
G01 X92.1575 Y10.7836
G01 X92.1507 Y10.7753
G01 X92.1424 Y10.7685
G01 X92.1330 Y10.7634
G01 X92.1227 Y10.7603
G01 X92.1120 Y10.7592
G01 X92.1013 Y10.7603
G01 X92.0910 Y10.7634
G01 X92.0816 Y10.7685
G01 X92.0733 Y10.7753
G01 X92.0665 Y10.7836
G01 X92.0614 Y10.7930
G01 X92.0583 Y10.8033
G01 X92.0572 Y10.8140
G01 X92.0583 Y10.8247
G01 X92.0614 Y10.8350
G01 X92.0665 Y10.8444
G01 X92.0733 Y10.8527
G01 X92.0816 Y10.8595
G01 X92.0910 Y10.8646
G01 X92.1013 Y10.8677
G01 X92.1120 Y10.8688
G01 X92.1227 Y10.8677
G01 X92.1330 Y10.8646
G01 X92.1424 Y10.8595
G01 X92.1507 Y10.8527
G01 X92.1575 Y10.8444
G01 X92.1626 Y10.8350
G01 X92.1657 Y10.8247
G01 X92.1667 Y10.8140
G01 X92.1657 Y10.8033
G00 Z5.0000
G00 X89.6268 Y10.8140
G01 F5050.00
G01 Z-2.1000
G01 F500.00
G01 X89.6257 Y10.8033
G01 X89.6226 Y10.7930
G01 X89.6175 Y10.7836
G01 X89.6107 Y10.7753
G01 X89.6024 Y10.7685
G01 X89.5930 Y10.7634
G01 X89.5827 Y10.7603
G01 X89.5720 Y10.7592
G01 X89.5613 Y10.7603
G01 X89.5510 Y10.7634
G01 X89.5416 Y10.7685
G01 X89.5333 Y10.7753
G01 X89.5265 Y10.7836
G01 X89.5214 Y10.7930
G01 X89.5183 Y10.8033
G01 X89.5173 Y10.8140
G01 X89.5183 Y10.8247
G01 X89.5214 Y10.8350
G01 X89.5265 Y10.8444
G01 X89.5333 Y10.8527
G01 X89.5416 Y10.8595
G01 X89.5510 Y10.8646
G01 X89.5613 Y10.8677
G01 X89.5720 Y10.8688
G01 X89.5827 Y10.8677
G01 X89.5930 Y10.8646
G01 X89.6024 Y10.8595
G01 X89.6107 Y10.8527
G01 X89.6175 Y10.8444
G01 X89.6226 Y10.8350
G01 X89.6257 Y10.8247
G01 X89.6268 Y10.8140
G01 X89.6257 Y10.8033
G00 Z5.0000
G00 X87.0867 Y10.8140
G01 F5050.00
G01 Z-2.1000
G01 F500.00
G01 X87.0857 Y10.8033
G01 X87.0826 Y10.7930
G01 X87.0775 Y10.7836
G01 X87.0707 Y10.7753
G01 X87.0624 Y10.7685
G01 X87.0530 Y10.7634
G01 X87.0427 Y10.7603
G01 X87.0320 Y10.7592
G01 X87.0213 Y10.7603
G01 X87.0110 Y10.7634
G01 X87.0016 Y10.7685
G01 X86.9933 Y10.7753
G01 X86.9865 Y10.7836
G01 X86.9814 Y10.7930
G01 X86.9783 Y10.8033
G01 X86.9772 Y10.8140
G01 X86.9783 Y10.8247
G01 X86.9814 Y10.8350
G01 X86.9865 Y10.8444
G01 X86.9933 Y10.8527
G01 X87.0016 Y10.8595
G01 X87.0110 Y10.8646
G01 X87.0213 Y10.8677
G01 X87.0320 Y10.8688
G01 X87.0427 Y10.8677
G01 X87.0530 Y10.8646
G01 X87.0624 Y10.8595
G01 X87.0707 Y10.8527
G01 X87.0775 Y10.8444
G01 X87.0826 Y10.8350
G01 X87.0857 Y10.8247
G01 X87.0867 Y10.8140
G01 X87.0857 Y10.8033
G00 Z5.0000
G00 X84.5468 Y10.8140
G01 F5050.00
G01 Z-2.1000
G01 F500.00
G01 X84.5457 Y10.8033
G01 X84.5426 Y10.7930
G01 X84.5375 Y10.7836
G01 X84.5307 Y10.7753
G01 X84.5224 Y10.7685
G01 X84.5130 Y10.7634
G01 X84.5027 Y10.7603
G01 X84.4920 Y10.7592
G01 X84.4813 Y10.7603
G01 X84.4710 Y10.7634
G01 X84.4616 Y10.7685
G01 X84.4533 Y10.7753
G01 X84.4465 Y10.7836
G01 X84.4414 Y10.7930
G01 X84.4383 Y10.8033
G01 X84.4373 Y10.8140
G01 X84.4383 Y10.8247
G01 X84.4414 Y10.8350
G01 X84.4465 Y10.8444
G01 X84.4533 Y10.8527
G01 X84.4616 Y10.8595
G01 X84.4710 Y10.8646
G01 X84.4813 Y10.8677
G01 X84.4920 Y10.8688
G01 X84.5027 Y10.8677
G01 X84.5130 Y10.8646
G01 X84.5224 Y10.8595
G01 X84.5307 Y10.8527
G01 X84.5375 Y10.8444
G01 X84.5426 Y10.8350
G01 X84.5457 Y10.8247
G01 X84.5468 Y10.8140
G01 X84.5457 Y10.8033
G00 Z5.0000
G00 X82.0067 Y10.8140
G01 F5050.00
G01 Z-2.1000
G01 F500.00
G01 X82.0057 Y10.8033
G01 X82.0026 Y10.7930
G01 X81.9975 Y10.7836
G01 X81.9907 Y10.7753
G01 X81.9824 Y10.7685
G01 X81.9730 Y10.7634
G01 X81.9627 Y10.7603
G01 X81.9520 Y10.7592
G01 X81.9413 Y10.7603
G01 X81.9310 Y10.7634
G01 X81.9216 Y10.7685
G01 X81.9133 Y10.7753
G01 X81.9065 Y10.7836
G01 X81.9014 Y10.7930
G01 X81.8983 Y10.8033
G01 X81.8972 Y10.8140
G01 X81.8983 Y10.8247
G01 X81.9014 Y10.8350
G01 X81.9065 Y10.8444
G01 X81.9133 Y10.8527
G01 X81.9216 Y10.8595
G01 X81.9310 Y10.8646
G01 X81.9413 Y10.8677
G01 X81.9520 Y10.8688
G01 X81.9627 Y10.8677
G01 X81.9730 Y10.8646
G01 X81.9824 Y10.8595
G01 X81.9907 Y10.8527
G01 X81.9975 Y10.8444
G01 X82.0026 Y10.8350
G01 X82.0057 Y10.8247
G01 X82.0067 Y10.8140
G01 X82.0057 Y10.8033
G00 Z5.0000
G00 X79.4668 Y10.8140
G01 F5050.00
G01 Z-2.1000
G01 F500.00
G01 X79.4657 Y10.8033
G01 X79.4626 Y10.7930
G01 X79.4575 Y10.7836
G01 X79.4507 Y10.7753
G01 X79.4424 Y10.7685
G01 X79.4330 Y10.7634
G01 X79.4227 Y10.7603
G01 X79.4120 Y10.7592
G01 X79.4013 Y10.7603
G01 X79.3910 Y10.7634
G01 X79.3816 Y10.7685
G01 X79.3733 Y10.7753
G01 X79.3665 Y10.7836
G01 X79.3614 Y10.7930
G01 X79.3583 Y10.8033
G01 X79.3573 Y10.8140
G01 X79.3583 Y10.8247
G01 X79.3614 Y10.8350
G01 X79.3665 Y10.8444
G01 X79.3733 Y10.8527
G01 X79.3816 Y10.8595
G01 X79.3910 Y10.8646
G01 X79.4013 Y10.8677
G01 X79.4120 Y10.8688
G01 X79.4227 Y10.8677
G01 X79.4330 Y10.8646
G01 X79.4424 Y10.8595
G01 X79.4507 Y10.8527
G01 X79.4575 Y10.8444
G01 X79.4626 Y10.8350
G01 X79.4657 Y10.8247
G01 X79.4668 Y10.8140
G01 X79.4657 Y10.8033
G00 Z5.0000
G00 X76.9267 Y10.8140
G01 F5050.00
G01 Z-2.1000
G01 F500.00
G01 X76.9257 Y10.8033
G01 X76.9226 Y10.7930
G01 X76.9175 Y10.7836
G01 X76.9107 Y10.7753
G01 X76.9024 Y10.7685
G01 X76.8930 Y10.7634
G01 X76.8827 Y10.7603
G01 X76.8720 Y10.7592
G01 X76.8613 Y10.7603
G01 X76.8510 Y10.7634
G01 X76.8416 Y10.7685
G01 X76.8333 Y10.7753
G01 X76.8265 Y10.7836
G01 X76.8214 Y10.7930
G01 X76.8183 Y10.8033
G01 X76.8173 Y10.8140
G01 X76.8183 Y10.8247
G01 X76.8214 Y10.8350
G01 X76.8265 Y10.8444
G01 X76.8333 Y10.8527
G01 X76.8416 Y10.8595
G01 X76.8510 Y10.8646
G01 X76.8613 Y10.8677
G01 X76.8720 Y10.8688
G01 X76.8827 Y10.8677
G01 X76.8930 Y10.8646
G01 X76.9024 Y10.8595
G01 X76.9107 Y10.8527
G01 X76.9175 Y10.8444
G01 X76.9226 Y10.8350
G01 X76.9257 Y10.8247
G01 X76.9267 Y10.8140
G01 X76.9257 Y10.8033
G00 Z5.0000
G00 X74.3867 Y10.8140
G01 F5050.00
G01 Z-2.1000
G01 F500.00
G01 X74.3857 Y10.8033
G01 X74.3826 Y10.7930
G01 X74.3775 Y10.7836
G01 X74.3707 Y10.7753
G01 X74.3624 Y10.7685
G01 X74.3530 Y10.7634
G01 X74.3427 Y10.7603
G01 X74.3320 Y10.7592
G01 X74.3213 Y10.7603
G01 X74.3110 Y10.7634
G01 X74.3016 Y10.7685
G01 X74.2933 Y10.7753
G01 X74.2865 Y10.7836
G01 X74.2814 Y10.7930
G01 X74.2783 Y10.8033
G01 X74.2772 Y10.8140
G01 X74.2783 Y10.8247
G01 X74.2814 Y10.8350
G01 X74.2865 Y10.8444
G01 X74.2933 Y10.8527
G01 X74.3016 Y10.8595
G01 X74.3110 Y10.8646
G01 X74.3213 Y10.8677
G01 X74.3320 Y10.8688
G01 X74.3427 Y10.8677
G01 X74.3530 Y10.8646
G01 X74.3624 Y10.8595
G01 X74.3707 Y10.8527
G01 X74.3775 Y10.8444
G01 X74.3826 Y10.8350
G01 X74.3857 Y10.8247
G01 X74.3867 Y10.8140
G01 X74.3857 Y10.8033
G00 Z5.0000
G00 X71.8468 Y10.8140
G01 F5050.00
G01 Z-2.1000
G01 F500.00
G01 X71.8457 Y10.8033
G01 X71.8426 Y10.7930
G01 X71.8375 Y10.7836
G01 X71.8307 Y10.7753
G01 X71.8224 Y10.7685
G01 X71.8130 Y10.7634
G01 X71.8027 Y10.7603
G01 X71.7920 Y10.7592
G01 X71.7813 Y10.7603
G01 X71.7710 Y10.7634
G01 X71.7616 Y10.7685
G01 X71.7533 Y10.7753
G01 X71.7465 Y10.7836
G01 X71.7414 Y10.7930
G01 X71.7383 Y10.8033
G01 X71.7373 Y10.8140
G01 X71.7383 Y10.8247
G01 X71.7414 Y10.8350
G01 X71.7465 Y10.8444
G01 X71.7533 Y10.8527
G01 X71.7616 Y10.8595
G01 X71.7710 Y10.8646
G01 X71.7813 Y10.8677
G01 X71.7920 Y10.8688
G01 X71.8027 Y10.8677
G01 X71.8130 Y10.8646
G01 X71.8224 Y10.8595
G01 X71.8307 Y10.8527
G01 X71.8375 Y10.8444
G01 X71.8426 Y10.8350
G01 X71.8457 Y10.8247
G01 X71.8468 Y10.8140
G01 X71.8457 Y10.8033
G00 Z5.0000
G00 X69.3067 Y10.8140
G01 F5050.00
G01 Z-2.1000
G01 F500.00
G01 X69.3057 Y10.8033
G01 X69.3026 Y10.7930
G01 X69.2975 Y10.7836
G01 X69.2907 Y10.7753
G01 X69.2824 Y10.7685
G01 X69.2730 Y10.7634
G01 X69.2627 Y10.7603
G01 X69.2520 Y10.7592
G01 X69.2413 Y10.7603
G01 X69.2310 Y10.7634
G01 X69.2216 Y10.7685
G01 X69.2133 Y10.7753
G01 X69.2065 Y10.7836
G01 X69.2014 Y10.7930
G01 X69.1983 Y10.8033
G01 X69.1972 Y10.8140
G01 X69.1983 Y10.8247
G01 X69.2014 Y10.8350
G01 X69.2065 Y10.8444
G01 X69.2133 Y10.8527
G01 X69.2216 Y10.8595
G01 X69.2310 Y10.8646
G01 X69.2413 Y10.8677
G01 X69.2520 Y10.8688
G01 X69.2627 Y10.8677
G01 X69.2730 Y10.8646
G01 X69.2824 Y10.8595
G01 X69.2907 Y10.8527
G01 X69.2975 Y10.8444
G01 X69.3026 Y10.8350
G01 X69.3057 Y10.8247
G01 X69.3067 Y10.8140
G01 X69.3057 Y10.8033
G00 Z5.0000
G00 X66.7668 Y10.8140
G01 F5050.00
G01 Z-2.1000
G01 F500.00
G01 X66.7657 Y10.8033
G01 X66.7626 Y10.7930
G01 X66.7575 Y10.7836
G01 X66.7507 Y10.7753
G01 X66.7424 Y10.7685
G01 X66.7330 Y10.7634
G01 X66.7227 Y10.7603
G01 X66.7120 Y10.7592
G01 X66.7013 Y10.7603
G01 X66.6910 Y10.7634
G01 X66.6816 Y10.7685
G01 X66.6733 Y10.7753
G01 X66.6665 Y10.7836
G01 X66.6614 Y10.7930
G01 X66.6583 Y10.8033
G01 X66.6573 Y10.8140
G01 X66.6583 Y10.8247
G01 X66.6614 Y10.8350
G01 X66.6665 Y10.8444
G01 X66.6733 Y10.8527
G01 X66.6816 Y10.8595
G01 X66.6910 Y10.8646
G01 X66.7013 Y10.8677
G01 X66.7120 Y10.8688
G01 X66.7227 Y10.8677
G01 X66.7330 Y10.8646
G01 X66.7424 Y10.8595
G01 X66.7507 Y10.8527
G01 X66.7575 Y10.8444
G01 X66.7626 Y10.8350
G01 X66.7657 Y10.8247
G01 X66.7668 Y10.8140
G01 X66.7657 Y10.8033
G00 Z5.0000
G00 X64.2267 Y10.8140
G01 F5050.00
G01 Z-2.1000
G01 F500.00
G01 X64.2257 Y10.8033
G01 X64.2226 Y10.7930
G01 X64.2175 Y10.7836
G01 X64.2107 Y10.7753
G01 X64.2024 Y10.7685
G01 X64.1930 Y10.7634
G01 X64.1827 Y10.7603
G01 X64.1720 Y10.7592
G01 X64.1613 Y10.7603
G01 X64.1510 Y10.7634
G01 X64.1416 Y10.7685
G01 X64.1333 Y10.7753
G01 X64.1265 Y10.7836
G01 X64.1214 Y10.7930
G01 X64.1183 Y10.8033
G01 X64.1172 Y10.8140
G01 X64.1183 Y10.8247
G01 X64.1214 Y10.8350
G01 X64.1265 Y10.8444
G01 X64.1333 Y10.8527
G01 X64.1416 Y10.8595
G01 X64.1510 Y10.8646
G01 X64.1613 Y10.8677
G01 X64.1720 Y10.8688
G01 X64.1827 Y10.8677
G01 X64.1930 Y10.8646
G01 X64.2024 Y10.8595
G01 X64.2107 Y10.8527
G01 X64.2175 Y10.8444
G01 X64.2226 Y10.8350
G01 X64.2257 Y10.8247
G01 X64.2267 Y10.8140
G01 X64.2257 Y10.8033
G00 Z5.0000
G00 X61.6867 Y10.8140
G01 F5050.00
G01 Z-2.1000
G01 F500.00
G01 X61.6857 Y10.8033
G01 X61.6826 Y10.7930
G01 X61.6775 Y10.7836
G01 X61.6707 Y10.7753
G01 X61.6624 Y10.7685
G01 X61.6530 Y10.7634
G01 X61.6427 Y10.7603
G01 X61.6320 Y10.7592
G01 X61.6213 Y10.7603
G01 X61.6110 Y10.7634
G01 X61.6016 Y10.7685
G01 X61.5933 Y10.7753
G01 X61.5865 Y10.7836
G01 X61.5814 Y10.7930
G01 X61.5783 Y10.8033
G01 X61.5772 Y10.8140
G01 X61.5783 Y10.8247
G01 X61.5814 Y10.8350
G01 X61.5865 Y10.8444
G01 X61.5933 Y10.8527
G01 X61.6016 Y10.8595
G01 X61.6110 Y10.8646
G01 X61.6213 Y10.8677
G01 X61.6320 Y10.8688
G01 X61.6427 Y10.8677
G01 X61.6530 Y10.8646
G01 X61.6624 Y10.8595
G01 X61.6707 Y10.8527
G01 X61.6775 Y10.8444
G01 X61.6826 Y10.8350
G01 X61.6857 Y10.8247
G01 X61.6867 Y10.8140
G01 X61.6857 Y10.8033
G00 Z5.0000
G00 X59.1467 Y10.8140
G01 F5050.00
G01 Z-2.1000
G01 F500.00
G01 X59.1457 Y10.8033
G01 X59.1426 Y10.7930
G01 X59.1375 Y10.7836
G01 X59.1307 Y10.7753
G01 X59.1224 Y10.7685
G01 X59.1130 Y10.7634
G01 X59.1027 Y10.7603
G01 X59.0920 Y10.7592
G01 X59.0813 Y10.7603
G01 X59.0710 Y10.7634
G01 X59.0616 Y10.7685
G01 X59.0533 Y10.7753
G01 X59.0465 Y10.7836
G01 X59.0414 Y10.7930
G01 X59.0383 Y10.8033
G01 X59.0373 Y10.8140
G01 X59.0383 Y10.8247
G01 X59.0414 Y10.8350
G01 X59.0465 Y10.8444
G01 X59.0533 Y10.8527
G01 X59.0616 Y10.8595
G01 X59.0710 Y10.8646
G01 X59.0813 Y10.8677
G01 X59.0920 Y10.8688
G01 X59.1027 Y10.8677
G01 X59.1130 Y10.8646
G01 X59.1224 Y10.8595
G01 X59.1307 Y10.8527
G01 X59.1375 Y10.8444
G01 X59.1426 Y10.8350
G01 X59.1457 Y10.8247
G01 X59.1467 Y10.8140
G01 X59.1457 Y10.8033
G00 Z5.0000
G00 X56.6067 Y10.8140
G01 F5050.00
G01 Z-2.1000
G01 F500.00
G01 X56.6057 Y10.8033
G01 X56.6026 Y10.7930
G01 X56.5975 Y10.7836
G01 X56.5907 Y10.7753
G01 X56.5824 Y10.7685
G01 X56.5730 Y10.7634
G01 X56.5627 Y10.7603
G01 X56.5520 Y10.7592
G01 X56.5413 Y10.7603
G01 X56.5310 Y10.7634
G01 X56.5216 Y10.7685
G01 X56.5133 Y10.7753
G01 X56.5065 Y10.7836
G01 X56.5014 Y10.7930
G01 X56.4983 Y10.8033
G01 X56.4973 Y10.8140
G01 X56.4983 Y10.8247
G01 X56.5014 Y10.8350
G01 X56.5065 Y10.8444
G01 X56.5133 Y10.8527
G01 X56.5216 Y10.8595
G01 X56.5310 Y10.8646
G01 X56.5413 Y10.8677
G01 X56.5520 Y10.8688
G01 X56.5627 Y10.8677
G01 X56.5730 Y10.8646
G01 X56.5824 Y10.8595
G01 X56.5907 Y10.8527
G01 X56.5975 Y10.8444
G01 X56.6026 Y10.8350
G01 X56.6057 Y10.8247
G01 X56.6067 Y10.8140
G01 X56.6057 Y10.8033
G00 Z5.0000
G00 X54.0667 Y10.8140
G01 F5050.00
G01 Z-2.1000
G01 F500.00
G01 X54.0657 Y10.8033
G01 X54.0626 Y10.7930
G01 X54.0575 Y10.7836
G01 X54.0507 Y10.7753
G01 X54.0424 Y10.7685
G01 X54.0330 Y10.7634
G01 X54.0227 Y10.7603
G01 X54.0120 Y10.7592
G01 X54.0013 Y10.7603
G01 X53.9910 Y10.7634
G01 X53.9816 Y10.7685
G01 X53.9733 Y10.7753
G01 X53.9665 Y10.7836
G01 X53.9614 Y10.7930
G01 X53.9583 Y10.8033
G01 X53.9573 Y10.8140
G01 X53.9583 Y10.8247
G01 X53.9614 Y10.8350
G01 X53.9665 Y10.8444
G01 X53.9733 Y10.8527
G01 X53.9816 Y10.8595
G01 X53.9910 Y10.8646
G01 X54.0013 Y10.8677
G01 X54.0120 Y10.8688
G01 X54.0227 Y10.8677
G01 X54.0330 Y10.8646
G01 X54.0424 Y10.8595
G01 X54.0507 Y10.8527
G01 X54.0575 Y10.8444
G01 X54.0626 Y10.8350
G01 X54.0657 Y10.8247
G01 X54.0667 Y10.8140
G01 X54.0657 Y10.8033
G00 Z5.0000
G00 X44.8708 Y17.1130
G01 F5050.00
G01 Z-2.1000
G01 F500.00
G01 X44.8700 Y17.0978
G01 X44.8678 Y17.0828
G01 X44.8641 Y17.0681
G01 X44.8590 Y17.0538
G01 X44.8525 Y17.0401
G01 X44.8447 Y17.0270
G01 X44.8356 Y17.0148
G01 X44.8254 Y17.0036
G01 X44.8142 Y16.9934
G01 X44.8020 Y16.9843
G01 X44.7889 Y16.9765
G01 X44.7752 Y16.9700
G01 X44.7609 Y16.9649
G01 X44.7462 Y16.9612
G01 X44.7312 Y16.9590
G01 X44.7160 Y16.9582
G01 X44.7008 Y16.9590
G01 X44.6858 Y16.9612
G01 X44.6711 Y16.9649
G01 X44.6568 Y16.9700
G01 X44.6431 Y16.9765
G01 X44.6300 Y16.9843
G01 X44.6178 Y16.9934
G01 X44.6066 Y17.0036
G01 X44.5964 Y17.0148
G01 X44.5873 Y17.0270
G01 X44.5795 Y17.0401
G01 X44.5730 Y17.0538
G01 X44.5679 Y17.0681
G01 X44.5642 Y17.0828
G01 X44.5620 Y17.0978
G01 X44.5613 Y17.1130
G01 X44.5620 Y17.1282
G01 X44.5642 Y17.1432
G01 X44.5679 Y17.1579
G01 X44.5730 Y17.1722
G01 X44.5795 Y17.1859
G01 X44.5873 Y17.1990
G01 X44.5964 Y17.2112
G01 X44.6066 Y17.2224
G01 X44.6178 Y17.2326
G01 X44.6300 Y17.2417
G01 X44.6431 Y17.2495
G01 X44.6568 Y17.2560
G01 X44.6711 Y17.2611
G01 X44.6858 Y17.2648
G01 X44.7008 Y17.2670
G01 X44.7160 Y17.2677
G01 X44.7312 Y17.2670
G01 X44.7462 Y17.2648
G01 X44.7609 Y17.2611
G01 X44.7752 Y17.2560
G01 X44.7889 Y17.2495
G01 X44.8020 Y17.2417
G01 X44.8142 Y17.2326
G01 X44.8254 Y17.2224
G01 X44.8356 Y17.2112
G01 X44.8447 Y17.1990
G01 X44.8525 Y17.1859
G01 X44.8590 Y17.1722
G01 X44.8641 Y17.1579
G01 X44.8678 Y17.1432
G01 X44.8700 Y17.1282
G01 X44.8708 Y17.1130
G01 X44.8700 Y17.0978
G00 Z5.0000
G00 X49.3668 Y26.7140
G01 F5050.00
G01 Z-2.1000
G01 F500.00
G01 X49.3660 Y26.6988
G01 X49.3638 Y26.6838
G01 X49.3601 Y26.6691
G01 X49.3550 Y26.6548
G01 X49.3485 Y26.6411
G01 X49.3407 Y26.6280
G01 X49.3316 Y26.6158
G01 X49.3214 Y26.6046
G01 X49.3102 Y26.5944
G01 X49.2980 Y26.5853
G01 X49.2849 Y26.5775
G01 X49.2712 Y26.5710
G01 X49.2569 Y26.5659
G01 X49.2422 Y26.5622
G01 X49.2272 Y26.5600
G01 X49.2120 Y26.5592
G01 X49.1968 Y26.5600
G01 X49.1818 Y26.5622
G01 X49.1671 Y26.5659
G01 X49.1528 Y26.5710
G01 X49.1391 Y26.5775
G01 X49.1260 Y26.5853
G01 X49.1138 Y26.5944
G01 X49.1026 Y26.6046
G01 X49.0924 Y26.6158
G01 X49.0833 Y26.6280
G01 X49.0755 Y26.6411
G01 X49.0690 Y26.6548
G01 X49.0639 Y26.6691
G01 X49.0602 Y26.6838
G01 X49.0580 Y26.6988
G01 X49.0573 Y26.7140
G01 X49.0580 Y26.7292
G01 X49.0602 Y26.7442
G01 X49.0639 Y26.7589
G01 X49.0690 Y26.7732
G01 X49.0755 Y26.7869
G01 X49.0833 Y26.8000
G01 X49.0924 Y26.8122
G01 X49.1026 Y26.8234
G01 X49.1138 Y26.8336
G01 X49.1260 Y26.8427
G01 X49.1391 Y26.8505
G01 X49.1528 Y26.8570
G01 X49.1671 Y26.8621
G01 X49.1818 Y26.8658
G01 X49.1968 Y26.8680
G01 X49.2120 Y26.8687
G01 X49.2272 Y26.8680
G01 X49.2422 Y26.8658
G01 X49.2569 Y26.8621
G01 X49.2712 Y26.8570
G01 X49.2849 Y26.8505
G01 X49.2980 Y26.8427
G01 X49.3102 Y26.8336
G01 X49.3214 Y26.8234
G01 X49.3316 Y26.8122
G01 X49.3407 Y26.8000
G01 X49.3485 Y26.7869
G01 X49.3550 Y26.7732
G01 X49.3601 Y26.7589
G01 X49.3638 Y26.7442
G01 X49.3660 Y26.7292
G01 X49.3668 Y26.7140
G01 X49.3660 Y26.6988
G00 Z5.0000
G00 X54.0667 Y25.5460
G01 F5050.00
G01 Z-2.1000
G01 F500.00
G01 X54.0657 Y25.5353
G01 X54.0626 Y25.5250
G01 X54.0575 Y25.5156
G01 X54.0507 Y25.5073
G01 X54.0424 Y25.5005
G01 X54.0330 Y25.4954
G01 X54.0227 Y25.4923
G01 X54.0120 Y25.4913
G01 X54.0013 Y25.4923
G01 X53.9910 Y25.4954
G01 X53.9816 Y25.5005
G01 X53.9733 Y25.5073
G01 X53.9665 Y25.5156
G01 X53.9614 Y25.5250
G01 X53.9583 Y25.5353
G01 X53.9573 Y25.5460
G01 X53.9583 Y25.5567
G01 X53.9614 Y25.5670
G01 X53.9665 Y25.5764
G01 X53.9733 Y25.5847
G01 X53.9816 Y25.5915
G01 X53.9910 Y25.5966
G01 X54.0013 Y25.5997
G01 X54.0120 Y25.6007
G01 X54.0227 Y25.5997
G01 X54.0330 Y25.5966
G01 X54.0424 Y25.5915
G01 X54.0507 Y25.5847
G01 X54.0575 Y25.5764
G01 X54.0626 Y25.5670
G01 X54.0657 Y25.5567
G01 X54.0667 Y25.5460
G01 X54.0657 Y25.5353
G00 Z5.0000
G00 X56.6067 Y25.5460
G01 F5050.00
G01 Z-2.1000
G01 F500.00
G01 X56.6057 Y25.5353
G01 X56.6026 Y25.5250
G01 X56.5975 Y25.5156
G01 X56.5907 Y25.5073
G01 X56.5824 Y25.5005
G01 X56.5730 Y25.4954
G01 X56.5627 Y25.4923
G01 X56.5520 Y25.4913
G01 X56.5413 Y25.4923
G01 X56.5310 Y25.4954
G01 X56.5216 Y25.5005
G01 X56.5133 Y25.5073
G01 X56.5065 Y25.5156
G01 X56.5014 Y25.5250
G01 X56.4983 Y25.5353
G01 X56.4973 Y25.5460
G01 X56.4983 Y25.5567
G01 X56.5014 Y25.5670
G01 X56.5065 Y25.5764
G01 X56.5133 Y25.5847
G01 X56.5216 Y25.5915
G01 X56.5310 Y25.5966
G01 X56.5413 Y25.5997
G01 X56.5520 Y25.6007
G01 X56.5627 Y25.5997
G01 X56.5730 Y25.5966
G01 X56.5824 Y25.5915
G01 X56.5907 Y25.5847
G01 X56.5975 Y25.5764
G01 X56.6026 Y25.5670
G01 X56.6057 Y25.5567
G01 X56.6067 Y25.5460
G01 X56.6057 Y25.5353
G00 Z5.0000
G00 X59.1467 Y25.5460
G01 F5050.00
G01 Z-2.1000
G01 F500.00
G01 X59.1457 Y25.5353
G01 X59.1426 Y25.5250
G01 X59.1375 Y25.5156
G01 X59.1307 Y25.5073
G01 X59.1224 Y25.5005
G01 X59.1130 Y25.4954
G01 X59.1027 Y25.4923
G01 X59.0920 Y25.4913
G01 X59.0813 Y25.4923
G01 X59.0710 Y25.4954
G01 X59.0616 Y25.5005
G01 X59.0533 Y25.5073
G01 X59.0465 Y25.5156
G01 X59.0414 Y25.5250
G01 X59.0383 Y25.5353
G01 X59.0373 Y25.5460
G01 X59.0383 Y25.5567
G01 X59.0414 Y25.5670
G01 X59.0465 Y25.5764
G01 X59.0533 Y25.5847
G01 X59.0616 Y25.5915
G01 X59.0710 Y25.5966
G01 X59.0813 Y25.5997
G01 X59.0920 Y25.6007
G01 X59.1027 Y25.5997
G01 X59.1130 Y25.5966
G01 X59.1224 Y25.5915
G01 X59.1307 Y25.5847
G01 X59.1375 Y25.5764
G01 X59.1426 Y25.5670
G01 X59.1457 Y25.5567
G01 X59.1467 Y25.5460
G01 X59.1457 Y25.5353
G00 Z5.0000
G00 X61.6867 Y25.5460
G01 F5050.00
G01 Z-2.1000
G01 F500.00
G01 X61.6857 Y25.5353
G01 X61.6826 Y25.5250
G01 X61.6775 Y25.5156
G01 X61.6707 Y25.5073
G01 X61.6624 Y25.5005
G01 X61.6530 Y25.4954
G01 X61.6427 Y25.4923
G01 X61.6320 Y25.4913
G01 X61.6213 Y25.4923
G01 X61.6110 Y25.4954
G01 X61.6016 Y25.5005
G01 X61.5933 Y25.5073
G01 X61.5865 Y25.5156
G01 X61.5814 Y25.5250
G01 X61.5783 Y25.5353
G01 X61.5772 Y25.5460
G01 X61.5783 Y25.5567
G01 X61.5814 Y25.5670
G01 X61.5865 Y25.5764
G01 X61.5933 Y25.5847
G01 X61.6016 Y25.5915
G01 X61.6110 Y25.5966
G01 X61.6213 Y25.5997
G01 X61.6320 Y25.6007
G01 X61.6427 Y25.5997
G01 X61.6530 Y25.5966
G01 X61.6624 Y25.5915
G01 X61.6707 Y25.5847
G01 X61.6775 Y25.5764
G01 X61.6826 Y25.5670
G01 X61.6857 Y25.5567
G01 X61.6867 Y25.5460
G01 X61.6857 Y25.5353
G00 Z5.0000
G00 X64.2267 Y25.5460
G01 F5050.00
G01 Z-2.1000
G01 F500.00
G01 X64.2257 Y25.5353
G01 X64.2226 Y25.5250
G01 X64.2175 Y25.5156
G01 X64.2107 Y25.5073
G01 X64.2024 Y25.5005
G01 X64.1930 Y25.4954
G01 X64.1827 Y25.4923
G01 X64.1720 Y25.4913
G01 X64.1613 Y25.4923
G01 X64.1510 Y25.4954
G01 X64.1416 Y25.5005
G01 X64.1333 Y25.5073
G01 X64.1265 Y25.5156
G01 X64.1214 Y25.5250
G01 X64.1183 Y25.5353
G01 X64.1172 Y25.5460
G01 X64.1183 Y25.5567
G01 X64.1214 Y25.5670
G01 X64.1265 Y25.5764
G01 X64.1333 Y25.5847
G01 X64.1416 Y25.5915
G01 X64.1510 Y25.5966
G01 X64.1613 Y25.5997
G01 X64.1720 Y25.6007
G01 X64.1827 Y25.5997
G01 X64.1930 Y25.5966
G01 X64.2024 Y25.5915
G01 X64.2107 Y25.5847
G01 X64.2175 Y25.5764
G01 X64.2226 Y25.5670
G01 X64.2257 Y25.5567
G01 X64.2267 Y25.5460
G01 X64.2257 Y25.5353
G00 Z5.0000
G00 X66.7668 Y25.5460
G01 F5050.00
G01 Z-2.1000
G01 F500.00
G01 X66.7657 Y25.5353
G01 X66.7626 Y25.5250
G01 X66.7575 Y25.5156
G01 X66.7507 Y25.5073
G01 X66.7424 Y25.5005
G01 X66.7330 Y25.4954
G01 X66.7227 Y25.4923
G01 X66.7120 Y25.4913
G01 X66.7013 Y25.4923
G01 X66.6910 Y25.4954
G01 X66.6816 Y25.5005
G01 X66.6733 Y25.5073
G01 X66.6665 Y25.5156
G01 X66.6614 Y25.5250
G01 X66.6583 Y25.5353
G01 X66.6573 Y25.5460
G01 X66.6583 Y25.5567
G01 X66.6614 Y25.5670
G01 X66.6665 Y25.5764
G01 X66.6733 Y25.5847
G01 X66.6816 Y25.5915
G01 X66.6910 Y25.5966
G01 X66.7013 Y25.5997
G01 X66.7120 Y25.6007
G01 X66.7227 Y25.5997
G01 X66.7330 Y25.5966
G01 X66.7424 Y25.5915
G01 X66.7507 Y25.5847
G01 X66.7575 Y25.5764
G01 X66.7626 Y25.5670
G01 X66.7657 Y25.5567
G01 X66.7668 Y25.5460
G01 X66.7657 Y25.5353
G00 Z5.0000
G00 X69.3067 Y25.5460
G01 F5050.00
G01 Z-2.1000
G01 F500.00
G01 X69.3057 Y25.5353
G01 X69.3026 Y25.5250
G01 X69.2975 Y25.5156
G01 X69.2907 Y25.5073
G01 X69.2824 Y25.5005
G01 X69.2730 Y25.4954
G01 X69.2627 Y25.4923
G01 X69.2520 Y25.4913
G01 X69.2413 Y25.4923
G01 X69.2310 Y25.4954
G01 X69.2216 Y25.5005
G01 X69.2133 Y25.5073
G01 X69.2065 Y25.5156
G01 X69.2014 Y25.5250
G01 X69.1983 Y25.5353
G01 X69.1972 Y25.5460
G01 X69.1983 Y25.5567
G01 X69.2014 Y25.5670
G01 X69.2065 Y25.5764
G01 X69.2133 Y25.5847
G01 X69.2216 Y25.5915
G01 X69.2310 Y25.5966
G01 X69.2413 Y25.5997
G01 X69.2520 Y25.6007
G01 X69.2627 Y25.5997
G01 X69.2730 Y25.5966
G01 X69.2824 Y25.5915
G01 X69.2907 Y25.5847
G01 X69.2975 Y25.5764
G01 X69.3026 Y25.5670
G01 X69.3057 Y25.5567
G01 X69.3067 Y25.5460
G01 X69.3057 Y25.5353
G00 Z5.0000
G00 X67.8898 Y20.7560
G01 F5050.00
G01 Z-2.1000
G01 F500.00
G01 X67.8890 Y20.7408
G01 X67.8868 Y20.7258
G01 X67.8831 Y20.7111
G01 X67.8780 Y20.6968
G01 X67.8715 Y20.6831
G01 X67.8637 Y20.6700
G01 X67.8546 Y20.6578
G01 X67.8444 Y20.6466
G01 X67.8332 Y20.6364
G01 X67.8210 Y20.6273
G01 X67.8079 Y20.6195
G01 X67.7942 Y20.6130
G01 X67.7799 Y20.6079
G01 X67.7652 Y20.6042
G01 X67.7502 Y20.6020
G01 X67.7350 Y20.6013
G01 X67.7198 Y20.6020
G01 X67.7048 Y20.6042
G01 X67.6901 Y20.6079
G01 X67.6758 Y20.6130
G01 X67.6621 Y20.6195
G01 X67.6490 Y20.6273
G01 X67.6368 Y20.6364
G01 X67.6256 Y20.6466
G01 X67.6154 Y20.6578
G01 X67.6063 Y20.6700
G01 X67.5985 Y20.6831
G01 X67.5920 Y20.6968
G01 X67.5869 Y20.7111
G01 X67.5832 Y20.7258
G01 X67.5810 Y20.7408
G01 X67.5802 Y20.7560
G01 X67.5810 Y20.7712
G01 X67.5832 Y20.7862
G01 X67.5869 Y20.8009
G01 X67.5920 Y20.8152
G01 X67.5985 Y20.8289
G01 X67.6063 Y20.8420
G01 X67.6154 Y20.8542
G01 X67.6256 Y20.8654
G01 X67.6368 Y20.8756
G01 X67.6490 Y20.8847
G01 X67.6621 Y20.8925
G01 X67.6758 Y20.8990
G01 X67.6901 Y20.9041
G01 X67.7048 Y20.9078
G01 X67.7198 Y20.9100
G01 X67.7350 Y20.9108
G01 X67.7502 Y20.9100
G01 X67.7652 Y20.9078
G01 X67.7799 Y20.9041
G01 X67.7942 Y20.8990
G01 X67.8079 Y20.8925
G01 X67.8210 Y20.8847
G01 X67.8332 Y20.8756
G01 X67.8444 Y20.8654
G01 X67.8546 Y20.8542
G01 X67.8637 Y20.8420
G01 X67.8715 Y20.8289
G01 X67.8780 Y20.8152
G01 X67.8831 Y20.8009
G01 X67.8868 Y20.7862
G01 X67.8890 Y20.7712
G01 X67.8898 Y20.7560
G01 X67.8890 Y20.7408
G00 Z5.0000
G00 X75.8588 Y16.9340
G01 F5050.00
G01 Z-2.1000
G01 F500.00
G01 X75.8580 Y16.9188
G01 X75.8558 Y16.9038
G01 X75.8521 Y16.8891
G01 X75.8470 Y16.8748
G01 X75.8405 Y16.8611
G01 X75.8327 Y16.8480
G01 X75.8236 Y16.8358
G01 X75.8134 Y16.8246
G01 X75.8022 Y16.8144
G01 X75.7900 Y16.8053
G01 X75.7769 Y16.7975
G01 X75.7632 Y16.7910
G01 X75.7489 Y16.7859
G01 X75.7342 Y16.7822
G01 X75.7192 Y16.7800
G01 X75.7040 Y16.7793
G01 X75.6888 Y16.7800
G01 X75.6738 Y16.7822
G01 X75.6591 Y16.7859
G01 X75.6448 Y16.7910
G01 X75.6311 Y16.7975
G01 X75.6180 Y16.8053
G01 X75.6058 Y16.8144
G01 X75.5946 Y16.8246
G01 X75.5844 Y16.8358
G01 X75.5753 Y16.8480
G01 X75.5675 Y16.8611
G01 X75.5610 Y16.8748
G01 X75.5559 Y16.8891
G01 X75.5522 Y16.9038
G01 X75.5500 Y16.9188
G01 X75.5492 Y16.9340
G01 X75.5500 Y16.9492
G01 X75.5522 Y16.9642
G01 X75.5559 Y16.9789
G01 X75.5610 Y16.9932
G01 X75.5675 Y17.0069
G01 X75.5753 Y17.0200
G01 X75.5844 Y17.0322
G01 X75.5946 Y17.0434
G01 X75.6058 Y17.0536
G01 X75.6180 Y17.0627
G01 X75.6311 Y17.0705
G01 X75.6448 Y17.0770
G01 X75.6591 Y17.0821
G01 X75.6738 Y17.0858
G01 X75.6888 Y17.0880
G01 X75.7040 Y17.0888
G01 X75.7192 Y17.0880
G01 X75.7342 Y17.0858
G01 X75.7489 Y17.0821
G01 X75.7632 Y17.0770
G01 X75.7769 Y17.0705
G01 X75.7900 Y17.0627
G01 X75.8022 Y17.0536
G01 X75.8134 Y17.0434
G01 X75.8236 Y17.0322
G01 X75.8327 Y17.0200
G01 X75.8405 Y17.0069
G01 X75.8470 Y16.9932
G01 X75.8521 Y16.9789
G01 X75.8558 Y16.9642
G01 X75.8580 Y16.9492
G01 X75.8588 Y16.9340
G01 X75.8580 Y16.9188
G00 Z5.0000
G00 X82.2338 Y4.8950
G01 F5050.00
G01 Z-2.1000
G01 F500.00
G01 X82.2330 Y4.8798
G01 X82.2308 Y4.8648
G01 X82.2271 Y4.8501
G01 X82.2220 Y4.8358
G01 X82.2155 Y4.8221
G01 X82.2077 Y4.8090
G01 X82.1986 Y4.7968
G01 X82.1884 Y4.7856
G01 X82.1772 Y4.7754
G01 X82.1650 Y4.7663
G01 X82.1519 Y4.7585
G01 X82.1382 Y4.7520
G01 X82.1239 Y4.7469
G01 X82.1092 Y4.7432
G01 X82.0942 Y4.7410
G01 X82.0790 Y4.7402
G01 X82.0638 Y4.7410
G01 X82.0488 Y4.7432
G01 X82.0341 Y4.7469
G01 X82.0198 Y4.7520
G01 X82.0061 Y4.7585
G01 X81.9930 Y4.7663
G01 X81.9808 Y4.7754
G01 X81.9696 Y4.7856
G01 X81.9594 Y4.7968
G01 X81.9503 Y4.8090
G01 X81.9425 Y4.8221
G01 X81.9360 Y4.8358
G01 X81.9309 Y4.8501
G01 X81.9272 Y4.8648
G01 X81.9250 Y4.8798
G01 X81.9242 Y4.8950
G01 X81.9250 Y4.9102
G01 X81.9272 Y4.9252
G01 X81.9309 Y4.9399
G01 X81.9360 Y4.9542
G01 X81.9425 Y4.9679
G01 X81.9503 Y4.9810
G01 X81.9594 Y4.9932
G01 X81.9696 Y5.0044
G01 X81.9808 Y5.0146
G01 X81.9930 Y5.0237
G01 X82.0061 Y5.0315
G01 X82.0198 Y5.0380
G01 X82.0341 Y5.0431
G01 X82.0488 Y5.0468
G01 X82.0638 Y5.0490
G01 X82.0790 Y5.0497
G01 X82.0942 Y5.0490
G01 X82.1092 Y5.0468
G01 X82.1239 Y5.0431
G01 X82.1382 Y5.0380
G01 X82.1519 Y5.0315
G01 X82.1650 Y5.0237
G01 X82.1772 Y5.0146
G01 X82.1884 Y5.0044
G01 X82.1986 Y4.9932
G01 X82.2077 Y4.9810
G01 X82.2155 Y4.9679
G01 X82.2220 Y4.9542
G01 X82.2271 Y4.9399
G01 X82.2308 Y4.9252
G01 X82.2330 Y4.9102
G01 X82.2338 Y4.8950
G01 X82.2330 Y4.8798
G00 Z5.0000
G00 X84.5708 Y29.3300
G01 F5050.00
G01 Z-2.1000
G01 F500.00
G01 X84.5700 Y29.3148
G01 X84.5678 Y29.2998
G01 X84.5641 Y29.2851
G01 X84.5590 Y29.2708
G01 X84.5525 Y29.2571
G01 X84.5447 Y29.2440
G01 X84.5356 Y29.2318
G01 X84.5254 Y29.2206
G01 X84.5142 Y29.2104
G01 X84.5020 Y29.2013
G01 X84.4889 Y29.1935
G01 X84.4752 Y29.1870
G01 X84.4609 Y29.1819
G01 X84.4462 Y29.1782
G01 X84.4312 Y29.1760
G01 X84.4160 Y29.1752
G01 X84.4008 Y29.1760
G01 X84.3858 Y29.1782
G01 X84.3711 Y29.1819
G01 X84.3568 Y29.1870
G01 X84.3431 Y29.1935
G01 X84.3300 Y29.2013
G01 X84.3178 Y29.2104
G01 X84.3066 Y29.2206
G01 X84.2964 Y29.2318
G01 X84.2873 Y29.2440
G01 X84.2795 Y29.2571
G01 X84.2730 Y29.2708
G01 X84.2679 Y29.2851
G01 X84.2642 Y29.2998
G01 X84.2620 Y29.3148
G01 X84.2612 Y29.3300
G01 X84.2620 Y29.3452
G01 X84.2642 Y29.3602
G01 X84.2679 Y29.3749
G01 X84.2730 Y29.3892
G01 X84.2795 Y29.4029
G01 X84.2873 Y29.4160
G01 X84.2964 Y29.4282
G01 X84.3066 Y29.4394
G01 X84.3178 Y29.4496
G01 X84.3300 Y29.4587
G01 X84.3431 Y29.4665
G01 X84.3568 Y29.4730
G01 X84.3711 Y29.4781
G01 X84.3858 Y29.4818
G01 X84.4008 Y29.4840
G01 X84.4160 Y29.4847
G01 X84.4312 Y29.4840
G01 X84.4462 Y29.4818
G01 X84.4609 Y29.4781
G01 X84.4752 Y29.4730
G01 X84.4889 Y29.4665
G01 X84.5020 Y29.4587
G01 X84.5142 Y29.4496
G01 X84.5254 Y29.4394
G01 X84.5356 Y29.4282
G01 X84.5447 Y29.4160
G01 X84.5525 Y29.4029
G01 X84.5590 Y29.3892
G01 X84.5641 Y29.3749
G01 X84.5678 Y29.3602
G01 X84.5700 Y29.3452
G01 X84.5708 Y29.3300
G01 X84.5700 Y29.3148
G00 Z5.0000
G00 X87.3138 Y29.2290
G01 F5050.00
G01 Z-2.1000
G01 F500.00
G01 X87.3130 Y29.2138
G01 X87.3108 Y29.1988
G01 X87.3071 Y29.1841
G01 X87.3020 Y29.1698
G01 X87.2955 Y29.1561
G01 X87.2877 Y29.1430
G01 X87.2786 Y29.1308
G01 X87.2684 Y29.1196
G01 X87.2572 Y29.1094
G01 X87.2450 Y29.1003
G01 X87.2319 Y29.0925
G01 X87.2182 Y29.0860
G01 X87.2039 Y29.0809
G01 X87.1892 Y29.0772
G01 X87.1742 Y29.0750
G01 X87.1590 Y29.0742
G01 X87.1438 Y29.0750
G01 X87.1288 Y29.0772
G01 X87.1141 Y29.0809
G01 X87.0998 Y29.0860
G01 X87.0861 Y29.0925
G01 X87.0730 Y29.1003
G01 X87.0608 Y29.1094
G01 X87.0496 Y29.1196
G01 X87.0394 Y29.1308
G01 X87.0303 Y29.1430
G01 X87.0225 Y29.1561
G01 X87.0160 Y29.1698
G01 X87.0109 Y29.1841
G01 X87.0072 Y29.1988
G01 X87.0050 Y29.2138
G01 X87.0042 Y29.2290
G01 X87.0050 Y29.2442
G01 X87.0072 Y29.2592
G01 X87.0109 Y29.2739
G01 X87.0160 Y29.2882
G01 X87.0225 Y29.3019
G01 X87.0303 Y29.3150
G01 X87.0394 Y29.3272
G01 X87.0496 Y29.3384
G01 X87.0608 Y29.3486
G01 X87.0730 Y29.3577
G01 X87.0861 Y29.3655
G01 X87.0998 Y29.3720
G01 X87.1141 Y29.3771
G01 X87.1288 Y29.3808
G01 X87.1438 Y29.3830
G01 X87.1590 Y29.3837
G01 X87.1742 Y29.3830
G01 X87.1892 Y29.3808
G01 X87.2039 Y29.3771
G01 X87.2182 Y29.3720
G01 X87.2319 Y29.3655
G01 X87.2450 Y29.3577
G01 X87.2572 Y29.3486
G01 X87.2684 Y29.3384
G01 X87.2786 Y29.3272
G01 X87.2877 Y29.3150
G01 X87.2955 Y29.3019
G01 X87.3020 Y29.2882
G01 X87.3071 Y29.2739
G01 X87.3108 Y29.2592
G01 X87.3130 Y29.2442
G01 X87.3138 Y29.2290
G01 X87.3130 Y29.2138
G00 Z5.0000
G00 X99.7867 Y34.2680
G01 F5050.00
G01 Z-2.1000
G01 F500.00
G01 X99.7862 Y34.2577
G01 X99.7847 Y34.2476
G01 X99.7822 Y34.2376
G01 X99.7788 Y34.2279
G01 X99.7744 Y34.2186
G01 X99.7691 Y34.2098
G01 X99.7630 Y34.2015
G01 X99.7561 Y34.1939
G01 X99.7485 Y34.1870
G01 X99.7402 Y34.1809
G01 X99.7314 Y34.1756
G01 X99.7221 Y34.1712
G01 X99.7124 Y34.1678
G01 X99.7024 Y34.1653
G01 X99.6923 Y34.1638
G01 X99.6820 Y34.1632
G01 X99.6717 Y34.1638
G01 X99.6616 Y34.1653
G01 X99.6516 Y34.1678
G01 X99.6419 Y34.1712
G01 X99.6326 Y34.1756
G01 X99.6238 Y34.1809
G01 X99.6155 Y34.1870
G01 X99.6079 Y34.1939
G01 X99.6010 Y34.2015
G01 X99.5949 Y34.2098
G01 X99.5896 Y34.2186
G01 X99.5852 Y34.2279
G01 X99.5818 Y34.2376
G01 X99.5793 Y34.2476
G01 X99.5778 Y34.2577
G01 X99.5773 Y34.2680
G01 X99.5778 Y34.2783
G01 X99.5793 Y34.2884
G01 X99.5818 Y34.2984
G01 X99.5852 Y34.3081
G01 X99.5896 Y34.3174
G01 X99.5949 Y34.3262
G01 X99.6010 Y34.3345
G01 X99.6079 Y34.3421
G01 X99.6155 Y34.3490
G01 X99.6238 Y34.3551
G01 X99.6326 Y34.3604
G01 X99.6419 Y34.3648
G01 X99.6516 Y34.3682
G01 X99.6616 Y34.3707
G01 X99.6717 Y34.3722
G01 X99.6820 Y34.3728
