(This GCode script was designed to adjust the Z height of a CNC machine according)
(to the minute variations in the surface height in order to achieve a better result in the milling/etching process)
(This script is the output of AutoLevellerAE, 0.9.5u2 Changeset: ...2d0387 @ http://autoleveller.co.uk)
(Author: James Hawthorne PhD. File creation date: 10-02-2019 20:54)
(This program and any of its output is licensed under GPLv2 and as such...)
(AutoLevellerAE comes with ABSOLUTELY NO WARRANTY; for details, see sections 11 and 12 of the GPLv2 @ http://www.gnu.org/licenses/old-licenses/gpl-2.0.html)

(The following is a checklist which can be used before the probe routine starts)
(The checklist may not be entirely correct given your machine, therefore you should make your own adaptations as appropriate)
(1. Make sure wires/clips are attached and the probe is working correctly)
(Test probe connections within control software before starting)
(2. Home all axis)
(3. Load GCode file that contains the probe routine into your software controller)
(4. Jog tool tip close to surface and touch off Z)
(5. Jog Z up a fraction to make sure surface is cleared)
(6. Jog to and touch off X and Y at the desired bottom left corner of the probe area)
(Note: The first probe will touch off Z to 0.0 when it first touches to the surface,)
(all other probe values are relative to this first point)

G90 G21 S20000 G17

M0 (Attach probe wires and clips that need attaching)
(Initialize probe routine)
G0 Z25 (Move clear of the board first)
G1 X1.0337 Y1.1137 F600 (Move to bottom left corner)
G0 Z1 (Quick move to probe clearance height)
G38.2 Z-1 F100 (Probe to a maximum of the specified probe height at the specified feed rate)
G92 Z0 (Touch off Z to 0 once contact is made)
G0 Z1 (Move Z to above the contact point)
G38.2 Z-1 F50 (Repeat at a more accurate slower rate)
G92 Z0
G0 Z1

G0 Z1
G1 X1.0337 Y1.1137 F600
G38.2 Z-1 F100
#500=#5422
G0 Z1
G1 X8.31545 Y1.1137 F600
G38.2 Z-1 F100
#501=#5422
G0 Z1
G1 X15.5972 Y1.1137 F600
G38.2 Z-1 F100
#502=#5422
G0 Z1
G1 X22.87895 Y1.1137 F600
G38.2 Z-1 F100
#503=#5422
G0 Z1
G1 X30.1607 Y1.1137 F600
G38.2 Z-1 F100
#504=#5422
G0 Z1
G1 X37.44245 Y1.1137 F600
G38.2 Z-1 F100
#505=#5422
G0 Z1
G1 X44.7242 Y1.1137 F600
G38.2 Z-1 F100
#506=#5422
G0 Z1
G1 X44.7242 Y9.60882 F600
G38.2 Z-1 F100
#513=#5422
G0 Z1
G1 X37.44245 Y9.60882 F600
G38.2 Z-1 F100
#512=#5422
G0 Z1
G1 X30.1607 Y9.60882 F600
G38.2 Z-1 F100
#511=#5422
G0 Z1
G1 X22.87895 Y9.60882 F600
G38.2 Z-1 F100
#510=#5422
G0 Z1
G1 X15.5972 Y9.60882 F600
G38.2 Z-1 F100
#509=#5422
G0 Z1
G1 X8.31545 Y9.60882 F600
G38.2 Z-1 F100
#508=#5422
G0 Z1
G1 X1.0337 Y9.60882 F600
G38.2 Z-1 F100
#507=#5422
G0 Z1
G1 X1.0337 Y18.10394 F600
G38.2 Z-1 F100
#514=#5422
G0 Z1
G1 X8.31545 Y18.10394 F600
G38.2 Z-1 F100
#515=#5422
G0 Z1
G1 X15.5972 Y18.10394 F600
G38.2 Z-1 F100
#516=#5422
G0 Z1
G1 X22.87895 Y18.10394 F600
G38.2 Z-1 F100
#517=#5422
G0 Z1
G1 X30.1607 Y18.10394 F600
G38.2 Z-1 F100
#518=#5422
G0 Z1
G1 X37.44245 Y18.10394 F600
G38.2 Z-1 F100
#519=#5422
G0 Z1
G1 X44.7242 Y18.10394 F600
G38.2 Z-1 F100
#520=#5422
G0 Z1
G1 X44.7242 Y26.59906 F600
G38.2 Z-1 F100
#527=#5422
G0 Z1
G1 X37.44245 Y26.59906 F600
G38.2 Z-1 F100
#526=#5422
G0 Z1
G1 X30.1607 Y26.59906 F600
G38.2 Z-1 F100
#525=#5422
G0 Z1
G1 X22.87895 Y26.59906 F600
G38.2 Z-1 F100
#524=#5422
G0 Z1
G1 X15.5972 Y26.59906 F600
G38.2 Z-1 F100
#523=#5422
G0 Z1
G1 X8.31545 Y26.59906 F600
G38.2 Z-1 F100
#522=#5422
G0 Z1
G1 X1.0337 Y26.59906 F600
G38.2 Z-1 F100
#521=#5422
G0 Z1
G1 X1.0337 Y35.09418 F600
G38.2 Z-1 F100
#528=#5422
G0 Z1
G1 X8.31545 Y35.09418 F600
G38.2 Z-1 F100
#529=#5422
G0 Z1
G1 X15.5972 Y35.09418 F600
G38.2 Z-1 F100
#530=#5422
G0 Z1
G1 X22.87895 Y35.09418 F600
G38.2 Z-1 F100
#531=#5422
G0 Z1
G1 X30.1607 Y35.09418 F600
G38.2 Z-1 F100
#532=#5422
G0 Z1
G1 X37.44245 Y35.09418 F600
G38.2 Z-1 F100
#533=#5422
G0 Z1
G1 X44.7242 Y35.09418 F600
G38.2 Z-1 F100
#534=#5422
G0 Z1.00000

M0 (Detach any clips used for probing)

(G-CODE GENERATED BY FLATCAM v8.905 - www.flatcam.org - Version Date: 2019/01/29)

(Name: Rectifier-F.Cu.gbr_iso_cnc)
(Type: G-code from Geometry)
(Units: MM)

(Created on Sunday, 10 February 2019 at 20:53)

(TOOL DIAMETER: 0.17 mm)
(Feedrate: 400.0 mm/min)
(Feedrate_Z: 350.0 mm/min)
(Feedrate rapids 800.0 mm/min)

(Z_Cut: -0.1306 mm)
(Z_Move: 2.0 mm)
(Z Toolchange: 50.0 mm)
(X,Y Toolchange: 0.0000, 0.0000 mm)
(Z Start: 1.0 mm)
(Z End: 20.0 mm)
(Steps per circle: 64)
(Postprocessor Geometry: default)
(Spindle Speed: 18000 RPM)
G94 ( Millimeters per minute feed rate. )
G21 ( Units == Millimeters. )
G90 ( Absolute coordinates. )
G64 P0.01000 ( set maximum deviation from commanded toolpath )
G21
G90
G94
G21
G90
G94

G01 F400.00
G00 Z2.0000
G00 Z1.0000
M03 S18000
G00 X3.5300 Y1.6686
G01 F350.00
#102=[#507+0.93468*#500-0.93468*#507]
#101=[#508+0.93468*#501-0.93468*#508]
#100=[#102+0.34282*#101-0.34282*#102]
G01 Z[#100+-0.1306]
#102=[#507+0.93468*#500-0.93468*#507]
#101=[#508+0.93468*#501-0.93468*#508]
#100=[#102+0.34282*#101-0.34282*#102]
G01 F400.00
#102=[#507+0.93468*#500-0.93468*#507]
#101=[#508+0.93468*#501-0.93468*#508]
#100=[#102+0.67241*#101-0.67241*#102]
G01 X5.9300 Y1.6686Z[#100+-0.1306]
#102=[#507+0.93453*#500-0.93453*#507]
#101=[#508+0.93453*#501-0.93453*#508]
#100=[#102+0.67587*#101-0.67587*#102]
G01 X5.9552 Y1.6699Z[#100+-0.1306]
#102=[#507+0.93406*#500-0.93406*#507]
#101=[#508+0.93406*#501-0.93406*#508]
#100=[#102+0.67929*#101-0.67929*#102]
G01 X5.9801 Y1.6739Z[#100+-0.1306]
#102=[#507+0.93329*#500-0.93329*#507]
#101=[#508+0.93329*#501-0.93329*#508]
#100=[#102+0.68264*#101-0.68264*#102]
G01 X6.0045 Y1.6804Z[#100+-0.1306]
#102=[#507+0.93223*#500-0.93223*#507]
#101=[#508+0.93223*#501-0.93223*#508]
#100=[#102+0.68587*#101-0.68587*#102]
G01 X6.0280 Y1.6894Z[#100+-0.1306]
#102=[#507+0.93088*#500-0.93088*#507]
#101=[#508+0.93088*#501-0.93088*#508]
#100=[#102+0.68897*#101-0.68897*#102]
G01 X6.0506 Y1.7009Z[#100+-0.1306]
#102=[#507+0.92925*#500-0.92925*#507]
#101=[#508+0.92925*#501-0.92925*#508]
#100=[#102+0.69188*#101-0.69188*#102]
G01 X6.0718 Y1.7147Z[#100+-0.1306]
#102=[#507+0.92738*#500-0.92738*#507]
#101=[#508+0.92738*#501-0.92738*#508]
#100=[#102+0.69459*#101-0.69459*#102]
G01 X6.0915 Y1.7306Z[#100+-0.1306]
#102=[#507+0.92527*#500-0.92527*#507]
#101=[#508+0.92527*#501-0.92527*#508]
#100=[#102+0.69704*#101-0.69704*#102]
G01 X6.1094 Y1.7485Z[#100+-0.1306]
#102=[#507+0.92296*#500-0.92296*#507]
#101=[#508+0.92296*#501-0.92296*#508]
#100=[#102+0.69923*#101-0.69923*#102]
G01 X6.1253 Y1.7682Z[#100+-0.1306]
#102=[#507+0.92046*#500-0.92046*#507]
#101=[#508+0.92046*#501-0.92046*#508]
#100=[#102+0.70112*#101-0.70112*#102]
G01 X6.1391 Y1.7894Z[#100+-0.1306]
#102=[#507+0.91780*#500-0.91780*#507]
#101=[#508+0.91780*#501-0.91780*#508]
#100=[#102+0.70270*#101-0.70270*#102]
G01 X6.1506 Y1.8120Z[#100+-0.1306]
#102=[#507+0.91503*#500-0.91503*#507]
#101=[#508+0.91503*#501-0.91503*#508]
#100=[#102+0.70394*#101-0.70394*#102]
G01 X6.1596 Y1.8355Z[#100+-0.1306]
#102=[#507+0.91216*#500-0.91216*#507]
#101=[#508+0.91216*#501-0.91216*#508]
#100=[#102+0.70483*#101-0.70483*#102]
G01 X6.1661 Y1.8599Z[#100+-0.1306]
#102=[#507+0.90923*#500-0.90923*#507]
#101=[#508+0.90923*#501-0.90923*#508]
#100=[#102+0.70538*#101-0.70538*#102]
G01 X6.1701 Y1.8848Z[#100+-0.1306]
#102=[#507+0.90626*#500-0.90626*#507]
#101=[#508+0.90626*#501-0.90626*#508]
#100=[#102+0.70556*#101-0.70556*#102]
G01 X6.1714 Y1.9100Z[#100+-0.1306]
#102=[#507+0.62375*#500-0.62375*#507]
#101=[#508+0.62375*#501-0.62375*#508]
#100=[#102+0.70556*#101-0.70556*#102]
G01 X6.1714 Y4.3100Z[#100+-0.1306]
#102=[#507+0.62078*#500-0.62078*#507]
#101=[#508+0.62078*#501-0.62078*#508]
#100=[#102+0.70538*#101-0.70538*#102]
G01 X6.1701 Y4.3352Z[#100+-0.1306]
#102=[#507+0.61785*#500-0.61785*#507]
#101=[#508+0.61785*#501-0.61785*#508]
#100=[#102+0.70483*#101-0.70483*#102]
G01 X6.1661 Y4.3601Z[#100+-0.1306]
#102=[#507+0.61498*#500-0.61498*#507]
#101=[#508+0.61498*#501-0.61498*#508]
#100=[#102+0.70394*#101-0.70394*#102]
G01 X6.1596 Y4.3845Z[#100+-0.1306]
#102=[#507+0.61221*#500-0.61221*#507]
#101=[#508+0.61221*#501-0.61221*#508]
#100=[#102+0.70270*#101-0.70270*#102]
G01 X6.1506 Y4.4080Z[#100+-0.1306]
#102=[#507+0.60955*#500-0.60955*#507]
#101=[#508+0.60955*#501-0.60955*#508]
#100=[#102+0.70112*#101-0.70112*#102]
G01 X6.1391 Y4.4306Z[#100+-0.1306]
#102=[#507+0.60706*#500-0.60706*#507]
#101=[#508+0.60706*#501-0.60706*#508]
#100=[#102+0.69923*#101-0.69923*#102]
G01 X6.1253 Y4.4518Z[#100+-0.1306]
#102=[#507+0.60474*#500-0.60474*#507]
#101=[#508+0.60474*#501-0.60474*#508]
#100=[#102+0.69704*#101-0.69704*#102]
G01 X6.1094 Y4.4715Z[#100+-0.1306]
#102=[#507+0.60263*#500-0.60263*#507]
#101=[#508+0.60263*#501-0.60263*#508]
#100=[#102+0.69459*#101-0.69459*#102]
G01 X6.0915 Y4.4894Z[#100+-0.1306]
#102=[#507+0.60076*#500-0.60076*#507]
#101=[#508+0.60076*#501-0.60076*#508]
#100=[#102+0.69188*#101-0.69188*#102]
G01 X6.0718 Y4.5053Z[#100+-0.1306]
#102=[#507+0.59913*#500-0.59913*#507]
#101=[#508+0.59913*#501-0.59913*#508]
#100=[#102+0.68897*#101-0.68897*#102]
G01 X6.0506 Y4.5191Z[#100+-0.1306]
#102=[#507+0.59778*#500-0.59778*#507]
#101=[#508+0.59778*#501-0.59778*#508]
#100=[#102+0.68587*#101-0.68587*#102]
G01 X6.0280 Y4.5306Z[#100+-0.1306]
#102=[#507+0.59672*#500-0.59672*#507]
#101=[#508+0.59672*#501-0.59672*#508]
#100=[#102+0.68264*#101-0.68264*#102]
G01 X6.0045 Y4.5396Z[#100+-0.1306]
#102=[#507+0.59596*#500-0.59596*#507]
#101=[#508+0.59596*#501-0.59596*#508]
#100=[#102+0.67929*#101-0.67929*#102]
G01 X5.9801 Y4.5461Z[#100+-0.1306]
#102=[#507+0.59549*#500-0.59549*#507]
#101=[#508+0.59549*#501-0.59549*#508]
#100=[#102+0.67587*#101-0.67587*#102]
G01 X5.9552 Y4.5501Z[#100+-0.1306]
#102=[#507+0.59533*#500-0.59533*#507]
#101=[#508+0.59533*#501-0.59533*#508]
#100=[#102+0.67241*#101-0.67241*#102]
G01 X5.9300 Y4.5514Z[#100+-0.1306]
#102=[#507+0.59533*#500-0.59533*#507]
#101=[#508+0.59533*#501-0.59533*#508]
#100=[#102+0.34282*#101-0.34282*#102]
G01 X3.5300 Y4.5514Z[#100+-0.1306]
#102=[#507+0.59549*#500-0.59549*#507]
#101=[#508+0.59549*#501-0.59549*#508]
#100=[#102+0.33936*#101-0.33936*#102]
G01 X3.5048 Y4.5501Z[#100+-0.1306]
#102=[#507+0.59596*#500-0.59596*#507]
#101=[#508+0.59596*#501-0.59596*#508]
#100=[#102+0.33594*#101-0.33594*#102]
G01 X3.4799 Y4.5461Z[#100+-0.1306]
#102=[#507+0.59672*#500-0.59672*#507]
#101=[#508+0.59672*#501-0.59672*#508]
#100=[#102+0.33258*#101-0.33258*#102]
G01 X3.4555 Y4.5396Z[#100+-0.1306]
#102=[#507+0.59778*#500-0.59778*#507]
#101=[#508+0.59778*#501-0.59778*#508]
#100=[#102+0.32936*#101-0.32936*#102]
G01 X3.4320 Y4.5306Z[#100+-0.1306]
#102=[#507+0.59913*#500-0.59913*#507]
#101=[#508+0.59913*#501-0.59913*#508]
#100=[#102+0.32625*#101-0.32625*#102]
G01 X3.4094 Y4.5191Z[#100+-0.1306]
#102=[#507+0.60076*#500-0.60076*#507]
#101=[#508+0.60076*#501-0.60076*#508]
#100=[#102+0.32334*#101-0.32334*#102]
G01 X3.3882 Y4.5053Z[#100+-0.1306]
#102=[#507+0.60263*#500-0.60263*#507]
#101=[#508+0.60263*#501-0.60263*#508]
#100=[#102+0.32064*#101-0.32064*#102]
G01 X3.3685 Y4.4894Z[#100+-0.1306]
#102=[#507+0.60474*#500-0.60474*#507]
#101=[#508+0.60474*#501-0.60474*#508]
#100=[#102+0.31818*#101-0.31818*#102]
G01 X3.3506 Y4.4715Z[#100+-0.1306]
#102=[#507+0.60706*#500-0.60706*#507]
#101=[#508+0.60706*#501-0.60706*#508]
#100=[#102+0.31600*#101-0.31600*#102]
G01 X3.3347 Y4.4518Z[#100+-0.1306]
#102=[#507+0.60955*#500-0.60955*#507]
#101=[#508+0.60955*#501-0.60955*#508]
#100=[#102+0.31410*#101-0.31410*#102]
G01 X3.3209 Y4.4306Z[#100+-0.1306]
#102=[#507+0.61221*#500-0.61221*#507]
#101=[#508+0.61221*#501-0.61221*#508]
#100=[#102+0.31252*#101-0.31252*#102]
G01 X3.3094 Y4.4080Z[#100+-0.1306]
#102=[#507+0.61498*#500-0.61498*#507]
#101=[#508+0.61498*#501-0.61498*#508]
#100=[#102+0.31129*#101-0.31129*#102]
G01 X3.3004 Y4.3845Z[#100+-0.1306]
#102=[#507+0.61785*#500-0.61785*#507]
#101=[#508+0.61785*#501-0.61785*#508]
#100=[#102+0.31039*#101-0.31039*#102]
G01 X3.2939 Y4.3601Z[#100+-0.1306]
#102=[#507+0.62078*#500-0.62078*#507]
#101=[#508+0.62078*#501-0.62078*#508]
#100=[#102+0.30984*#101-0.30984*#102]
G01 X3.2899 Y4.3352Z[#100+-0.1306]
#102=[#507+0.62375*#500-0.62375*#507]
#101=[#508+0.62375*#501-0.62375*#508]
#100=[#102+0.30966*#101-0.30966*#102]
G01 X3.2886 Y4.3100Z[#100+-0.1306]
#102=[#507+0.90626*#500-0.90626*#507]
#101=[#508+0.90626*#501-0.90626*#508]
#100=[#102+0.30966*#101-0.30966*#102]
G01 X3.2886 Y1.9100Z[#100+-0.1306]
#102=[#507+0.90923*#500-0.90923*#507]
#101=[#508+0.90923*#501-0.90923*#508]
#100=[#102+0.30984*#101-0.30984*#102]
G01 X3.2899 Y1.8848Z[#100+-0.1306]
#102=[#507+0.91216*#500-0.91216*#507]
#101=[#508+0.91216*#501-0.91216*#508]
#100=[#102+0.31039*#101-0.31039*#102]
G01 X3.2939 Y1.8599Z[#100+-0.1306]
#102=[#507+0.91503*#500-0.91503*#507]
#101=[#508+0.91503*#501-0.91503*#508]
#100=[#102+0.31129*#101-0.31129*#102]
G01 X3.3004 Y1.8355Z[#100+-0.1306]
#102=[#507+0.91780*#500-0.91780*#507]
#101=[#508+0.91780*#501-0.91780*#508]
#100=[#102+0.31252*#101-0.31252*#102]
G01 X3.3094 Y1.8120Z[#100+-0.1306]
#102=[#507+0.92046*#500-0.92046*#507]
#101=[#508+0.92046*#501-0.92046*#508]
#100=[#102+0.31410*#101-0.31410*#102]
G01 X3.3209 Y1.7894Z[#100+-0.1306]
#102=[#507+0.92296*#500-0.92296*#507]
#101=[#508+0.92296*#501-0.92296*#508]
#100=[#102+0.31600*#101-0.31600*#102]
G01 X3.3347 Y1.7682Z[#100+-0.1306]
#102=[#507+0.92527*#500-0.92527*#507]
#101=[#508+0.92527*#501-0.92527*#508]
#100=[#102+0.31818*#101-0.31818*#102]
G01 X3.3506 Y1.7485Z[#100+-0.1306]
#102=[#507+0.92738*#500-0.92738*#507]
#101=[#508+0.92738*#501-0.92738*#508]
#100=[#102+0.32064*#101-0.32064*#102]
G01 X3.3685 Y1.7306Z[#100+-0.1306]
#102=[#507+0.92925*#500-0.92925*#507]
#101=[#508+0.92925*#501-0.92925*#508]
#100=[#102+0.32334*#101-0.32334*#102]
G01 X3.3882 Y1.7147Z[#100+-0.1306]
#102=[#507+0.93088*#500-0.93088*#507]
#101=[#508+0.93088*#501-0.93088*#508]
#100=[#102+0.32625*#101-0.32625*#102]
G01 X3.4094 Y1.7009Z[#100+-0.1306]
#102=[#507+0.93223*#500-0.93223*#507]
#101=[#508+0.93223*#501-0.93223*#508]
#100=[#102+0.32936*#101-0.32936*#102]
G01 X3.4320 Y1.6894Z[#100+-0.1306]
#102=[#507+0.93329*#500-0.93329*#507]
#101=[#508+0.93329*#501-0.93329*#508]
#100=[#102+0.33258*#101-0.33258*#102]
G01 X3.4555 Y1.6804Z[#100+-0.1306]
#102=[#507+0.93406*#500-0.93406*#507]
#101=[#508+0.93406*#501-0.93406*#508]
#100=[#102+0.33594*#101-0.33594*#102]
G01 X3.4799 Y1.6739Z[#100+-0.1306]
#102=[#507+0.93453*#500-0.93453*#507]
#101=[#508+0.93453*#501-0.93453*#508]
#100=[#102+0.33936*#101-0.33936*#102]
G01 X3.5048 Y1.6699Z[#100+-0.1306]
#102=[#507+0.93468*#500-0.93468*#507]
#101=[#508+0.93468*#501-0.93468*#508]
#100=[#102+0.34282*#101-0.34282*#102]
G01 X3.5300 Y1.6686Z[#100+-0.1306]
#102=[#507+0.93468*#500-0.93468*#507]
#101=[#508+0.93468*#501-0.93468*#508]
#100=[#102+0.67241*#101-0.67241*#102]
G01 X5.9300 Y1.6686Z[#100+-0.1306]
G00 Z2.0000
G00 X3.5300 Y1.8250
G01 F350.00
#102=[#507+0.91627*#500-0.91627*#507]
#101=[#508+0.91627*#501-0.91627*#508]
#100=[#102+0.34282*#101-0.34282*#102]
G01 Z[#100+-0.1306]
#102=[#507+0.91627*#500-0.91627*#507]
#101=[#508+0.91627*#501-0.91627*#508]
#100=[#102+0.34282*#101-0.34282*#102]
G01 F400.00
#102=[#507+0.91627*#500-0.91627*#507]
#101=[#508+0.91627*#501-0.91627*#508]
#100=[#102+0.67241*#101-0.67241*#102]
G01 X5.9300 Y1.8250Z[#100+-0.1306]
#102=[#507+0.91605*#500-0.91605*#507]
#101=[#508+0.91605*#501-0.91605*#508]
#100=[#102+0.67482*#101-0.67482*#102]
G01 X5.9476 Y1.8269Z[#100+-0.1306]
#102=[#507+0.91541*#500-0.91541*#507]
#101=[#508+0.91541*#501-0.91541*#508]
#100=[#102+0.67714*#101-0.67714*#102]
G01 X5.9645 Y1.8323Z[#100+-0.1306]
#102=[#507+0.91436*#500-0.91436*#507]
#101=[#508+0.91436*#501-0.91436*#508]
#100=[#102+0.67926*#101-0.67926*#102]
G01 X5.9799 Y1.8412Z[#100+-0.1306]
#102=[#507+0.91296*#500-0.91296*#507]
#101=[#508+0.91296*#501-0.91296*#508]
#100=[#102+0.68109*#101-0.68109*#102]
G01 X5.9932 Y1.8531Z[#100+-0.1306]
#102=[#507+0.91127*#500-0.91127*#507]
#101=[#508+0.91127*#501-0.91127*#508]
#100=[#102+0.68251*#101-0.68251*#102]
G01 X6.0036 Y1.8675Z[#100+-0.1306]
#102=[#507+0.91032*#500-0.91032*#507]
#101=[#508+0.91032*#501-0.91032*#508]
#100=[#102+0.68308*#101-0.68308*#102]
G01 X6.0077 Y1.8755Z[#100+-0.1306]
#102=[#507+0.90834*#500-0.90834*#507]
#101=[#508+0.90834*#501-0.90834*#508]
#100=[#102+0.68382*#101-0.68382*#102]
G01 X6.0131 Y1.8924Z[#100+-0.1306]
#102=[#507+0.90626*#500-0.90626*#507]
#101=[#508+0.90626*#501-0.90626*#508]
#100=[#102+0.68408*#101-0.68408*#102]
G01 X6.0150 Y1.9100Z[#100+-0.1306]
#102=[#507+0.62375*#500-0.62375*#507]
#101=[#508+0.62375*#501-0.62375*#508]
#100=[#102+0.68408*#101-0.68408*#102]
G01 X6.0150 Y4.3100Z[#100+-0.1306]
#102=[#507+0.62168*#500-0.62168*#507]
#101=[#508+0.62168*#501-0.62168*#508]
#100=[#102+0.68382*#101-0.68382*#102]
G01 X6.0131 Y4.3276Z[#100+-0.1306]
#102=[#507+0.61969*#500-0.61969*#507]
#101=[#508+0.61969*#501-0.61969*#508]
#100=[#102+0.68308*#101-0.68308*#102]
G01 X6.0077 Y4.3445Z[#100+-0.1306]
#102=[#507+0.61787*#500-0.61787*#507]
#101=[#508+0.61787*#501-0.61787*#508]
#100=[#102+0.68186*#101-0.68186*#102]
G01 X5.9988 Y4.3599Z[#100+-0.1306]
#102=[#507+0.61631*#500-0.61631*#507]
#101=[#508+0.61631*#501-0.61631*#508]
#100=[#102+0.68022*#101-0.68022*#102]
G01 X5.9869 Y4.3732Z[#100+-0.1306]
#102=[#507+0.61508*#500-0.61508*#507]
#101=[#508+0.61508*#501-0.61508*#508]
#100=[#102+0.67824*#101-0.67824*#102]
G01 X5.9725 Y4.3836Z[#100+-0.1306]
#102=[#507+0.61460*#500-0.61460*#507]
#101=[#508+0.61460*#501-0.61460*#508]
#100=[#102+0.67714*#101-0.67714*#102]
G01 X5.9645 Y4.3877Z[#100+-0.1306]
#102=[#507+0.61397*#500-0.61397*#507]
#101=[#508+0.61397*#501-0.61397*#508]
#100=[#102+0.67482*#101-0.67482*#102]
G01 X5.9476 Y4.3931Z[#100+-0.1306]
#102=[#507+0.61374*#500-0.61374*#507]
#101=[#508+0.61374*#501-0.61374*#508]
#100=[#102+0.67241*#101-0.67241*#102]
G01 X5.9300 Y4.3950Z[#100+-0.1306]
#102=[#507+0.61374*#500-0.61374*#507]
#101=[#508+0.61374*#501-0.61374*#508]
#100=[#102+0.34282*#101-0.34282*#102]
G01 X3.5300 Y4.3950Z[#100+-0.1306]
#102=[#507+0.61397*#500-0.61397*#507]
#101=[#508+0.61397*#501-0.61397*#508]
#100=[#102+0.34040*#101-0.34040*#102]
G01 X3.5124 Y4.3931Z[#100+-0.1306]
#102=[#507+0.61460*#500-0.61460*#507]
#101=[#508+0.61460*#501-0.61460*#508]
#100=[#102+0.33808*#101-0.33808*#102]
G01 X3.4955 Y4.3877Z[#100+-0.1306]
#102=[#507+0.61565*#500-0.61565*#507]
#101=[#508+0.61565*#501-0.61565*#508]
#100=[#102+0.33596*#101-0.33596*#102]
G01 X3.4801 Y4.3788Z[#100+-0.1306]
#102=[#507+0.61705*#500-0.61705*#507]
#101=[#508+0.61705*#501-0.61705*#508]
#100=[#102+0.33414*#101-0.33414*#102]
G01 X3.4668 Y4.3669Z[#100+-0.1306]
#102=[#507+0.61875*#500-0.61875*#507]
#101=[#508+0.61875*#501-0.61875*#508]
#100=[#102+0.33271*#101-0.33271*#102]
G01 X3.4564 Y4.3525Z[#100+-0.1306]
#102=[#507+0.61969*#500-0.61969*#507]
#101=[#508+0.61969*#501-0.61969*#508]
#100=[#102+0.33215*#101-0.33215*#102]
G01 X3.4523 Y4.3445Z[#100+-0.1306]
#102=[#507+0.62168*#500-0.62168*#507]
#101=[#508+0.62168*#501-0.62168*#508]
#100=[#102+0.33140*#101-0.33140*#102]
G01 X3.4469 Y4.3276Z[#100+-0.1306]
#102=[#507+0.62375*#500-0.62375*#507]
#101=[#508+0.62375*#501-0.62375*#508]
#100=[#102+0.33114*#101-0.33114*#102]
G01 X3.4450 Y4.3100Z[#100+-0.1306]
#102=[#507+0.90626*#500-0.90626*#507]
#101=[#508+0.90626*#501-0.90626*#508]
#100=[#102+0.33114*#101-0.33114*#102]
G01 X3.4450 Y1.9100Z[#100+-0.1306]
#102=[#507+0.90834*#500-0.90834*#507]
#101=[#508+0.90834*#501-0.90834*#508]
#100=[#102+0.33140*#101-0.33140*#102]
G01 X3.4469 Y1.8924Z[#100+-0.1306]
#102=[#507+0.91032*#500-0.91032*#507]
#101=[#508+0.91032*#501-0.91032*#508]
#100=[#102+0.33215*#101-0.33215*#102]
G01 X3.4523 Y1.8755Z[#100+-0.1306]
#102=[#507+0.91127*#500-0.91127*#507]
#101=[#508+0.91127*#501-0.91127*#508]
#100=[#102+0.33271*#101-0.33271*#102]
G01 X3.4564 Y1.8675Z[#100+-0.1306]
#102=[#507+0.91296*#500-0.91296*#507]
#101=[#508+0.91296*#501-0.91296*#508]
#100=[#102+0.33414*#101-0.33414*#102]
G01 X3.4668 Y1.8531Z[#100+-0.1306]
#102=[#507+0.91436*#500-0.91436*#507]
#101=[#508+0.91436*#501-0.91436*#508]
#100=[#102+0.33596*#101-0.33596*#102]
G01 X3.4801 Y1.8412Z[#100+-0.1306]
#102=[#507+0.91541*#500-0.91541*#507]
#101=[#508+0.91541*#501-0.91541*#508]
#100=[#102+0.33808*#101-0.33808*#102]
G01 X3.4955 Y1.8323Z[#100+-0.1306]
#102=[#507+0.91605*#500-0.91605*#507]
#101=[#508+0.91605*#501-0.91605*#508]
#100=[#102+0.34040*#101-0.34040*#102]
G01 X3.5124 Y1.8269Z[#100+-0.1306]
#102=[#507+0.91627*#500-0.91627*#507]
#101=[#508+0.91627*#501-0.91627*#508]
#100=[#102+0.34282*#101-0.34282*#102]
G01 X3.5300 Y1.8250Z[#100+-0.1306]
#102=[#507+0.91627*#500-0.91627*#507]
#101=[#508+0.91627*#501-0.91627*#508]
#100=[#102+0.67241*#101-0.67241*#102]
G01 X5.9300 Y1.8250Z[#100+-0.1306]
G00 Z2.0000
G00 X4.0076 Y4.6015
G01 F350.00
#102=[#507+0.58943*#500-0.58943*#507]
#101=[#508+0.58943*#501-0.58943*#508]
#100=[#102+0.40840*#101-0.40840*#102]
G01 Z[#100+-0.1306]
#102=[#507+0.58943*#500-0.58943*#507]
#101=[#508+0.58943*#501-0.58943*#508]
#100=[#102+0.40840*#101-0.40840*#102]
G01 F400.00
#102=[#507+0.59015*#500-0.59015*#507]
#101=[#508+0.59015*#501-0.59015*#508]
#100=[#102+0.40482*#101-0.40482*#102]
G01 X3.9815 Y4.5954Z[#100+-0.1306]
#102=[#507+0.59042*#500-0.59042*#507]
#101=[#508+0.59042*#501-0.59042*#508]
#100=[#102+0.40291*#101-0.40291*#102]
G01 X3.9676 Y4.5931Z[#100+-0.1306]
#102=[#507+0.59069*#500-0.59069*#507]
#101=[#508+0.59069*#501-0.59069*#508]
#100=[#102+0.40041*#101-0.40041*#102]
G01 X3.9494 Y4.5908Z[#100+-0.1306]
#102=[#507+0.59087*#500-0.59087*#507]
#101=[#508+0.59087*#501-0.59087*#508]
#100=[#102+0.39731*#101-0.39731*#102]
G01 X3.9268 Y4.5893Z[#100+-0.1306]
#102=[#507+0.59091*#500-0.59091*#507]
#101=[#508+0.59091*#501-0.59091*#508]
#100=[#102+0.34780*#101-0.34780*#102]
G01 X3.5663 Y4.5890Z[#100+-0.1306]
#102=[#507+0.59419*#500-0.59419*#507]
#101=[#508+0.59419*#501-0.59419*#508]
#100=[#102+0.32853*#101-0.32853*#102]
G01 X3.4260 Y4.5611Z[#100+-0.1306]
#102=[#507+0.60112*#500-0.60112*#507]
#101=[#508+0.60112*#501-0.60112*#508]
#100=[#102+0.31642*#101-0.31642*#102]
G01 X3.3378 Y4.5022Z[#100+-0.1306]
#102=[#507+0.61151*#500-0.61151*#507]
#101=[#508+0.61151*#501-0.61151*#508]
#100=[#102+0.30833*#101-0.30833*#102]
G01 X3.2789 Y4.4140Z[#100+-0.1306]
#102=[#507+0.62802*#500-0.62802*#507]
#101=[#508+0.62802*#501-0.62802*#508]
#100=[#102+0.30450*#101-0.30450*#102]
G01 X3.2510 Y4.2737Z[#100+-0.1306]
#102=[#507+0.90199*#500-0.90199*#507]
#101=[#508+0.90199*#501-0.90199*#508]
#100=[#102+0.30450*#101-0.30450*#102]
G01 X3.2510 Y1.9463Z[#100+-0.1306]
#102=[#507+0.91851*#500-0.91851*#507]
#101=[#508+0.91851*#501-0.91851*#508]
#100=[#102+0.30833*#101-0.30833*#102]
G01 X3.2789 Y1.8060Z[#100+-0.1306]
#102=[#507+0.92889*#500-0.92889*#507]
#101=[#508+0.92889*#501-0.92889*#508]
#100=[#102+0.31642*#101-0.31642*#102]
G01 X3.3378 Y1.7178Z[#100+-0.1306]
#102=[#507+0.93582*#500-0.93582*#507]
#101=[#508+0.93582*#501-0.93582*#508]
#100=[#102+0.32853*#101-0.32853*#102]
G01 X3.4260 Y1.6589Z[#100+-0.1306]
#102=[#507+0.93911*#500-0.93911*#507]
#101=[#508+0.93911*#501-0.93911*#508]
#100=[#102+0.34780*#101-0.34780*#102]
G01 X3.5663 Y1.6310Z[#100+-0.1306]
#102=[#507+0.93911*#500-0.93911*#507]
#101=[#508+0.93911*#501-0.93911*#508]
#100=[#102+0.66742*#101-0.66742*#102]
G01 X5.8937 Y1.6310Z[#100+-0.1306]
#102=[#507+0.93582*#500-0.93582*#507]
#101=[#508+0.93582*#501-0.93582*#508]
#100=[#102+0.68669*#101-0.68669*#102]
G01 X6.0340 Y1.6589Z[#100+-0.1306]
#102=[#507+0.92889*#500-0.92889*#507]
#101=[#508+0.92889*#501-0.92889*#508]
#100=[#102+0.69880*#101-0.69880*#102]
G01 X6.1222 Y1.7178Z[#100+-0.1306]
#102=[#507+0.91851*#500-0.91851*#507]
#101=[#508+0.91851*#501-0.91851*#508]
#100=[#102+0.70689*#101-0.70689*#102]
G01 X6.1811 Y1.8060Z[#100+-0.1306]
#102=[#507+0.90199*#500-0.90199*#507]
#101=[#508+0.90199*#501-0.90199*#508]
#100=[#102+0.71072*#101-0.71072*#102]
G01 X6.2090 Y1.9463Z[#100+-0.1306]
#102=[#507+0.62802*#500-0.62802*#507]
#101=[#508+0.62802*#501-0.62802*#508]
#100=[#102+0.71072*#101-0.71072*#102]
G01 X6.2090 Y4.2737Z[#100+-0.1306]
#102=[#507+0.61151*#500-0.61151*#507]
#101=[#508+0.61151*#501-0.61151*#508]
#100=[#102+0.70689*#101-0.70689*#102]
G01 X6.1811 Y4.4140Z[#100+-0.1306]
#102=[#507+0.60112*#500-0.60112*#507]
#101=[#508+0.60112*#501-0.60112*#508]
#100=[#102+0.69880*#101-0.69880*#102]
G01 X6.1222 Y4.5022Z[#100+-0.1306]
#102=[#507+0.59419*#500-0.59419*#507]
#101=[#508+0.59419*#501-0.59419*#508]
#100=[#102+0.68669*#101-0.68669*#102]
G01 X6.0340 Y4.5611Z[#100+-0.1306]
#102=[#507+0.59091*#500-0.59091*#507]
#101=[#508+0.59091*#501-0.59091*#508]
#100=[#102+0.66742*#101-0.66742*#102]
G01 X5.8937 Y4.5890Z[#100+-0.1306]
#102=[#507+0.59091*#500-0.59091*#507]
#101=[#508+0.59091*#501-0.59091*#508]
#100=[#102+0.62170*#101-0.62170*#102]
G01 X5.5608 Y4.5890Z[#100+-0.1306]
#102=[#507+0.59069*#500-0.59069*#507]
#101=[#508+0.59069*#501-0.59069*#508]
#100=[#102+0.61671*#101-0.61671*#102]
G01 X5.5244 Y4.5908Z[#100+-0.1306]
#102=[#507+0.59011*#500-0.59011*#507]
#101=[#508+0.59011*#501-0.59011*#508]
#100=[#102+0.61208*#101-0.61208*#102]
G01 X5.4907 Y4.5958Z[#100+-0.1306]
#102=[#507+0.58952*#500-0.58952*#507]
#101=[#508+0.58952*#501-0.58952*#508]
#100=[#102+0.60902*#101-0.60902*#102]
G01 X5.4684 Y4.6008Z[#100+-0.1306]
#102=[#507+0.58833*#500-0.58833*#507]
#101=[#508+0.58833*#501-0.58833*#508]
#100=[#102+0.60450*#101-0.60450*#102]
G01 X5.4355 Y4.6109Z[#100+-0.1306]
#102=[#507+0.58712*#500-0.58712*#507]
#101=[#508+0.58712*#501-0.58712*#508]
#100=[#102+0.60105*#101-0.60105*#102]
G01 X5.4104 Y4.6212Z[#100+-0.1306]
#102=[#507+0.58636*#500-0.58636*#507]
#101=[#508+0.58636*#501-0.58636*#508]
#100=[#102+0.59917*#101-0.59917*#102]
G01 X5.3967 Y4.6276Z[#100+-0.1306]
#102=[#507+0.58447*#500-0.58447*#507]
#101=[#508+0.58447*#501-0.58447*#508]
#100=[#102+0.59520*#101-0.59520*#102]
G01 X5.3678 Y4.6437Z[#100+-0.1306]
#102=[#507+0.58307*#500-0.58307*#507]
#101=[#508+0.58307*#501-0.58307*#508]
#100=[#102+0.59273*#101-0.59273*#102]
G01 X5.3498 Y4.6556Z[#100+-0.1306]
#102=[#507+0.58152*#500-0.58152*#507]
#101=[#508+0.58152*#501-0.58152*#508]
#100=[#102+0.59028*#101-0.59028*#102]
G01 X5.3320 Y4.6687Z[#100+-0.1306]
#102=[#507+0.57884*#500-0.57884*#507]
#101=[#508+0.57884*#501-0.57884*#508]
#100=[#102+0.58670*#101-0.58670*#102]
G01 X5.3059 Y4.6915Z[#100+-0.1306]
#102=[#507+0.57682*#500-0.57682*#507]
#101=[#508+0.57682*#501-0.57682*#508]
#100=[#102+0.58439*#101-0.58439*#102]
G01 X5.2891 Y4.7087Z[#100+-0.1306]
#102=[#507+0.57408*#500-0.57408*#507]
#101=[#508+0.57408*#501-0.57408*#508]
#100=[#102+0.58170*#101-0.58170*#102]
G01 X5.2695 Y4.7319Z[#100+-0.1306]
#102=[#507+0.56985*#500-0.56985*#507]
#101=[#508+0.56985*#501-0.56985*#508]
#100=[#102+0.57831*#101-0.57831*#102]
G01 X5.2448 Y4.7679Z[#100+-0.1306]
#102=[#507+0.56689*#500-0.56689*#507]
#101=[#508+0.56689*#501-0.56689*#508]
#100=[#102+0.57645*#101-0.57645*#102]
G01 X5.2313 Y4.7930Z[#100+-0.1306]
#102=[#507+0.56427*#500-0.56427*#507]
#101=[#508+0.56427*#501-0.56427*#508]
#100=[#102+0.57503*#101-0.57503*#102]
G01 X5.2209 Y4.8153Z[#100+-0.1306]
#102=[#507+0.56182*#500-0.56182*#507]
#101=[#508+0.56182*#501-0.56182*#508]
#100=[#102+0.57394*#101-0.57394*#102]
G01 X5.2130 Y4.8361Z[#100+-0.1306]
#102=[#507+0.55758*#500-0.55758*#507]
#101=[#508+0.55758*#501-0.55758*#508]
#100=[#102+0.57250*#101-0.57250*#102]
G01 X5.2025 Y4.8721Z[#100+-0.1306]
#102=[#507+0.55553*#500-0.55553*#507]
#101=[#508+0.55553*#501-0.55553*#508]
#100=[#102+0.57198*#101-0.57198*#102]
G01 X5.1987 Y4.8895Z[#100+-0.1306]
#102=[#507+0.55270*#500-0.55270*#507]
#101=[#508+0.55270*#501-0.55270*#508]
#100=[#102+0.57148*#101-0.57148*#102]
G01 X5.1951 Y4.9136Z[#100+-0.1306]
#102=[#507+0.54946*#500-0.54946*#507]
#101=[#508+0.54946*#501-0.54946*#508]
#100=[#102+0.57118*#101-0.57118*#102]
G01 X5.1929 Y4.9411Z[#100+-0.1306]
#102=[#507+0.54705*#500-0.54705*#507]
#101=[#508+0.54705*#501-0.54705*#508]
#100=[#102+0.57111*#101-0.57111*#102]
G01 X5.1924 Y4.9616Z[#100+-0.1306]
#102=[#507+0.54449*#500-0.54449*#507]
#101=[#508+0.54449*#501-0.54449*#508]
#100=[#102+0.57125*#101-0.57125*#102]
G01 X5.1934 Y4.9833Z[#100+-0.1306]
#102=[#507+0.54025*#500-0.54025*#507]
#101=[#508+0.54025*#501-0.54025*#508]
#100=[#102+0.57183*#101-0.57183*#102]
G01 X5.1976 Y5.0193Z[#100+-0.1306]
#102=[#507+0.53619*#500-0.53619*#507]
#101=[#508+0.53619*#501-0.53619*#508]
#100=[#102+0.57287*#101-0.57287*#102]
G01 X5.2052 Y5.0538Z[#100+-0.1306]
#102=[#507+0.53476*#500-0.53476*#507]
#101=[#508+0.53476*#501-0.53476*#508]
#100=[#102+0.57338*#101-0.57338*#102]
G01 X5.2089 Y5.0660Z[#100+-0.1306]
#102=[#507+0.53233*#500-0.53233*#507]
#101=[#508+0.53233*#501-0.53233*#508]
#100=[#102+0.57433*#101-0.57433*#102]
G01 X5.2158 Y5.0866Z[#100+-0.1306]
#102=[#507+0.53009*#500-0.53009*#507]
#101=[#508+0.53009*#501-0.53009*#508]
#100=[#102+0.57540*#101-0.57540*#102]
G01 X5.2236 Y5.1056Z[#100+-0.1306]
#102=[#507+0.52854*#500-0.52854*#507]
#101=[#508+0.52854*#501-0.52854*#508]
#100=[#102+0.57624*#101-0.57624*#102]
G01 X5.2297 Y5.1188Z[#100+-0.1306]
#102=[#507+0.52568*#500-0.52568*#507]
#101=[#508+0.52568*#501-0.52568*#508]
#100=[#102+0.57802*#101-0.57802*#102]
G01 X5.2427 Y5.1431Z[#100+-0.1306]
#102=[#507+0.52422*#500-0.52422*#507]
#101=[#508+0.52422*#501-0.52422*#508]
#100=[#102+0.57906*#101-0.57906*#102]
G01 X5.2503 Y5.1555Z[#100+-0.1306]
#102=[#507+0.52154*#500-0.52154*#507]
#101=[#508+0.52154*#501-0.52154*#508]
#100=[#102+0.58122*#101-0.58122*#102]
G01 X5.2660 Y5.1783Z[#100+-0.1306]
#102=[#507+0.52020*#500-0.52020*#507]
#101=[#508+0.52020*#501-0.52020*#508]
#100=[#102+0.58246*#101-0.58246*#102]
G01 X5.2750 Y5.1897Z[#100+-0.1306]
#102=[#507+0.51775*#500-0.51775*#507]
#101=[#508+0.51775*#501-0.51775*#508]
#100=[#102+0.58496*#101-0.58496*#102]
G01 X5.2932 Y5.2105Z[#100+-0.1306]
#102=[#507+0.51636*#500-0.51636*#507]
#101=[#508+0.51636*#501-0.51636*#508]
#100=[#102+0.58655*#101-0.58655*#102]
G01 X5.3048 Y5.2223Z[#100+-0.1306]
#102=[#507+0.51434*#500-0.51434*#507]
#101=[#508+0.51434*#501-0.51434*#508]
#100=[#102+0.58917*#101-0.58917*#102]
G01 X5.3239 Y5.2394Z[#100+-0.1306]
#102=[#507+0.51326*#500-0.51326*#507]
#101=[#508+0.51326*#501-0.51326*#508]
#100=[#102+0.59072*#101-0.59072*#102]
G01 X5.3352 Y5.2486Z[#100+-0.1306]
#102=[#507+0.51059*#500-0.51059*#507]
#101=[#508+0.51059*#501-0.51059*#508]
#100=[#102+0.59524*#101-0.59524*#102]
G01 X5.3681 Y5.2713Z[#100+-0.1306]
#102=[#507+0.50686*#500-0.50686*#507]
#101=[#508+0.50686*#501-0.50686*#508]
#100=[#102+0.59087*#101-0.59087*#102]
G01 X5.3363 Y5.3030Z[#100+-0.1306]
#102=[#507+0.51272*#500-0.51272*#507]
#101=[#508+0.51272*#501-0.51272*#508]
#100=[#102+0.57435*#101-0.57435*#102]
G01 X5.2160 Y5.2532Z[#100+-0.1306]
#102=[#507+0.51364*#500-0.51364*#507]
#101=[#508+0.51364*#501-0.51364*#508]
#100=[#102+0.57122*#101-0.57122*#102]
G01 X5.1932 Y5.2454Z[#100+-0.1306]
#102=[#507+0.51814*#500-0.51814*#507]
#101=[#508+0.51814*#501-0.51814*#508]
#100=[#102+0.55300*#101-0.55300*#102]
G01 X5.0605 Y5.2072Z[#100+-0.1306]
#102=[#507+0.51874*#500-0.51874*#507]
#101=[#508+0.51874*#501-0.51874*#508]
#100=[#102+0.54984*#101-0.54984*#102]
G01 X5.0375 Y5.2021Z[#100+-0.1306]
#102=[#507+0.52138*#500-0.52138*#507]
#101=[#508+0.52138*#501-0.52138*#508]
#100=[#102+0.53162*#101-0.53162*#102]
G01 X4.9048 Y5.1796Z[#100+-0.1306]
#102=[#507+0.52168*#500-0.52168*#507]
#101=[#508+0.52168*#501-0.52168*#508]
#100=[#102+0.52906*#101-0.52906*#102]
G01 X4.8862 Y5.1771Z[#100+-0.1306]
#102=[#507+0.52268*#500-0.52268*#507]
#101=[#508+0.52268*#501-0.52268*#508]
#100=[#102+0.50761*#101-0.50761*#102]
G01 X4.7300 Y5.1686Z[#100+-0.1306]
#102=[#507+0.52168*#500-0.52168*#507]
#101=[#508+0.52168*#501-0.52168*#508]
#100=[#102+0.48616*#101-0.48616*#102]
G01 X4.5738 Y5.1771Z[#100+-0.1306]
#102=[#507+0.52138*#500-0.52138*#507]
#101=[#508+0.52138*#501-0.52138*#508]
#100=[#102+0.48361*#101-0.48361*#102]
G01 X4.5552 Y5.1796Z[#100+-0.1306]
#102=[#507+0.51874*#500-0.51874*#507]
#101=[#508+0.51874*#501-0.51874*#508]
#100=[#102+0.46538*#101-0.46538*#102]
G01 X4.4225 Y5.2021Z[#100+-0.1306]
#102=[#507+0.51814*#500-0.51814*#507]
#101=[#508+0.51814*#501-0.51814*#508]
#100=[#102+0.46222*#101-0.46222*#102]
G01 X4.3995 Y5.2072Z[#100+-0.1306]
#102=[#507+0.51364*#500-0.51364*#507]
#101=[#508+0.51364*#501-0.51364*#508]
#100=[#102+0.44400*#101-0.44400*#102]
G01 X4.2668 Y5.2454Z[#100+-0.1306]
#102=[#507+0.51272*#500-0.51272*#507]
#101=[#508+0.51272*#501-0.51272*#508]
#100=[#102+0.44087*#101-0.44087*#102]
G01 X4.2440 Y5.2532Z[#100+-0.1306]
#102=[#507+0.50686*#500-0.50686*#507]
#101=[#508+0.50686*#501-0.50686*#508]
#100=[#102+0.42435*#101-0.42435*#102]
G01 X4.1237 Y5.3030Z[#100+-0.1306]
#102=[#507+0.50997*#500-0.50997*#507]
#101=[#508+0.50997*#501-0.50997*#508]
#100=[#102+0.42072*#101-0.42072*#102]
G01 X4.0973 Y5.2766Z[#100+-0.1306]
#102=[#507+0.51144*#500-0.51144*#507]
#101=[#508+0.51144*#501-0.51144*#508]
#100=[#102+0.42351*#101-0.42351*#102]
G01 X4.1176 Y5.2641Z[#100+-0.1306]
#102=[#507+0.51331*#500-0.51331*#507]
#101=[#508+0.51331*#501-0.51331*#508]
#100=[#102+0.42652*#101-0.42652*#102]
G01 X4.1395 Y5.2482Z[#100+-0.1306]
#102=[#507+0.51469*#500-0.51469*#507]
#101=[#508+0.51469*#501-0.51469*#508]
#100=[#102+0.42851*#101-0.42851*#102]
G01 X4.1540 Y5.2365Z[#100+-0.1306]
#102=[#507+0.51711*#500-0.51711*#507]
#101=[#508+0.51711*#501-0.51711*#508]
#100=[#102+0.43153*#101-0.43153*#102]
G01 X4.1760 Y5.2159Z[#100+-0.1306]
#102=[#507+0.52002*#500-0.52002*#507]
#101=[#508+0.52002*#501-0.52002*#508]
#100=[#102+0.43457*#101-0.43457*#102]
G01 X4.1981 Y5.1912Z[#100+-0.1306]
#102=[#507+0.52253*#500-0.52253*#507]
#101=[#508+0.52253*#501-0.52253*#508]
#100=[#102+0.43679*#101-0.43679*#102]
G01 X4.2143 Y5.1699Z[#100+-0.1306]
#102=[#507+0.52605*#500-0.52605*#507]
#101=[#508+0.52605*#501-0.52605*#508]
#100=[#102+0.43941*#101-0.43941*#102]
G01 X4.2334 Y5.1400Z[#100+-0.1306]
#102=[#507+0.52955*#500-0.52955*#507]
#101=[#508+0.52955*#501-0.52955*#508]
#100=[#102+0.44151*#101-0.44151*#102]
G01 X4.2487 Y5.1102Z[#100+-0.1306]
#102=[#507+0.53250*#500-0.53250*#507]
#101=[#508+0.53250*#501-0.53250*#508]
#100=[#102+0.44292*#101-0.44292*#102]
G01 X4.2589 Y5.0852Z[#100+-0.1306]
#102=[#507+0.53549*#500-0.53549*#507]
#101=[#508+0.53549*#501-0.53549*#508]
#100=[#102+0.44407*#101-0.44407*#102]
G01 X4.2673 Y5.0598Z[#100+-0.1306]
#102=[#507+0.53709*#500-0.53709*#507]
#101=[#508+0.53709*#501-0.53709*#508]
#100=[#102+0.44456*#101-0.44456*#102]
G01 X4.2709 Y5.0462Z[#100+-0.1306]
#102=[#507+0.53938*#500-0.53938*#507]
#101=[#508+0.53938*#501-0.53938*#508]
#100=[#102+0.44517*#101-0.44517*#102]
G01 X4.2753 Y5.0267Z[#100+-0.1306]
#102=[#507+0.54354*#500-0.54354*#507]
#101=[#508+0.54354*#501-0.54354*#508]
#100=[#102+0.44585*#101-0.44585*#102]
G01 X4.2803 Y4.9914Z[#100+-0.1306]
#102=[#507+0.54776*#500-0.54776*#507]
#101=[#508+0.54776*#501-0.54776*#508]
#100=[#102+0.44607*#101-0.44607*#102]
G01 X4.2819 Y4.9555Z[#100+-0.1306]
#102=[#507+0.54978*#500-0.54978*#507]
#101=[#508+0.54978*#501-0.54978*#508]
#100=[#102+0.44599*#101-0.44599*#102]
G01 X4.2813 Y4.9384Z[#100+-0.1306]
#102=[#507+0.55144*#500-0.55144*#507]
#101=[#508+0.55144*#501-0.55144*#508]
#100=[#102+0.44585*#101-0.44585*#102]
G01 X4.2803 Y4.9243Z[#100+-0.1306]
#102=[#507+0.55451*#500-0.55451*#507]
#101=[#508+0.55451*#501-0.55451*#508]
#100=[#102+0.44540*#101-0.44540*#102]
G01 X4.2770 Y4.8982Z[#100+-0.1306]
#102=[#507+0.55620*#500-0.55620*#507]
#101=[#508+0.55620*#501-0.55620*#508]
#100=[#102+0.44503*#101-0.44503*#102]
G01 X4.2743 Y4.8838Z[#100+-0.1306]
#102=[#507+0.55926*#500-0.55926*#507]
#101=[#508+0.55926*#501-0.55926*#508]
#100=[#102+0.44417*#101-0.44417*#102]
G01 X4.2680 Y4.8578Z[#100+-0.1306]
#102=[#507+0.56085*#500-0.56085*#507]
#101=[#508+0.56085*#501-0.56085*#508]
#100=[#102+0.44362*#101-0.44362*#102]
G01 X4.2640 Y4.8443Z[#100+-0.1306]
#102=[#507+0.56320*#500-0.56320*#507]
#101=[#508+0.56320*#501-0.56320*#508]
#100=[#102+0.44265*#101-0.44265*#102]
G01 X4.2570 Y4.8244Z[#100+-0.1306]
#102=[#507+0.56688*#500-0.56688*#507]
#101=[#508+0.56688*#501-0.56688*#508]
#100=[#102+0.44076*#101-0.44076*#102]
G01 X4.2432 Y4.7931Z[#100+-0.1306]
#102=[#507+0.57024*#500-0.57024*#507]
#101=[#508+0.57024*#501-0.57024*#508]
#100=[#102+0.43858*#101-0.43858*#102]
G01 X4.2273 Y4.7646Z[#100+-0.1306]
#102=[#507+0.57227*#500-0.57227*#507]
#101=[#508+0.57227*#501-0.57227*#508]
#100=[#102+0.43701*#101-0.43701*#102]
G01 X4.2159 Y4.7473Z[#100+-0.1306]
#102=[#507+0.57363*#500-0.57363*#507]
#101=[#508+0.57363*#501-0.57363*#508]
#100=[#102+0.43587*#101-0.43587*#102]
G01 X4.2076 Y4.7358Z[#100+-0.1306]
#102=[#507+0.57607*#500-0.57607*#507]
#101=[#508+0.57607*#501-0.57607*#508]
#100=[#102+0.43355*#101-0.43355*#102]
G01 X4.1907 Y4.7150Z[#100+-0.1306]
#102=[#507+0.57829*#500-0.57829*#507]
#101=[#508+0.57829*#501-0.57829*#508]
#100=[#102+0.43116*#101-0.43116*#102]
G01 X4.1733 Y4.6962Z[#100+-0.1306]
#102=[#507+0.58062*#500-0.58062*#507]
#101=[#508+0.58062*#501-0.58062*#508]
#100=[#102+0.42818*#101-0.42818*#102]
G01 X4.1516 Y4.6764Z[#100+-0.1306]
#102=[#507+0.58172*#500-0.58172*#507]
#101=[#508+0.58172*#501-0.58172*#508]
#100=[#102+0.42661*#101-0.42661*#102]
G01 X4.1402 Y4.6670Z[#100+-0.1306]
#102=[#507+0.58389*#500-0.58389*#507]
#101=[#508+0.58389*#501-0.58389*#508]
#100=[#102+0.42307*#101-0.42307*#102]
G01 X4.1144 Y4.6486Z[#100+-0.1306]
#102=[#507+0.58597*#500-0.58597*#507]
#101=[#508+0.58597*#501-0.58597*#508]
#100=[#102+0.41887*#101-0.41887*#102]
G01 X4.0838 Y4.6309Z[#100+-0.1306]
#102=[#507+0.58734*#500-0.58734*#507]
#101=[#508+0.58734*#501-0.58734*#508]
#100=[#102+0.41555*#101-0.41555*#102]
G01 X4.0596 Y4.6193Z[#100+-0.1306]
#102=[#507+0.58796*#500-0.58796*#507]
#101=[#508+0.58796*#501-0.58796*#508]
#100=[#102+0.41375*#101-0.41375*#102]
G01 X4.0465 Y4.6140Z[#100+-0.1306]
#102=[#507+0.58900*#500-0.58900*#507]
#101=[#508+0.58900*#501-0.58900*#508]
#100=[#102+0.41027*#101-0.41027*#102]
G01 X4.0212 Y4.6052Z[#100+-0.1306]
#102=[#507+0.58943*#500-0.58943*#507]
#101=[#508+0.58943*#501-0.58943*#508]
#100=[#102+0.40840*#101-0.40840*#102]
G01 X4.0076 Y4.6015Z[#100+-0.1306]
#102=[#507+0.59015*#500-0.59015*#507]
#101=[#508+0.59015*#501-0.59015*#508]
#100=[#102+0.40482*#101-0.40482*#102]
G01 X3.9815 Y4.5954Z[#100+-0.1306]
G00 Z2.0000
G00 X3.9647 Y4.7518
G01 F350.00
#102=[#507+0.57174*#500-0.57174*#507]
#101=[#508+0.57174*#501-0.57174*#508]
#100=[#102+0.40251*#101-0.40251*#102]
G01 Z[#100+-0.1306]
#102=[#507+0.57174*#500-0.57174*#507]
#101=[#508+0.57174*#501-0.57174*#508]
#100=[#102+0.40251*#101-0.40251*#102]
G01 F400.00
#102=[#507+0.57237*#500-0.57237*#507]
#101=[#508+0.57237*#501-0.57237*#508]
#100=[#102+0.39846*#101-0.39846*#102]
G01 X3.9352 Y4.7465Z[#100+-0.1306]
#102=[#507+0.57250*#500-0.57250*#507]
#101=[#508+0.57250*#501-0.57250*#508]
#100=[#102+0.39547*#101-0.39547*#102]
G01 X3.9134 Y4.7454Z[#100+-0.1306]
#102=[#507+0.57250*#500-0.57250*#507]
#101=[#508+0.57250*#501-0.57250*#508]
#100=[#102+0.34569*#101-0.34569*#102]
G01 X3.5509 Y4.7454Z[#100+-0.1306]
#102=[#507+0.57685*#500-0.57685*#507]
#101=[#508+0.57685*#501-0.57685*#508]
#100=[#102+0.32016*#101-0.32016*#102]
G01 X3.3650 Y4.7084Z[#100+-0.1306]
#102=[#507+0.58786*#500-0.58786*#507]
#101=[#508+0.58786*#501-0.58786*#508]
#100=[#102+0.30094*#101-0.30094*#102]
G01 X3.2251 Y4.6149Z[#100+-0.1306]
#102=[#507+0.60433*#500-0.60433*#507]
#101=[#508+0.60433*#501-0.60433*#508]
#100=[#102+0.28810*#101-0.28810*#102]
G01 X3.1316 Y4.4750Z[#100+-0.1306]
#102=[#507+0.62621*#500-0.62621*#507]
#101=[#508+0.62621*#501-0.62621*#508]
#100=[#102+0.28302*#101-0.28302*#102]
G01 X3.0946 Y4.2891Z[#100+-0.1306]
#102=[#507+0.90380*#500-0.90380*#507]
#101=[#508+0.90380*#501-0.90380*#508]
#100=[#102+0.28302*#101-0.28302*#102]
G01 X3.0946 Y1.9309Z[#100+-0.1306]
#102=[#507+0.92569*#500-0.92569*#507]
#101=[#508+0.92569*#501-0.92569*#508]
#100=[#102+0.28810*#101-0.28810*#102]
G01 X3.1316 Y1.7450Z[#100+-0.1306]
#102=[#507+0.94216*#500-0.94216*#507]
#101=[#508+0.94216*#501-0.94216*#508]
#100=[#102+0.30094*#101-0.30094*#102]
G01 X3.2251 Y1.6051Z[#100+-0.1306]
#102=[#507+0.95316*#500-0.95316*#507]
#101=[#508+0.95316*#501-0.95316*#508]
#100=[#102+0.32016*#101-0.32016*#102]
G01 X3.3650 Y1.5116Z[#100+-0.1306]
#102=[#507+0.95752*#500-0.95752*#507]
#101=[#508+0.95752*#501-0.95752*#508]
#100=[#102+0.34569*#101-0.34569*#102]
G01 X3.5509 Y1.4746Z[#100+-0.1306]
#102=[#507+0.95752*#500-0.95752*#507]
#101=[#508+0.95752*#501-0.95752*#508]
#100=[#102+0.66954*#101-0.66954*#102]
G01 X5.9091 Y1.4746Z[#100+-0.1306]
#102=[#507+0.95316*#500-0.95316*#507]
#101=[#508+0.95316*#501-0.95316*#508]
#100=[#102+0.69507*#101-0.69507*#102]
G01 X6.0950 Y1.5116Z[#100+-0.1306]
#102=[#507+0.94216*#500-0.94216*#507]
#101=[#508+0.94216*#501-0.94216*#508]
#100=[#102+0.71428*#101-0.71428*#102]
G01 X6.2349 Y1.6051Z[#100+-0.1306]
#102=[#507+0.92569*#500-0.92569*#507]
#101=[#508+0.92569*#501-0.92569*#508]
#100=[#102+0.72712*#101-0.72712*#102]
G01 X6.3284 Y1.7450Z[#100+-0.1306]
#102=[#507+0.90380*#500-0.90380*#507]
#101=[#508+0.90380*#501-0.90380*#508]
#100=[#102+0.73220*#101-0.73220*#102]
G01 X6.3654 Y1.9309Z[#100+-0.1306]
#102=[#507+0.62621*#500-0.62621*#507]
#101=[#508+0.62621*#501-0.62621*#508]
#100=[#102+0.73220*#101-0.73220*#102]
G01 X6.3654 Y4.2891Z[#100+-0.1306]
#102=[#507+0.60433*#500-0.60433*#507]
#101=[#508+0.60433*#501-0.60433*#508]
#100=[#102+0.72712*#101-0.72712*#102]
G01 X6.3284 Y4.4750Z[#100+-0.1306]
#102=[#507+0.58786*#500-0.58786*#507]
#101=[#508+0.58786*#501-0.58786*#508]
#100=[#102+0.71428*#101-0.71428*#102]
G01 X6.2349 Y4.6149Z[#100+-0.1306]
#102=[#507+0.57685*#500-0.57685*#507]
#101=[#508+0.57685*#501-0.57685*#508]
#100=[#102+0.69507*#101-0.69507*#102]
G01 X6.0950 Y4.7084Z[#100+-0.1306]
#102=[#507+0.57250*#500-0.57250*#507]
#101=[#508+0.57250*#501-0.57250*#508]
#100=[#102+0.66954*#101-0.66954*#102]
G01 X5.9091 Y4.7454Z[#100+-0.1306]
#102=[#507+0.57250*#500-0.57250*#507]
#101=[#508+0.57250*#501-0.57250*#508]
#100=[#102+0.62170*#101-0.62170*#102]
G01 X5.5608 Y4.7454Z[#100+-0.1306]
#102=[#507+0.57225*#500-0.57225*#507]
#101=[#508+0.57225*#501-0.57225*#508]
#100=[#102+0.61772*#101-0.61772*#102]
G01 X5.5318 Y4.7475Z[#100+-0.1306]
#102=[#507+0.57175*#500-0.57175*#507]
#101=[#508+0.57175*#501-0.57175*#508]
#100=[#102+0.61467*#101-0.61467*#102]
G01 X5.5096 Y4.7517Z[#100+-0.1306]
#102=[#507+0.57121*#500-0.57121*#507]
#101=[#508+0.57121*#501-0.57121*#508]
#100=[#102+0.61253*#101-0.61253*#102]
G01 X5.4940 Y4.7563Z[#100+-0.1306]
#102=[#507+0.56989*#500-0.56989*#507]
#101=[#508+0.56989*#501-0.56989*#508]
#100=[#102+0.60877*#101-0.60877*#102]
G01 X5.4666 Y4.7675Z[#100+-0.1306]
#102=[#507+0.56819*#500-0.56819*#507]
#101=[#508+0.56819*#501-0.56819*#508]
#100=[#102+0.60538*#101-0.60538*#102]
G01 X5.4419 Y4.7820Z[#100+-0.1306]
#102=[#507+0.56700*#500-0.56700*#507]
#101=[#508+0.56700*#501-0.56700*#508]
#100=[#102+0.60347*#101-0.60347*#102]
G01 X5.4280 Y4.7921Z[#100+-0.1306]
#102=[#507+0.56529*#500-0.56529*#507]
#101=[#508+0.56529*#501-0.56529*#508]
#100=[#102+0.60126*#101-0.60126*#102]
G01 X5.4119 Y4.8066Z[#100+-0.1306]
#102=[#507+0.56278*#500-0.56278*#507]
#101=[#508+0.56278*#501-0.56278*#508]
#100=[#102+0.59865*#101-0.59865*#102]
G01 X5.3929 Y4.8279Z[#100+-0.1306]
#102=[#507+0.55986*#500-0.55986*#507]
#101=[#508+0.55986*#501-0.55986*#508]
#100=[#102+0.59640*#101-0.59640*#102]
G01 X5.3765 Y4.8527Z[#100+-0.1306]
#102=[#507+0.55743*#500-0.55743*#507]
#101=[#508+0.55743*#501-0.55743*#508]
#100=[#102+0.59498*#101-0.59498*#102]
G01 X5.3662 Y4.8734Z[#100+-0.1306]
#102=[#507+0.55553*#500-0.55553*#507]
#101=[#508+0.55553*#501-0.55553*#508]
#100=[#102+0.59413*#101-0.59413*#102]
G01 X5.3600 Y4.8895Z[#100+-0.1306]
#102=[#507+0.55225*#500-0.55225*#507]
#101=[#508+0.55225*#501-0.55225*#508]
#100=[#102+0.59311*#101-0.59311*#102]
G01 X5.3526 Y4.9174Z[#100+-0.1306]
#102=[#507+0.54959*#500-0.54959*#507]
#101=[#508+0.54959*#501-0.54959*#508]
#100=[#102+0.59269*#101-0.59269*#102]
G01 X5.3495 Y4.9400Z[#100+-0.1306]
#102=[#507+0.54615*#500-0.54615*#507]
#101=[#508+0.54615*#501-0.54615*#508]
#100=[#102+0.59265*#101-0.59265*#102]
G01 X5.3492 Y4.9692Z[#100+-0.1306]
#102=[#507+0.54355*#500-0.54355*#507]
#101=[#508+0.54355*#501-0.54355*#508]
#100=[#102+0.59296*#101-0.59296*#102]
G01 X5.3515 Y4.9913Z[#100+-0.1306]
#102=[#507+0.54163*#500-0.54163*#507]
#101=[#508+0.54163*#501-0.54163*#508]
#100=[#102+0.59343*#101-0.59343*#102]
G01 X5.3549 Y5.0076Z[#100+-0.1306]
#102=[#507+0.53862*#500-0.53862*#507]
#101=[#508+0.53862*#501-0.53862*#508]
#100=[#102+0.59451*#101-0.59451*#102]
G01 X5.3628 Y5.0332Z[#100+-0.1306]
#102=[#507+0.53533*#500-0.53533*#507]
#101=[#508+0.53533*#501-0.53533*#508]
#100=[#102+0.59631*#101-0.59631*#102]
G01 X5.3759 Y5.0611Z[#100+-0.1306]
#102=[#507+0.53287*#500-0.53287*#507]
#101=[#508+0.53287*#501-0.53287*#508]
#100=[#102+0.59815*#101-0.59815*#102]
G01 X5.3893 Y5.0820Z[#100+-0.1306]
#102=[#507+0.53066*#500-0.53066*#507]
#101=[#508+0.53066*#501-0.53066*#508]
#100=[#102+0.60027*#101-0.60027*#102]
G01 X5.4047 Y5.1008Z[#100+-0.1306]
#102=[#507+0.52938*#500-0.52938*#507]
#101=[#508+0.52938*#501-0.52938*#508]
#100=[#102+0.60174*#101-0.60174*#102]
G01 X5.4154 Y5.1117Z[#100+-0.1306]
#102=[#507+0.52759*#500-0.52759*#507]
#101=[#508+0.52759*#501-0.52759*#508]
#100=[#102+0.60421*#101-0.60421*#102]
G01 X5.4334 Y5.1269Z[#100+-0.1306]
#102=[#507+0.52588*#500-0.52588*#507]
#101=[#508+0.52588*#501-0.52588*#508]
#100=[#102+0.60723*#101-0.60723*#102]
G01 X5.4554 Y5.1414Z[#100+-0.1306]
#102=[#507+0.52470*#500-0.52470*#507]
#101=[#508+0.52470*#501-0.52470*#508]
#100=[#102+0.60995*#101-0.60995*#102]
G01 X5.4752 Y5.1514Z[#100+-0.1306]
#102=[#507+0.52038*#500-0.52038*#507]
#101=[#508+0.52038*#501-0.52038*#508]
#100=[#102+0.62208*#101-0.62208*#102]
G01 X5.5635 Y5.1881Z[#100+-0.1306]
#102=[#507+0.51140*#500-0.51140*#507]
#101=[#508+0.51140*#501-0.51140*#508]
#100=[#102+0.62655*#101-0.62655*#102]
G01 X5.5961 Y5.2644Z[#100+-0.1306]
#102=[#507+0.48425*#500-0.48425*#507]
#101=[#508+0.48425*#501-0.48425*#508]
#100=[#102+0.59487*#101-0.59487*#102]
G01 X5.3654 Y5.4951Z[#100+-0.1306]
#102=[#507+0.48952*#500-0.48952*#507]
#101=[#508+0.48952*#501-0.48952*#508]
#100=[#102+0.58358*#101-0.58358*#102]
G01 X5.2832 Y5.4503Z[#100+-0.1306]
#102=[#507+0.49563*#500-0.49563*#507]
#101=[#508+0.49563*#501-0.49563*#508]
#100=[#102+0.56637*#101-0.56637*#102]
G01 X5.1579 Y5.3984Z[#100+-0.1306]
#102=[#507+0.50037*#500-0.50037*#507]
#101=[#508+0.50037*#501-0.50037*#508]
#100=[#102+0.54735*#101-0.54735*#102]
G01 X5.0194 Y5.3581Z[#100+-0.1306]
#102=[#507+0.50334*#500-0.50334*#507]
#101=[#508+0.50334*#501-0.50334*#508]
#100=[#102+0.52713*#101-0.52713*#102]
G01 X4.8721 Y5.3329Z[#100+-0.1306]
#102=[#507+0.50427*#500-0.50427*#507]
#101=[#508+0.50427*#501-0.50427*#508]
#100=[#102+0.50761*#101-0.50761*#102]
G01 X4.7300 Y5.3250Z[#100+-0.1306]
#102=[#507+0.50334*#500-0.50334*#507]
#101=[#508+0.50334*#501-0.50334*#508]
#100=[#102+0.48810*#101-0.48810*#102]
G01 X4.5879 Y5.3329Z[#100+-0.1306]
#102=[#507+0.50037*#500-0.50037*#507]
#101=[#508+0.50037*#501-0.50037*#508]
#100=[#102+0.46787*#101-0.46787*#102]
G01 X4.4406 Y5.3581Z[#100+-0.1306]
#102=[#507+0.49563*#500-0.49563*#507]
#101=[#508+0.49563*#501-0.49563*#508]
#100=[#102+0.44885*#101-0.44885*#102]
G01 X4.3021 Y5.3984Z[#100+-0.1306]
#102=[#507+0.48952*#500-0.48952*#507]
#101=[#508+0.48952*#501-0.48952*#508]
#100=[#102+0.43164*#101-0.43164*#102]
G01 X4.1768 Y5.4503Z[#100+-0.1306]
#102=[#507+0.48425*#500-0.48425*#507]
#101=[#508+0.48425*#501-0.48425*#508]
#100=[#102+0.42035*#101-0.42035*#102]
G01 X4.0946 Y5.4951Z[#100+-0.1306]
#102=[#507+0.51140*#500-0.51140*#507]
#101=[#508+0.51140*#501-0.51140*#508]
#100=[#102+0.38867*#101-0.38867*#102]
G01 X3.8639 Y5.2644Z[#100+-0.1306]
#102=[#507+0.52000*#500-0.52000*#507]
#101=[#508+0.52000*#501-0.52000*#508]
#100=[#102+0.39295*#101-0.39295*#102]
G01 X3.8951 Y5.1914Z[#100+-0.1306]
#102=[#507+0.52427*#500-0.52427*#507]
#101=[#508+0.52427*#501-0.52427*#508]
#100=[#102+0.40602*#101-0.40602*#102]
G01 X3.9902 Y5.1551Z[#100+-0.1306]
#102=[#507+0.52528*#500-0.52528*#507]
#101=[#508+0.52528*#501-0.52528*#508]
#100=[#102+0.40868*#101-0.40868*#102]
G01 X4.0096 Y5.1465Z[#100+-0.1306]
#102=[#507+0.52706*#500-0.52706*#507]
#101=[#508+0.52706*#501-0.52706*#508]
#100=[#102+0.41211*#101-0.41211*#102]
G01 X4.0346 Y5.1314Z[#100+-0.1306]
#102=[#507+0.52854*#500-0.52854*#507]
#101=[#508+0.52854*#501-0.52854*#508]
#100=[#102+0.41436*#101-0.41436*#102]
G01 X4.0510 Y5.1188Z[#100+-0.1306]
#102=[#507+0.53013*#500-0.53013*#507]
#101=[#508+0.53013*#501-0.53013*#508]
#100=[#102+0.41634*#101-0.41634*#102]
G01 X4.0654 Y5.1053Z[#100+-0.1306]
#102=[#507+0.53285*#500-0.53285*#507]
#101=[#508+0.53285*#501-0.53285*#508]
#100=[#102+0.41902*#101-0.41902*#102]
G01 X4.0849 Y5.0822Z[#100+-0.1306]
#102=[#507+0.53498*#500-0.53498*#507]
#101=[#508+0.53498*#501-0.53498*#508]
#100=[#102+0.42064*#101-0.42064*#102]
G01 X4.0967 Y5.0641Z[#100+-0.1306]
#102=[#507+0.53665*#500-0.53665*#507]
#101=[#508+0.53665*#501-0.53665*#508]
#100=[#102+0.42167*#101-0.42167*#102]
G01 X4.1042 Y5.0499Z[#100+-0.1306]
#102=[#507+0.53921*#500-0.53921*#507]
#101=[#508+0.53921*#501-0.53921*#508]
#100=[#102+0.42292*#101-0.42292*#102]
G01 X4.1133 Y5.0282Z[#100+-0.1306]
#102=[#507+0.54268*#500-0.54268*#507]
#101=[#508+0.54268*#501-0.54268*#508]
#100=[#102+0.42403*#101-0.42403*#102]
G01 X4.1214 Y4.9987Z[#100+-0.1306]
#102=[#507+0.54520*#500-0.54520*#507]
#101=[#508+0.54520*#501-0.54520*#508]
#100=[#102+0.42447*#101-0.42447*#102]
G01 X4.1246 Y4.9773Z[#100+-0.1306]
#102=[#507+0.54736*#500-0.54736*#507]
#101=[#508+0.54736*#501-0.54736*#508]
#100=[#102+0.42458*#101-0.42458*#102]
G01 X4.1254 Y4.9589Z[#100+-0.1306]
#102=[#507+0.54847*#500-0.54847*#507]
#101=[#508+0.54847*#501-0.54847*#508]
#100=[#102+0.42457*#101-0.42457*#102]
G01 X4.1253 Y4.9495Z[#100+-0.1306]
#102=[#507+0.55124*#500-0.55124*#507]
#101=[#508+0.55124*#501-0.55124*#508]
#100=[#102+0.42427*#101-0.42427*#102]
G01 X4.1231 Y4.9260Z[#100+-0.1306]
#102=[#507+0.55394*#500-0.55394*#507]
#101=[#508+0.55394*#501-0.55394*#508]
#100=[#102+0.42361*#101-0.42361*#102]
G01 X4.1183 Y4.9030Z[#100+-0.1306]
#102=[#507+0.55636*#500-0.55636*#507]
#101=[#508+0.55636*#501-0.55636*#508]
#100=[#102+0.42271*#101-0.42271*#102]
G01 X4.1118 Y4.8825Z[#100+-0.1306]
#102=[#507+0.55865*#500-0.55865*#507]
#101=[#508+0.55865*#501-0.55865*#508]
#100=[#102+0.42155*#101-0.42155*#102]
G01 X4.1033 Y4.8630Z[#100+-0.1306]
#102=[#507+0.56077*#500-0.56077*#507]
#101=[#508+0.56077*#501-0.56077*#508]
#100=[#102+0.42016*#101-0.42016*#102]
G01 X4.0932 Y4.8450Z[#100+-0.1306]
#102=[#507+0.56283*#500-0.56283*#507]
#101=[#508+0.56283*#501-0.56283*#508]
#100=[#102+0.41847*#101-0.41847*#102]
G01 X4.0809 Y4.8275Z[#100+-0.1306]
#102=[#507+0.56493*#500-0.56493*#507]
#101=[#508+0.56493*#501-0.56493*#508]
#100=[#102+0.41636*#101-0.41636*#102]
G01 X4.0655 Y4.8097Z[#100+-0.1306]
#102=[#507+0.56680*#500-0.56680*#507]
#101=[#508+0.56680*#501-0.56680*#508]
#100=[#102+0.41398*#101-0.41398*#102]
G01 X4.0482 Y4.7938Z[#100+-0.1306]
#102=[#507+0.56748*#500-0.56748*#507]
#101=[#508+0.56748*#501-0.56748*#508]
#100=[#102+0.41296*#101-0.41296*#102]
G01 X4.0408 Y4.7880Z[#100+-0.1306]
#102=[#507+0.56856*#500-0.56856*#507]
#101=[#508+0.56856*#501-0.56856*#508]
#100=[#102+0.41115*#101-0.41115*#102]
G01 X4.0276 Y4.7788Z[#100+-0.1306]
#102=[#507+0.56999*#500-0.56999*#507]
#101=[#508+0.56999*#501-0.56999*#508]
#100=[#102+0.40820*#101-0.40820*#102]
G01 X4.0061 Y4.7667Z[#100+-0.1306]
#102=[#507+0.57093*#500-0.57093*#507]
#101=[#508+0.57093*#501-0.57093*#508]
#100=[#102+0.40560*#101-0.40560*#102]
G01 X3.9872 Y4.7587Z[#100+-0.1306]
#102=[#507+0.57174*#500-0.57174*#507]
#101=[#508+0.57174*#501-0.57174*#508]
#100=[#102+0.40251*#101-0.40251*#102]
G01 X3.9647 Y4.7518Z[#100+-0.1306]
#102=[#507+0.57237*#500-0.57237*#507]
#101=[#508+0.57237*#501-0.57237*#508]
#100=[#102+0.39846*#101-0.39846*#102]
G01 X3.9352 Y4.7465Z[#100+-0.1306]
G00 Z2.0000
G00 X4.3749 Y4.7078
G01 F350.00
#102=[#507+0.57692*#500-0.57692*#507]
#101=[#508+0.57692*#501-0.57692*#508]
#100=[#102+0.45885*#101-0.45885*#102]
G01 Z[#100+-0.1306]
#102=[#507+0.57692*#500-0.57692*#507]
#101=[#508+0.57692*#501-0.57692*#508]
#100=[#102+0.45885*#101-0.45885*#102]
G01 F400.00
#102=[#507+0.57692*#500-0.57692*#507]
#101=[#508+0.57692*#501-0.57692*#508]
#100=[#102+0.55833*#101-0.55833*#102]
G01 X5.0993 Y4.7078Z[#100+-0.1306]
#102=[#507+0.57544*#500-0.57544*#507]
#101=[#508+0.57544*#501-0.57544*#508]
#100=[#102+0.55742*#101-0.55742*#102]
G01 X5.0927 Y4.7204Z[#100+-0.1306]
#102=[#507+0.57109*#500-0.57109*#507]
#101=[#508+0.57109*#501-0.57109*#508]
#100=[#102+0.55509*#101-0.55509*#102]
G01 X5.0757 Y4.7573Z[#100+-0.1306]
#102=[#507+0.56812*#500-0.56812*#507]
#101=[#508+0.56812*#501-0.56812*#508]
#100=[#102+0.55375*#101-0.55375*#102]
G01 X5.0660 Y4.7826Z[#100+-0.1306]
#102=[#507+0.56386*#500-0.56386*#507]
#101=[#508+0.56386*#501-0.56386*#508]
#100=[#102+0.55222*#101-0.55222*#102]
G01 X5.0548 Y4.8188Z[#100+-0.1306]
#102=[#507+0.55883*#500-0.55883*#507]
#101=[#508+0.55883*#501-0.55883*#508]
#100=[#102+0.55084*#101-0.55084*#102]
G01 X5.0448 Y4.8615Z[#100+-0.1306]
#102=[#507+0.55265*#500-0.55265*#507]
#101=[#508+0.55265*#501-0.55265*#508]
#100=[#102+0.54988*#101-0.54988*#102]
G01 X5.0378 Y4.9140Z[#100+-0.1306]
#102=[#507+0.54705*#500-0.54705*#507]
#101=[#508+0.54705*#501-0.54705*#508]
#100=[#102+0.54963*#101-0.54963*#102]
G01 X5.0360 Y4.9616Z[#100+-0.1306]
#102=[#507+0.54284*#500-0.54284*#507]
#101=[#508+0.54284*#501-0.54284*#508]
#100=[#102+0.54985*#101-0.54985*#102]
G01 X5.0376 Y4.9973Z[#100+-0.1306]
#102=[#507+0.53729*#500-0.53729*#507]
#101=[#508+0.53729*#501-0.53729*#508]
#100=[#102+0.55065*#101-0.55065*#102]
G01 X5.0434 Y5.0445Z[#100+-0.1306]
#102=[#507+0.53954*#500-0.53954*#507]
#101=[#508+0.53954*#501-0.53954*#508]
#100=[#102+0.53521*#101-0.53521*#102]
G01 X4.9310 Y5.0254Z[#100+-0.1306]
#102=[#507+0.54001*#500-0.54001*#507]
#101=[#508+0.54001*#501-0.54001*#508]
#100=[#102+0.53101*#101-0.53101*#102]
G01 X4.9004 Y5.0214Z[#100+-0.1306]
#102=[#507+0.54102*#500-0.54102*#507]
#101=[#508+0.54102*#501-0.54102*#508]
#100=[#102+0.51067*#101-0.51067*#102]
G01 X4.7523 Y5.0128Z[#100+-0.1306]
#102=[#507+0.54109*#500-0.54109*#507]
#101=[#508+0.54109*#501-0.54109*#508]
#100=[#102+0.50761*#101-0.50761*#102]
G01 X4.7300 Y5.0122Z[#100+-0.1306]
#102=[#507+0.54102*#500-0.54102*#507]
#101=[#508+0.54102*#501-0.54102*#508]
#100=[#102+0.50455*#101-0.50455*#102]
G01 X4.7077 Y5.0128Z[#100+-0.1306]
#102=[#507+0.54001*#500-0.54001*#507]
#101=[#508+0.54001*#501-0.54001*#508]
#100=[#102+0.48421*#101-0.48421*#102]
G01 X4.5596 Y5.0214Z[#100+-0.1306]
#102=[#507+0.53954*#500-0.53954*#507]
#101=[#508+0.53954*#501-0.53954*#508]
#100=[#102+0.48001*#101-0.48001*#102]
G01 X4.5290 Y5.0254Z[#100+-0.1306]
#102=[#507+0.53758*#500-0.53758*#507]
#101=[#508+0.53758*#501-0.53758*#508]
#100=[#102+0.46659*#101-0.46659*#102]
G01 X4.4313 Y5.0420Z[#100+-0.1306]
#102=[#507+0.54187*#500-0.54187*#507]
#101=[#508+0.54187*#501-0.54187*#508]
#100=[#102+0.46725*#101-0.46725*#102]
G01 X4.4361 Y5.0056Z[#100+-0.1306]
#102=[#507+0.54776*#500-0.54776*#507]
#101=[#508+0.54776*#501-0.54776*#508]
#100=[#102+0.46755*#101-0.46755*#102]
G01 X4.4383 Y4.9555Z[#100+-0.1306]
#102=[#507+0.55274*#500-0.55274*#507]
#101=[#508+0.55274*#501-0.55274*#508]
#100=[#102+0.46728*#101-0.46728*#102]
G01 X4.4363 Y4.9132Z[#100+-0.1306]
#102=[#507+0.55779*#500-0.55779*#507]
#101=[#508+0.55779*#501-0.55779*#508]
#100=[#102+0.46654*#101-0.46654*#102]
G01 X4.4309 Y4.8703Z[#100+-0.1306]
#102=[#507+0.55954*#500-0.55954*#507]
#101=[#508+0.55954*#501-0.55954*#508]
#100=[#102+0.46617*#101-0.46617*#102]
G01 X4.4282 Y4.8555Z[#100+-0.1306]
#102=[#507+0.56459*#500-0.56459*#507]
#101=[#508+0.56459*#501-0.56459*#508]
#100=[#102+0.46474*#101-0.46474*#102]
G01 X4.4178 Y4.8126Z[#100+-0.1306]
#102=[#507+0.56617*#500-0.56617*#507]
#101=[#508+0.56617*#501-0.56617*#508]
#100=[#102+0.46417*#101-0.46417*#102]
G01 X4.4137 Y4.7991Z[#100+-0.1306]
#102=[#507+0.57106*#500-0.57106*#507]
#101=[#508+0.57106*#501-0.57106*#508]
#100=[#102+0.46210*#101-0.46210*#102]
G01 X4.3986 Y4.7576Z[#100+-0.1306]
#102=[#507+0.57511*#500-0.57511*#507]
#101=[#508+0.57511*#501-0.57511*#508]
#100=[#102+0.45997*#101-0.45997*#102]
G01 X4.3831 Y4.7232Z[#100+-0.1306]
#102=[#507+0.57692*#500-0.57692*#507]
#101=[#508+0.57692*#501-0.57692*#508]
#100=[#102+0.45885*#101-0.45885*#102]
G01 X4.3749 Y4.7078Z[#100+-0.1306]
#102=[#507+0.57692*#500-0.57692*#507]
#101=[#508+0.57692*#501-0.57692*#508]
#100=[#102+0.55833*#101-0.55833*#102]
G01 X5.0993 Y4.7078Z[#100+-0.1306]
G00 Z2.0000
G00 X3.3949 Y5.9756
G01 F350.00
#102=[#507+0.42768*#500-0.42768*#507]
#101=[#508+0.42768*#501-0.42768*#508]
#100=[#102+0.32426*#101-0.32426*#102]
G01 Z[#100+-0.1306]
#102=[#507+0.42768*#500-0.42768*#507]
#101=[#508+0.42768*#501-0.42768*#508]
#100=[#102+0.32426*#101-0.32426*#102]
G01 F400.00
#102=[#507+0.42438*#500-0.42438*#507]
#101=[#508+0.42438*#501-0.42438*#508]
#100=[#102+0.32812*#101-0.32812*#102]
G01 X3.4230 Y6.0037Z[#100+-0.1306]
#102=[#507+0.41021*#500-0.41021*#507]
#101=[#508+0.41021*#501-0.41021*#508]
#100=[#102+0.32128*#101-0.32128*#102]
G01 X3.3732 Y6.1240Z[#100+-0.1306]
#102=[#507+0.40753*#500-0.40753*#507]
#101=[#508+0.40753*#501-0.40753*#508]
#100=[#102+0.32021*#101-0.32021*#102]
G01 X3.3654 Y6.1468Z[#100+-0.1306]
#102=[#507+0.39191*#500-0.39191*#507]
#101=[#508+0.39191*#501-0.39191*#508]
#100=[#102+0.31497*#101-0.31497*#102]
G01 X3.3272 Y6.2795Z[#100+-0.1306]
#102=[#507+0.38920*#500-0.38920*#507]
#101=[#508+0.38920*#501-0.38920*#508]
#100=[#102+0.31427*#101-0.31427*#102]
G01 X3.3221 Y6.3025Z[#100+-0.1306]
#102=[#507+0.37358*#500-0.37358*#507]
#101=[#508+0.37358*#501-0.37358*#508]
#100=[#102+0.31118*#101-0.31118*#102]
G01 X3.2996 Y6.4352Z[#100+-0.1306]
#102=[#507+0.37139*#500-0.37139*#507]
#101=[#508+0.37139*#501-0.37139*#508]
#100=[#102+0.31083*#101-0.31083*#102]
G01 X3.2971 Y6.4538Z[#100+-0.1306]
#102=[#507+0.35301*#500-0.35301*#507]
#101=[#508+0.35301*#501-0.35301*#508]
#100=[#102+0.30966*#101-0.30966*#102]
G01 X3.2886 Y6.6100Z[#100+-0.1306]
#102=[#507+0.33462*#500-0.33462*#507]
#101=[#508+0.33462*#501-0.33462*#508]
#100=[#102+0.31083*#101-0.31083*#102]
G01 X3.2971 Y6.7662Z[#100+-0.1306]
#102=[#507+0.33243*#500-0.33243*#507]
#101=[#508+0.33243*#501-0.33243*#508]
#100=[#102+0.31118*#101-0.31118*#102]
G01 X3.2996 Y6.7848Z[#100+-0.1306]
#102=[#507+0.31681*#500-0.31681*#507]
#101=[#508+0.31681*#501-0.31681*#508]
#100=[#102+0.31427*#101-0.31427*#102]
G01 X3.3221 Y6.9175Z[#100+-0.1306]
#102=[#507+0.31410*#500-0.31410*#507]
#101=[#508+0.31410*#501-0.31410*#508]
#100=[#102+0.31497*#101-0.31497*#102]
G01 X3.3272 Y6.9405Z[#100+-0.1306]
#102=[#507+0.29848*#500-0.29848*#507]
#101=[#508+0.29848*#501-0.29848*#508]
#100=[#102+0.32021*#101-0.32021*#102]
G01 X3.3654 Y7.0732Z[#100+-0.1306]
#102=[#507+0.29580*#500-0.29580*#507]
#101=[#508+0.29580*#501-0.29580*#508]
#100=[#102+0.32128*#101-0.32128*#102]
G01 X3.3732 Y7.0960Z[#100+-0.1306]
#102=[#507+0.28163*#500-0.28163*#507]
#101=[#508+0.28163*#501-0.28163*#508]
#100=[#102+0.32812*#101-0.32812*#102]
G01 X3.4230 Y7.2163Z[#100+-0.1306]
#102=[#507+0.27896*#500-0.27896*#507]
#101=[#508+0.27896*#501-0.27896*#508]
#100=[#102+0.32500*#101-0.32500*#102]
G01 X3.4003 Y7.2390Z[#100+-0.1306]
#102=[#507+0.32362*#500-0.32362*#507]
#101=[#508+0.32362*#501-0.32362*#508]
#100=[#102+0.30515*#101-0.30515*#102]
G01 X3.2557 Y6.8596Z[#100+-0.1306]
#102=[#507+0.39292*#500-0.39292*#507]
#101=[#508+0.39292*#501-0.39292*#508]
#100=[#102+0.30747*#101-0.30747*#102]
G01 X3.2726 Y6.2709Z[#100+-0.1306]
#102=[#507+0.42768*#500-0.42768*#507]
#101=[#508+0.42768*#501-0.42768*#508]
#100=[#102+0.32426*#101-0.32426*#102]
G01 X3.3949 Y5.9756Z[#100+-0.1306]
#102=[#507+0.42438*#500-0.42438*#507]
#101=[#508+0.42438*#501-0.42438*#508]
#100=[#102+0.32812*#101-0.32812*#102]
G01 X3.4230 Y6.0037Z[#100+-0.1306]
G00 Z2.0000
G00 X3.5704 Y7.1632
G01 F350.00
#102=[#507+0.28789*#500-0.28789*#507]
#101=[#508+0.28789*#501-0.28789*#508]
#100=[#102+0.34836*#101-0.34836*#102]
G01 Z[#100+-0.1306]
#102=[#507+0.28789*#500-0.28789*#507]
#101=[#508+0.28789*#501-0.28789*#508]
#100=[#102+0.34836*#101-0.34836*#102]
G01 F400.00
#102=[#507+0.28687*#500-0.28687*#507]
#101=[#508+0.28687*#501-0.28687*#508]
#100=[#102+0.34891*#101-0.34891*#102]
G01 X3.5744 Y7.1718Z[#100+-0.1306]
#102=[#507+0.27821*#500-0.27821*#507]
#101=[#508+0.27821*#501-0.27821*#508]
#100=[#102+0.35450*#101-0.35450*#102]
G01 X3.6151 Y7.2454Z[#100+-0.1306]
#102=[#507+0.25105*#500-0.25105*#507]
#101=[#508+0.25105*#501-0.25105*#508]
#100=[#102+0.32282*#101-0.32282*#102]
G01 X3.3844 Y7.4761Z[#100+-0.1306]
#102=[#507+0.25473*#500-0.25473*#507]
#101=[#508+0.25473*#501-0.25473*#508]
#100=[#102+0.31280*#101-0.31280*#102]
G01 X3.3114 Y7.4449Z[#100+-0.1306]
#102=[#507+0.32049*#500-0.32049*#507]
#101=[#508+0.32049*#501-0.32049*#508]
#100=[#102+0.28356*#101-0.28356*#102]
G01 X3.0985 Y6.8862Z[#100+-0.1306]
#102=[#507+0.39684*#500-0.39684*#507]
#101=[#508+0.39684*#501-0.39684*#508]
#100=[#102+0.28611*#101-0.28611*#102]
G01 X3.1171 Y6.2376Z[#100+-0.1306]
#102=[#507+0.45112*#500-0.45112*#507]
#101=[#508+0.45112*#501-0.45112*#508]
#100=[#102+0.31234*#101-0.31234*#102]
G01 X3.3081 Y5.7765Z[#100+-0.1306]
#102=[#507+0.45496*#500-0.45496*#507]
#101=[#508+0.45496*#501-0.45496*#508]
#100=[#102+0.32282*#101-0.32282*#102]
G01 X3.3844 Y5.7439Z[#100+-0.1306]
#102=[#507+0.42780*#500-0.42780*#507]
#101=[#508+0.42780*#501-0.42780*#508]
#100=[#102+0.35450*#101-0.35450*#102]
G01 X3.6151 Y5.9746Z[#100+-0.1306]
#102=[#507+0.41812*#500-0.41812*#507]
#101=[#508+0.41812*#501-0.41812*#508]
#100=[#102+0.34835*#101-0.34835*#102]
G01 X3.5703 Y6.0568Z[#100+-0.1306]
#102=[#507+0.40338*#500-0.40338*#507]
#101=[#508+0.40338*#501-0.40338*#508]
#100=[#102+0.34122*#101-0.34122*#102]
G01 X3.5184 Y6.1821Z[#100+-0.1306]
#102=[#507+0.38707*#500-0.38707*#507]
#101=[#508+0.38707*#501-0.38707*#508]
#100=[#102+0.33569*#101-0.33569*#102]
G01 X3.4781 Y6.3206Z[#100+-0.1306]
#102=[#507+0.36973*#500-0.36973*#507]
#101=[#508+0.36973*#501-0.36973*#508]
#100=[#102+0.33223*#101-0.33223*#102]
G01 X3.4529 Y6.4679Z[#100+-0.1306]
#102=[#507+0.35357*#500-0.35357*#507]
#101=[#508+0.35357*#501-0.35357*#508]
#100=[#102+0.33116*#101-0.33116*#102]
G01 X3.4451 Y6.6052Z[#100+-0.1306]
#102=[#507+0.35244*#500-0.35244*#507]
#101=[#508+0.35244*#501-0.35244*#508]
#100=[#102+0.33116*#101-0.33116*#102]
G01 X3.4451 Y6.6148Z[#100+-0.1306]
#102=[#507+0.33628*#500-0.33628*#507]
#101=[#508+0.33628*#501-0.33628*#508]
#100=[#102+0.33223*#101-0.33223*#102]
G01 X3.4529 Y6.7521Z[#100+-0.1306]
#102=[#507+0.31894*#500-0.31894*#507]
#101=[#508+0.31894*#501-0.31894*#508]
#100=[#102+0.33569*#101-0.33569*#102]
G01 X3.4781 Y6.8994Z[#100+-0.1306]
#102=[#507+0.30263*#500-0.30263*#507]
#101=[#508+0.30263*#501-0.30263*#508]
#100=[#102+0.34122*#101-0.34122*#102]
G01 X3.5184 Y7.0379Z[#100+-0.1306]
#102=[#507+0.28789*#500-0.28789*#507]
#101=[#508+0.28789*#501-0.28789*#508]
#100=[#102+0.34836*#101-0.34836*#102]
G01 X3.5704 Y7.1632Z[#100+-0.1306]
#102=[#507+0.28687*#500-0.28687*#507]
#101=[#508+0.28687*#501-0.28687*#508]
#100=[#102+0.34891*#101-0.34891*#102]
G01 X3.5744 Y7.1718Z[#100+-0.1306]
G00 Z2.0000
G00 X4.0946 Y7.7249
G01 F350.00
#102=[#507+0.22176*#500-0.22176*#507]
#101=[#508+0.22176*#501-0.22176*#508]
#100=[#102+0.42035*#101-0.42035*#102]
G01 Z[#100+-0.1306]
#102=[#507+0.22176*#500-0.22176*#507]
#101=[#508+0.22176*#501-0.22176*#508]
#100=[#102+0.42035*#101-0.42035*#102]
G01 F400.00
#102=[#507+0.21649*#500-0.21649*#507]
#101=[#508+0.21649*#501-0.21649*#508]
#100=[#102+0.43164*#101-0.43164*#102]
G01 X4.1768 Y7.7697Z[#100+-0.1306]
#102=[#507+0.21038*#500-0.21038*#507]
#101=[#508+0.21038*#501-0.21038*#508]
#100=[#102+0.44885*#101-0.44885*#102]
G01 X4.3021 Y7.8216Z[#100+-0.1306]
#102=[#507+0.20564*#500-0.20564*#507]
#101=[#508+0.20564*#501-0.20564*#508]
#100=[#102+0.46787*#101-0.46787*#102]
G01 X4.4406 Y7.8619Z[#100+-0.1306]
#102=[#507+0.20267*#500-0.20267*#507]
#101=[#508+0.20267*#501-0.20267*#508]
#100=[#102+0.48810*#101-0.48810*#102]
G01 X4.5879 Y7.8871Z[#100+-0.1306]
#102=[#507+0.20174*#500-0.20174*#507]
#101=[#508+0.20174*#501-0.20174*#508]
#100=[#102+0.50761*#101-0.50761*#102]
G01 X4.7300 Y7.8950Z[#100+-0.1306]
#102=[#507+0.20267*#500-0.20267*#507]
#101=[#508+0.20267*#501-0.20267*#508]
#100=[#102+0.52713*#101-0.52713*#102]
G01 X4.8721 Y7.8871Z[#100+-0.1306]
#102=[#507+0.20564*#500-0.20564*#507]
#101=[#508+0.20564*#501-0.20564*#508]
#100=[#102+0.54735*#101-0.54735*#102]
G01 X5.0194 Y7.8619Z[#100+-0.1306]
#102=[#507+0.21038*#500-0.21038*#507]
#101=[#508+0.21038*#501-0.21038*#508]
#100=[#102+0.56637*#101-0.56637*#102]
G01 X5.1579 Y7.8216Z[#100+-0.1306]
#102=[#507+0.21649*#500-0.21649*#507]
#101=[#508+0.21649*#501-0.21649*#508]
#100=[#102+0.58358*#101-0.58358*#102]
G01 X5.2832 Y7.7697Z[#100+-0.1306]
#102=[#507+0.22176*#500-0.22176*#507]
#101=[#508+0.22176*#501-0.22176*#508]
#100=[#102+0.59487*#101-0.59487*#102]
G01 X5.3654 Y7.7249Z[#100+-0.1306]
#102=[#507+0.19461*#500-0.19461*#507]
#101=[#508+0.19461*#501-0.19461*#508]
#100=[#102+0.62655*#101-0.62655*#102]
G01 X5.5961 Y7.9556Z[#100+-0.1306]
#102=[#507+0.18602*#500-0.18602*#507]
#101=[#508+0.18602*#501-0.18602*#508]
#100=[#102+0.62227*#101-0.62227*#102]
G01 X5.5649 Y8.0286Z[#100+-0.1306]
#102=[#507+0.16095*#500-0.16095*#507]
#101=[#508+0.16095*#501-0.16095*#508]
#100=[#102+0.54554*#101-0.54554*#102]
G01 X5.0062 Y8.2415Z[#100+-0.1306]
#102=[#507+0.16314*#500-0.16314*#507]
#101=[#508+0.16314*#501-0.16314*#508]
#100=[#102+0.45647*#101-0.45647*#102]
G01 X4.3576 Y8.2229Z[#100+-0.1306]
#102=[#507+0.18563*#500-0.18563*#507]
#101=[#508+0.18563*#501-0.18563*#508]
#100=[#102+0.39315*#101-0.39315*#102]
G01 X3.8965 Y8.0319Z[#100+-0.1306]
#102=[#507+0.19461*#500-0.19461*#507]
#101=[#508+0.19461*#501-0.19461*#508]
#100=[#102+0.38867*#101-0.38867*#102]
G01 X3.8639 Y7.9556Z[#100+-0.1306]
#102=[#507+0.22176*#500-0.22176*#507]
#101=[#508+0.22176*#501-0.22176*#508]
#100=[#102+0.42035*#101-0.42035*#102]
G01 X4.0946 Y7.7249Z[#100+-0.1306]
#102=[#507+0.21649*#500-0.21649*#507]
#101=[#508+0.21649*#501-0.21649*#508]
#100=[#102+0.43164*#101-0.43164*#102]
G01 X4.1768 Y7.7697Z[#100+-0.1306]
G00 Z2.0000
G00 X4.0956 Y7.9451
G01 F350.00
#102=[#507+0.19584*#500-0.19584*#507]
#101=[#508+0.19584*#501-0.19584*#508]
#100=[#102+0.42049*#101-0.42049*#102]
G01 Z[#100+-0.1306]
#102=[#507+0.19584*#500-0.19584*#507]
#101=[#508+0.19584*#501-0.19584*#508]
#100=[#102+0.42049*#101-0.42049*#102]
G01 F400.00
#102=[#507+0.19915*#500-0.19915*#507]
#101=[#508+0.19915*#501-0.19915*#508]
#100=[#102+0.42435*#101-0.42435*#102]
G01 X4.1237 Y7.9170Z[#100+-0.1306]
#102=[#507+0.19329*#500-0.19329*#507]
#101=[#508+0.19329*#501-0.19329*#508]
#100=[#102+0.44087*#101-0.44087*#102]
G01 X4.2440 Y7.9668Z[#100+-0.1306]
#102=[#507+0.19237*#500-0.19237*#507]
#101=[#508+0.19237*#501-0.19237*#508]
#100=[#102+0.44400*#101-0.44400*#102]
G01 X4.2668 Y7.9746Z[#100+-0.1306]
#102=[#507+0.18787*#500-0.18787*#507]
#101=[#508+0.18787*#501-0.18787*#508]
#100=[#102+0.46222*#101-0.46222*#102]
G01 X4.3995 Y8.0128Z[#100+-0.1306]
#102=[#507+0.18727*#500-0.18727*#507]
#101=[#508+0.18727*#501-0.18727*#508]
#100=[#102+0.46538*#101-0.46538*#102]
G01 X4.4225 Y8.0179Z[#100+-0.1306]
#102=[#507+0.18463*#500-0.18463*#507]
#101=[#508+0.18463*#501-0.18463*#508]
#100=[#102+0.48361*#101-0.48361*#102]
G01 X4.5552 Y8.0404Z[#100+-0.1306]
#102=[#507+0.18433*#500-0.18433*#507]
#101=[#508+0.18433*#501-0.18433*#508]
#100=[#102+0.48616*#101-0.48616*#102]
G01 X4.5738 Y8.0429Z[#100+-0.1306]
#102=[#507+0.18333*#500-0.18333*#507]
#101=[#508+0.18333*#501-0.18333*#508]
#100=[#102+0.50761*#101-0.50761*#102]
G01 X4.7300 Y8.0514Z[#100+-0.1306]
#102=[#507+0.18433*#500-0.18433*#507]
#101=[#508+0.18433*#501-0.18433*#508]
#100=[#102+0.52906*#101-0.52906*#102]
G01 X4.8862 Y8.0429Z[#100+-0.1306]
#102=[#507+0.18463*#500-0.18463*#507]
#101=[#508+0.18463*#501-0.18463*#508]
#100=[#102+0.53162*#101-0.53162*#102]
G01 X4.9048 Y8.0404Z[#100+-0.1306]
#102=[#507+0.18727*#500-0.18727*#507]
#101=[#508+0.18727*#501-0.18727*#508]
#100=[#102+0.54984*#101-0.54984*#102]
G01 X5.0375 Y8.0179Z[#100+-0.1306]
#102=[#507+0.18787*#500-0.18787*#507]
#101=[#508+0.18787*#501-0.18787*#508]
#100=[#102+0.55300*#101-0.55300*#102]
G01 X5.0605 Y8.0128Z[#100+-0.1306]
#102=[#507+0.19237*#500-0.19237*#507]
#101=[#508+0.19237*#501-0.19237*#508]
#100=[#102+0.57122*#101-0.57122*#102]
G01 X5.1932 Y7.9746Z[#100+-0.1306]
#102=[#507+0.19329*#500-0.19329*#507]
#101=[#508+0.19329*#501-0.19329*#508]
#100=[#102+0.57435*#101-0.57435*#102]
G01 X5.2160 Y7.9668Z[#100+-0.1306]
#102=[#507+0.19915*#500-0.19915*#507]
#101=[#508+0.19915*#501-0.19915*#508]
#100=[#102+0.59087*#101-0.59087*#102]
G01 X5.3363 Y7.9170Z[#100+-0.1306]
#102=[#507+0.19648*#500-0.19648*#507]
#101=[#508+0.19648*#501-0.19648*#508]
#100=[#102+0.59399*#101-0.59399*#102]
G01 X5.3590 Y7.9397Z[#100+-0.1306]
#102=[#507+0.17946*#500-0.17946*#507]
#101=[#508+0.17946*#501-0.17946*#508]
#100=[#102+0.54189*#101-0.54189*#102]
G01 X4.9796 Y8.0843Z[#100+-0.1306]
#102=[#507+0.18145*#500-0.18145*#507]
#101=[#508+0.18145*#501-0.18145*#508]
#100=[#102+0.46104*#101-0.46104*#102]
G01 X4.3909 Y8.0674Z[#100+-0.1306]
#102=[#507+0.19584*#500-0.19584*#507]
#101=[#508+0.19584*#501-0.19584*#508]
#100=[#102+0.42049*#101-0.42049*#102]
G01 X4.0956 Y7.9451Z[#100+-0.1306]
#102=[#507+0.19915*#500-0.19915*#507]
#101=[#508+0.19915*#501-0.19915*#508]
#100=[#102+0.42435*#101-0.42435*#102]
G01 X4.1237 Y7.9170Z[#100+-0.1306]
G00 Z2.0000
G00 X5.8449 Y7.2454
G01 F350.00
#102=[#507+0.27821*#500-0.27821*#507]
#101=[#508+0.27821*#501-0.27821*#508]
#100=[#102+0.66072*#101-0.66072*#102]
G01 Z[#100+-0.1306]
#102=[#507+0.27821*#500-0.27821*#507]
#101=[#508+0.27821*#501-0.27821*#508]
#100=[#102+0.66072*#101-0.66072*#102]
G01 F400.00
#102=[#507+0.28789*#500-0.28789*#507]
#101=[#508+0.28789*#501-0.28789*#508]
#100=[#102+0.66687*#101-0.66687*#102]
G01 X5.8897 Y7.1632Z[#100+-0.1306]
#102=[#507+0.30263*#500-0.30263*#507]
#101=[#508+0.30263*#501-0.30263*#508]
#100=[#102+0.67400*#101-0.67400*#102]
G01 X5.9416 Y7.0379Z[#100+-0.1306]
#102=[#507+0.31894*#500-0.31894*#507]
#101=[#508+0.31894*#501-0.31894*#508]
#100=[#102+0.67953*#101-0.67953*#102]
G01 X5.9819 Y6.8994Z[#100+-0.1306]
#102=[#507+0.33628*#500-0.33628*#507]
#101=[#508+0.33628*#501-0.33628*#508]
#100=[#102+0.68300*#101-0.68300*#102]
G01 X6.0071 Y6.7521Z[#100+-0.1306]
#102=[#507+0.35301*#500-0.35301*#507]
#101=[#508+0.35301*#501-0.35301*#508]
#100=[#102+0.68408*#101-0.68408*#102]
G01 X6.0150 Y6.6100Z[#100+-0.1306]
#102=[#507+0.36973*#500-0.36973*#507]
#101=[#508+0.36973*#501-0.36973*#508]
#100=[#102+0.68300*#101-0.68300*#102]
G01 X6.0071 Y6.4679Z[#100+-0.1306]
#102=[#507+0.38707*#500-0.38707*#507]
#101=[#508+0.38707*#501-0.38707*#508]
#100=[#102+0.67953*#101-0.67953*#102]
G01 X5.9819 Y6.3206Z[#100+-0.1306]
#102=[#507+0.40338*#500-0.40338*#507]
#101=[#508+0.40338*#501-0.40338*#508]
#100=[#102+0.67400*#101-0.67400*#102]
G01 X5.9416 Y6.1821Z[#100+-0.1306]
#102=[#507+0.41812*#500-0.41812*#507]
#101=[#508+0.41812*#501-0.41812*#508]
#100=[#102+0.66687*#101-0.66687*#102]
G01 X5.8897 Y6.0568Z[#100+-0.1306]
#102=[#507+0.42780*#500-0.42780*#507]
#101=[#508+0.42780*#501-0.42780*#508]
#100=[#102+0.66072*#101-0.66072*#102]
G01 X5.8449 Y5.9746Z[#100+-0.1306]
#102=[#507+0.45496*#500-0.45496*#507]
#101=[#508+0.45496*#501-0.45496*#508]
#100=[#102+0.69240*#101-0.69240*#102]
G01 X6.0756 Y5.7439Z[#100+-0.1306]
#102=[#507+0.45128*#500-0.45128*#507]
#101=[#508+0.45128*#501-0.45128*#508]
#100=[#102+0.70243*#101-0.70243*#102]
G01 X6.1486 Y5.7751Z[#100+-0.1306]
#102=[#507+0.38552*#500-0.38552*#507]
#101=[#508+0.38552*#501-0.38552*#508]
#100=[#102+0.73166*#101-0.73166*#102]
G01 X6.3615 Y6.3338Z[#100+-0.1306]
#102=[#507+0.30917*#500-0.30917*#507]
#101=[#508+0.30917*#501-0.30917*#508]
#100=[#102+0.72911*#101-0.72911*#102]
G01 X6.3429 Y6.9824Z[#100+-0.1306]
#102=[#507+0.25489*#500-0.25489*#507]
#101=[#508+0.25489*#501-0.25489*#508]
#100=[#102+0.70288*#101-0.70288*#102]
G01 X6.1519 Y7.4435Z[#100+-0.1306]
#102=[#507+0.25105*#500-0.25105*#507]
#101=[#508+0.25105*#501-0.25105*#508]
#100=[#102+0.69240*#101-0.69240*#102]
G01 X6.0756 Y7.4761Z[#100+-0.1306]
#102=[#507+0.27821*#500-0.27821*#507]
#101=[#508+0.27821*#501-0.27821*#508]
#100=[#102+0.66072*#101-0.66072*#102]
G01 X5.8449 Y7.2454Z[#100+-0.1306]
#102=[#507+0.28789*#500-0.28789*#507]
#101=[#508+0.28789*#501-0.28789*#508]
#100=[#102+0.66687*#101-0.66687*#102]
G01 X5.8897 Y7.1632Z[#100+-0.1306]
G00 Z2.0000
G00 X6.0370 Y7.2163
G01 F350.00
#102=[#507+0.28163*#500-0.28163*#507]
#101=[#508+0.28163*#501-0.28163*#508]
#100=[#102+0.68710*#101-0.68710*#102]
G01 Z[#100+-0.1306]
#102=[#507+0.28163*#500-0.28163*#507]
#101=[#508+0.28163*#501-0.28163*#508]
#100=[#102+0.68710*#101-0.68710*#102]
G01 F400.00
#102=[#507+0.29580*#500-0.29580*#507]
#101=[#508+0.29580*#501-0.29580*#508]
#100=[#102+0.69394*#101-0.69394*#102]
G01 X6.0868 Y7.0960Z[#100+-0.1306]
#102=[#507+0.29848*#500-0.29848*#507]
#101=[#508+0.29848*#501-0.29848*#508]
#100=[#102+0.69501*#101-0.69501*#102]
G01 X6.0946 Y7.0732Z[#100+-0.1306]
#102=[#507+0.31410*#500-0.31410*#507]
#101=[#508+0.31410*#501-0.31410*#508]
#100=[#102+0.70026*#101-0.70026*#102]
G01 X6.1328 Y6.9405Z[#100+-0.1306]
#102=[#507+0.31681*#500-0.31681*#507]
#101=[#508+0.31681*#501-0.31681*#508]
#100=[#102+0.70096*#101-0.70096*#102]
G01 X6.1379 Y6.9175Z[#100+-0.1306]
#102=[#507+0.33243*#500-0.33243*#507]
#101=[#508+0.33243*#501-0.33243*#508]
#100=[#102+0.70405*#101-0.70405*#102]
G01 X6.1604 Y6.7848Z[#100+-0.1306]
#102=[#507+0.33462*#500-0.33462*#507]
#101=[#508+0.33462*#501-0.33462*#508]
#100=[#102+0.70439*#101-0.70439*#102]
G01 X6.1629 Y6.7662Z[#100+-0.1306]
#102=[#507+0.35301*#500-0.35301*#507]
#101=[#508+0.35301*#501-0.35301*#508]
#100=[#102+0.70556*#101-0.70556*#102]
G01 X6.1714 Y6.6100Z[#100+-0.1306]
#102=[#507+0.37139*#500-0.37139*#507]
#101=[#508+0.37139*#501-0.37139*#508]
#100=[#102+0.70439*#101-0.70439*#102]
G01 X6.1629 Y6.4538Z[#100+-0.1306]
#102=[#507+0.37358*#500-0.37358*#507]
#101=[#508+0.37358*#501-0.37358*#508]
#100=[#102+0.70405*#101-0.70405*#102]
G01 X6.1604 Y6.4352Z[#100+-0.1306]
#102=[#507+0.38920*#500-0.38920*#507]
#101=[#508+0.38920*#501-0.38920*#508]
#100=[#102+0.70096*#101-0.70096*#102]
G01 X6.1379 Y6.3025Z[#100+-0.1306]
#102=[#507+0.39191*#500-0.39191*#507]
#101=[#508+0.39191*#501-0.39191*#508]
#100=[#102+0.70026*#101-0.70026*#102]
G01 X6.1328 Y6.2795Z[#100+-0.1306]
#102=[#507+0.40753*#500-0.40753*#507]
#101=[#508+0.40753*#501-0.40753*#508]
#100=[#102+0.69501*#101-0.69501*#102]
G01 X6.0946 Y6.1468Z[#100+-0.1306]
#102=[#507+0.41021*#500-0.41021*#507]
#101=[#508+0.41021*#501-0.41021*#508]
#100=[#102+0.69394*#101-0.69394*#102]
G01 X6.0868 Y6.1240Z[#100+-0.1306]
#102=[#507+0.42438*#500-0.42438*#507]
#101=[#508+0.42438*#501-0.42438*#508]
#100=[#102+0.68710*#101-0.68710*#102]
G01 X6.0370 Y6.0037Z[#100+-0.1306]
#102=[#507+0.42705*#500-0.42705*#507]
#101=[#508+0.42705*#501-0.42705*#508]
#100=[#102+0.69022*#101-0.69022*#102]
G01 X6.0597 Y5.9810Z[#100+-0.1306]
#102=[#507+0.38239*#500-0.38239*#507]
#101=[#508+0.38239*#501-0.38239*#508]
#100=[#102+0.71008*#101-0.71008*#102]
G01 X6.2043 Y6.3604Z[#100+-0.1306]
#102=[#507+0.31309*#500-0.31309*#507]
#101=[#508+0.31309*#501-0.31309*#508]
#100=[#102+0.70776*#101-0.70776*#102]
G01 X6.1874 Y6.9491Z[#100+-0.1306]
#102=[#507+0.27833*#500-0.27833*#507]
#101=[#508+0.27833*#501-0.27833*#508]
#100=[#102+0.69096*#101-0.69096*#102]
G01 X6.0651 Y7.2444Z[#100+-0.1306]
#102=[#507+0.28163*#500-0.28163*#507]
#101=[#508+0.28163*#501-0.28163*#508]
#100=[#102+0.68710*#101-0.68710*#102]
G01 X6.0370 Y7.2163Z[#100+-0.1306]
#102=[#507+0.29580*#500-0.29580*#507]
#101=[#508+0.29580*#501-0.29580*#508]
#100=[#102+0.69394*#101-0.69394*#102]
G01 X6.0868 Y7.0960Z[#100+-0.1306]
G00 Z2.0000
G00 X10.1156 Y6.7515
G01 F350.00
#102=[#508+0.33635*#501-0.33635*#508]
#101=[#509+0.33635*#502-0.33635*#509]
#100=[#102+0.24721*#101-0.24721*#102]
G01 Z[#100+-0.1306]
#102=[#508+0.33635*#501-0.33635*#508]
#101=[#509+0.33635*#502-0.33635*#509]
#100=[#102+0.24721*#101-0.24721*#102]
G01 F400.00
#102=[#508+0.33346*#501-0.33346*#508]
#101=[#509+0.33346*#502-0.33346*#509]
#100=[#102+0.24881*#101-0.24881*#102]
G01 X10.1272 Y6.7760Z[#100+-0.1306]
#102=[#508+0.32276*#501-0.32276*#508]
#101=[#509+0.32276*#502-0.32276*#509]
#100=[#102+0.25570*#101-0.25570*#102]
G01 X10.1774 Y6.8669Z[#100+-0.1306]
#102=[#508+0.31871*#501-0.31871*#508]
#101=[#509+0.31871*#502-0.31871*#509]
#100=[#102+0.25098*#101-0.25098*#102]
G01 X10.1430 Y6.9013Z[#100+-0.1306]
#102=[#508+0.38886*#501-0.38886*#508]
#101=[#509+0.38886*#502-0.38886*#509]
#100=[#102+0.21865*#101-0.21865*#102]
G01 X9.9076 Y6.3054Z[#100+-0.1306]
#102=[#508+0.47663*#501-0.47663*#508]
#101=[#509+0.47663*#502-0.47663*#509]
#100=[#102+0.22034*#101-0.22034*#102]
G01 X9.9199 Y5.5598Z[#100+-0.1306]
#102=[#508+0.53941*#501-0.53941*#508]
#101=[#509+0.53941*#502-0.53941*#509]
#100=[#102+0.25067*#101-0.25067*#102]
G01 X10.1408 Y5.0265Z[#100+-0.1306]
#102=[#508+0.53510*#501-0.53510*#508]
#101=[#509+0.53510*#502-0.53510*#509]
#100=[#102+0.25570*#101-0.25570*#102]
G01 X10.1774 Y5.0631Z[#100+-0.1306]
#102=[#508+0.52440*#501-0.52440*#508]
#101=[#509+0.52440*#502-0.52440*#509]
#100=[#102+0.24881*#101-0.24881*#102]
G01 X10.1272 Y5.1540Z[#100+-0.1306]
#102=[#508+0.52153*#501-0.52153*#508]
#101=[#509+0.52153*#502-0.52153*#509]
#100=[#102+0.24719*#101-0.24719*#102]
G01 X10.1154 Y5.1784Z[#100+-0.1306]
#102=[#508+0.50169*#501-0.50169*#508]
#101=[#509+0.50169*#502-0.50169*#509]
#100=[#102+0.23761*#101-0.23761*#102]
G01 X10.0457 Y5.3469Z[#100+-0.1306]
#102=[#508+0.49901*#501-0.49901*#508]
#101=[#509+0.49901*#502-0.49901*#509]
#100=[#102+0.23653*#101-0.23653*#102]
G01 X10.0378 Y5.3697Z[#100+-0.1306]
#102=[#508+0.47832*#501-0.47832*#508]
#101=[#509+0.47832*#502-0.47832*#509]
#100=[#102+0.22958*#101-0.22958*#102]
G01 X9.9872 Y5.5454Z[#100+-0.1306]
#102=[#508+0.47560*#501-0.47560*#508]
#101=[#509+0.47560*#502-0.47560*#509]
#100=[#102+0.22888*#101-0.22888*#102]
G01 X9.9821 Y5.5685Z[#100+-0.1306]
#102=[#508+0.45478*#501-0.45478*#508]
#101=[#509+0.45478*#502-0.45478*#509]
#100=[#102+0.22476*#101-0.22476*#102]
G01 X9.9521 Y5.7454Z[#100+-0.1306]
#102=[#508+0.45259*#501-0.45259*#508]
#101=[#509+0.45259*#502-0.45259*#509]
#100=[#102+0.22443*#101-0.22443*#102]
G01 X9.9497 Y5.7640Z[#100+-0.1306]
#102=[#508+0.42893*#501-0.42893*#508]
#101=[#509+0.42893*#502-0.42893*#509]
#100=[#102+0.22291*#101-0.22291*#102]
G01 X9.9386 Y5.9650Z[#100+-0.1306]
#102=[#508+0.40527*#501-0.40527*#508]
#101=[#509+0.40527*#502-0.40527*#509]
#100=[#102+0.22443*#101-0.22443*#102]
G01 X9.9497 Y6.1660Z[#100+-0.1306]
#102=[#508+0.40308*#501-0.40308*#508]
#101=[#509+0.40308*#502-0.40308*#509]
#100=[#102+0.22476*#101-0.22476*#102]
G01 X9.9521 Y6.1846Z[#100+-0.1306]
#102=[#508+0.38226*#501-0.38226*#508]
#101=[#509+0.38226*#502-0.38226*#509]
#100=[#102+0.22888*#101-0.22888*#102]
G01 X9.9821 Y6.3615Z[#100+-0.1306]
#102=[#508+0.37955*#501-0.37955*#508]
#101=[#509+0.37955*#502-0.37955*#509]
#100=[#102+0.22958*#101-0.22958*#102]
G01 X9.9872 Y6.3845Z[#100+-0.1306]
#102=[#508+0.35886*#501-0.35886*#508]
#101=[#509+0.35886*#502-0.35886*#509]
#100=[#102+0.23653*#101-0.23653*#102]
G01 X10.0378 Y6.5603Z[#100+-0.1306]
#102=[#508+0.35617*#501-0.35617*#508]
#101=[#509+0.35617*#502-0.35617*#509]
#100=[#102+0.23761*#101-0.23761*#102]
G01 X10.0457 Y6.5831Z[#100+-0.1306]
#102=[#508+0.33635*#501-0.33635*#508]
#101=[#509+0.33635*#502-0.33635*#509]
#100=[#102+0.24721*#101-0.24721*#102]
G01 X10.1156 Y6.7515Z[#100+-0.1306]
#102=[#508+0.33346*#501-0.33346*#508]
#101=[#509+0.33346*#502-0.33346*#509]
#100=[#102+0.24881*#101-0.24881*#102]
G01 X10.1272 Y6.7760Z[#100+-0.1306]
G00 Z2.0000
G00 X10.2600 Y6.6917
G01 F350.00
#102=[#508+0.34339*#501-0.34339*#508]
#101=[#509+0.34339*#502-0.34339*#509]
#100=[#102+0.26704*#101-0.26704*#102]
G01 Z[#100+-0.1306]
#102=[#508+0.34339*#501-0.34339*#508]
#101=[#509+0.34339*#502-0.34339*#509]
#100=[#102+0.26704*#101-0.26704*#102]
G01 F400.00
#102=[#508+0.34238*#501-0.34238*#508]
#101=[#509+0.34238*#502-0.34238*#509]
#100=[#102+0.26761*#101-0.26761*#102]
G01 X10.2641 Y6.7003Z[#100+-0.1306]
#102=[#508+0.32388*#501-0.32388*#508]
#101=[#509+0.32388*#502-0.32388*#509]
#100=[#102+0.27951*#101-0.27951*#102]
G01 X10.3508 Y6.8574Z[#100+-0.1306]
#102=[#508+0.31989*#501-0.31989*#508]
#101=[#509+0.31989*#502-0.31989*#509]
#100=[#102+0.28273*#101-0.28273*#102]
G01 X10.3742 Y6.8913Z[#100+-0.1306]
#102=[#508+0.29397*#501-0.29397*#508]
#101=[#509+0.29397*#502-0.29397*#509]
#100=[#102+0.25249*#101-0.25249*#102]
G01 X10.1540 Y7.1115Z[#100+-0.1306]
#102=[#508+0.30142*#501-0.30142*#508]
#101=[#509+0.30142*#502-0.30142*#509]
#100=[#102+0.23586*#101-0.23586*#102]
G01 X10.0329 Y7.0482Z[#100+-0.1306]
#102=[#508+0.38549*#501-0.38549*#508]
#101=[#509+0.38549*#502-0.38549*#509]
#100=[#102+0.19710*#101-0.19710*#102]
G01 X9.7507 Y6.3340Z[#100+-0.1306]
#102=[#508+0.48043*#501-0.48043*#508]
#101=[#509+0.48043*#502-0.48043*#509]
#100=[#102+0.19893*#101-0.19893*#102]
G01 X9.7640 Y5.5275Z[#100+-0.1306]
#102=[#508+0.55633*#501-0.55633*#508]
#101=[#509+0.55633*#502-0.55633*#509]
#100=[#102+0.23561*#101-0.23561*#102]
G01 X10.0311 Y4.8827Z[#100+-0.1306]
#102=[#508+0.56389*#501-0.56389*#508]
#101=[#509+0.56389*#502-0.56389*#509]
#100=[#102+0.25249*#101-0.25249*#102]
G01 X10.1540 Y4.8185Z[#100+-0.1306]
#102=[#508+0.53797*#501-0.53797*#508]
#101=[#509+0.53797*#502-0.53797*#509]
#100=[#102+0.28273*#101-0.28273*#102]
G01 X10.3742 Y5.0387Z[#100+-0.1306]
#102=[#508+0.53429*#501-0.53429*#508]
#101=[#509+0.53429*#502-0.53429*#509]
#100=[#102+0.27973*#101-0.27973*#102]
G01 X10.3524 Y5.0700Z[#100+-0.1306]
#102=[#508+0.51549*#501-0.51549*#508]
#101=[#509+0.51549*#502-0.51549*#509]
#100=[#102+0.26761*#101-0.26761*#102]
G01 X10.2641 Y5.2297Z[#100+-0.1306]
#102=[#508+0.51447*#501-0.51447*#508]
#101=[#509+0.51447*#502-0.51447*#509]
#100=[#102+0.26703*#101-0.26703*#102]
G01 X10.2599 Y5.2383Z[#100+-0.1306]
#102=[#508+0.49485*#501-0.49485*#508]
#101=[#509+0.49485*#502-0.49485*#509]
#100=[#102+0.25755*#101-0.25755*#102]
G01 X10.1909 Y5.4050Z[#100+-0.1306]
#102=[#508+0.47347*#501-0.47347*#508]
#101=[#509+0.47347*#502-0.47347*#509]
#100=[#102+0.25030*#101-0.25030*#102]
G01 X10.1381 Y5.5866Z[#100+-0.1306]
#102=[#508+0.45170*#501-0.45170*#508]
#101=[#509+0.45170*#502-0.45170*#509]
#100=[#102+0.24594*#101-0.24594*#102]
G01 X10.1063 Y5.7716Z[#100+-0.1306]
#102=[#508+0.45058*#501-0.45058*#508]
#101=[#509+0.45058*#502-0.45058*#509]
#100=[#102+0.24579*#101-0.24579*#102]
G01 X10.1052 Y5.7811Z[#100+-0.1306]
#102=[#508+0.42950*#501-0.42950*#508]
#101=[#509+0.42950*#502-0.42950*#509]
#100=[#102+0.24440*#101-0.24440*#102]
G01 X10.0951 Y5.9602Z[#100+-0.1306]
#102=[#508+0.42837*#501-0.42837*#508]
#101=[#509+0.42837*#502-0.42837*#509]
#100=[#102+0.24440*#101-0.24440*#102]
G01 X10.0951 Y5.9698Z[#100+-0.1306]
#102=[#508+0.40694*#501-0.40694*#508]
#101=[#509+0.40694*#502-0.40694*#509]
#100=[#102+0.24581*#101-0.24581*#102]
G01 X10.1054 Y6.1518Z[#100+-0.1306]
#102=[#508+0.38534*#501-0.38534*#508]
#101=[#509+0.38534*#502-0.38534*#509]
#100=[#102+0.25006*#101-0.25006*#102]
G01 X10.1363 Y6.3353Z[#100+-0.1306]
#102=[#508+0.38425*#501-0.38425*#508]
#101=[#509+0.38425*#502-0.38425*#509]
#100=[#102+0.25035*#101-0.25035*#102]
G01 X10.1384 Y6.3446Z[#100+-0.1306]
#102=[#508+0.36301*#501-0.36301*#508]
#101=[#509+0.36301*#502-0.36301*#509]
#100=[#102+0.25755*#101-0.25755*#102]
G01 X10.1909 Y6.5250Z[#100+-0.1306]
#102=[#508+0.34339*#501-0.34339*#508]
#101=[#509+0.34339*#502-0.34339*#509]
#100=[#102+0.26704*#101-0.26704*#102]
G01 X10.2600 Y6.6917Z[#100+-0.1306]
#102=[#508+0.34238*#501-0.34238*#508]
#101=[#509+0.34238*#502-0.34238*#509]
#100=[#102+0.26761*#101-0.26761*#102]
G01 X10.2641 Y6.7003Z[#100+-0.1306]
G00 Z2.0000
G00 X10.8537 Y7.3708
G01 F350.00
#102=[#508+0.26345*#501-0.26345*#508]
#101=[#509+0.26345*#502-0.26345*#509]
#100=[#102+0.34858*#101-0.34858*#102]
G01 Z[#100+-0.1306]
#102=[#508+0.26345*#501-0.26345*#508]
#101=[#509+0.26345*#502-0.26345*#509]
#100=[#102+0.34858*#101-0.34858*#102]
G01 F400.00
#102=[#508+0.26088*#501-0.26088*#508]
#101=[#509+0.26088*#502-0.26088*#509]
#100=[#102+0.35288*#101-0.35288*#102]
G01 X10.8850 Y7.3926Z[#100+-0.1306]
#102=[#508+0.25049*#501-0.25049*#508]
#101=[#509+0.25049*#502-0.25049*#509]
#100=[#102+0.37481*#101-0.37481*#102]
G01 X11.0447 Y7.4809Z[#100+-0.1306]
#102=[#508+0.24999*#501-0.24999*#508]
#101=[#509+0.24999*#502-0.24999*#509]
#100=[#102+0.37599*#101-0.37599*#102]
G01 X11.0533 Y7.4851Z[#100+-0.1306]
#102=[#508+0.24192*#501-0.24192*#508]
#101=[#509+0.24192*#502-0.24192*#509]
#100=[#102+0.39874*#101-0.39874*#102]
G01 X11.2190 Y7.5537Z[#100+-0.1306]
#102=[#508+0.24154*#501-0.24154*#508]
#101=[#509+0.24154*#502-0.24154*#509]
#100=[#102+0.39998*#101-0.39998*#102]
G01 X11.2280 Y7.5569Z[#100+-0.1306]
#102=[#508+0.23566*#501-0.23566*#508]
#101=[#509+0.23566*#502-0.23566*#509]
#100=[#102+0.42382*#101-0.42382*#102]
G01 X11.4016 Y7.6069Z[#100+-0.1306]
#102=[#508+0.23191*#501-0.23191*#508]
#101=[#509+0.23191*#502-0.23191*#509]
#100=[#102+0.44923*#101-0.44923*#102]
G01 X11.5866 Y7.6387Z[#100+-0.1306]
#102=[#508+0.23178*#501-0.23178*#508]
#101=[#509+0.23178*#502-0.23178*#509]
#100=[#102+0.45053*#101-0.45053*#102]
G01 X11.5961 Y7.6398Z[#100+-0.1306]
#102=[#508+0.23058*#501-0.23058*#508]
#101=[#509+0.23058*#502-0.23058*#509]
#100=[#102+0.47579*#101-0.47579*#102]
G01 X11.7800 Y7.6500Z[#100+-0.1306]
#102=[#508+0.23178*#501-0.23178*#508]
#101=[#509+0.23178*#502-0.23178*#509]
#100=[#102+0.50104*#101-0.50104*#102]
G01 X11.9639 Y7.6398Z[#100+-0.1306]
#102=[#508+0.23191*#501-0.23191*#508]
#101=[#509+0.23191*#502-0.23191*#509]
#100=[#102+0.50234*#101-0.50234*#102]
G01 X11.9734 Y7.6387Z[#100+-0.1306]
#102=[#508+0.23566*#501-0.23566*#508]
#101=[#509+0.23566*#502-0.23566*#509]
#100=[#102+0.52775*#101-0.52775*#102]
G01 X12.1584 Y7.6069Z[#100+-0.1306]
#102=[#508+0.24154*#501-0.24154*#508]
#101=[#509+0.24154*#502-0.24154*#509]
#100=[#102+0.55159*#101-0.55159*#102]
G01 X12.3320 Y7.5569Z[#100+-0.1306]
#102=[#508+0.24192*#501-0.24192*#508]
#101=[#509+0.24192*#502-0.24192*#509]
#100=[#102+0.55283*#101-0.55283*#102]
G01 X12.3410 Y7.5537Z[#100+-0.1306]
#102=[#508+0.24999*#501-0.24999*#508]
#101=[#509+0.24999*#502-0.24999*#509]
#100=[#102+0.57558*#101-0.57558*#102]
G01 X12.5067 Y7.4851Z[#100+-0.1306]
#102=[#508+0.25049*#501-0.25049*#508]
#101=[#509+0.25049*#502-0.25049*#509]
#100=[#102+0.57676*#101-0.57676*#102]
G01 X12.5153 Y7.4809Z[#100+-0.1306]
#102=[#508+0.26088*#501-0.26088*#508]
#101=[#509+0.26088*#502-0.26088*#509]
#100=[#102+0.59870*#101-0.59870*#102]
G01 X12.6750 Y7.3926Z[#100+-0.1306]
#102=[#508+0.26345*#501-0.26345*#508]
#101=[#509+0.26345*#502-0.26345*#509]
#100=[#102+0.60299*#101-0.60299*#102]
G01 X12.7063 Y7.3708Z[#100+-0.1306]
#102=[#508+0.23753*#501-0.23753*#508]
#101=[#509+0.23753*#502-0.23753*#509]
#100=[#102+0.63323*#101-0.63323*#102]
G01 X12.9265 Y7.5910Z[#100+-0.1306]
#102=[#508+0.22327*#501-0.22327*#508]
#101=[#509+0.22327*#502-0.22327*#509]
#100=[#102+0.62454*#101-0.62454*#102]
G01 X12.8632 Y7.7121Z[#100+-0.1306]
#102=[#508+0.19005*#501-0.19005*#508]
#101=[#509+0.19005*#502-0.19005*#509]
#100=[#102+0.52646*#101-0.52646*#102]
G01 X12.1490 Y7.9943Z[#100+-0.1306]
#102=[#508+0.19162*#501-0.19162*#508]
#101=[#509+0.19162*#502-0.19162*#509]
#100=[#102+0.41570*#101-0.41570*#102]
G01 X11.3425 Y7.9810Z[#100+-0.1306]
#102=[#508+0.22306*#501-0.22306*#508]
#101=[#509+0.22306*#502-0.22306*#509]
#100=[#102+0.32715*#101-0.32715*#102]
G01 X10.6977 Y7.7139Z[#100+-0.1306]
#102=[#508+0.23753*#501-0.23753*#508]
#101=[#509+0.23753*#502-0.23753*#509]
#100=[#102+0.31834*#101-0.31834*#102]
G01 X10.6335 Y7.5910Z[#100+-0.1306]
#102=[#508+0.26345*#501-0.26345*#508]
#101=[#509+0.26345*#502-0.26345*#509]
#100=[#102+0.34858*#101-0.34858*#102]
G01 X10.8537 Y7.3708Z[#100+-0.1306]
#102=[#508+0.26088*#501-0.26088*#508]
#101=[#509+0.26088*#502-0.26088*#509]
#100=[#102+0.35288*#101-0.35288*#102]
G01 X10.8850 Y7.3926Z[#100+-0.1306]
G00 Z2.0000
G00 X10.8415 Y7.6042
G01 F350.00
#102=[#508+0.23597*#501-0.23597*#508]
#101=[#509+0.23597*#502-0.23597*#509]
#100=[#102+0.34690*#101-0.34690*#102]
G01 Z[#100+-0.1306]
#102=[#508+0.23597*#501-0.23597*#508]
#101=[#509+0.23597*#502-0.23597*#509]
#100=[#102+0.34690*#101-0.34690*#102]
G01 F400.00
#102=[#508+0.24028*#501-0.24028*#508]
#101=[#509+0.24028*#502-0.24028*#509]
#100=[#102+0.35193*#101-0.35193*#102]
G01 X10.8781 Y7.5676Z[#100+-0.1306]
#102=[#508+0.23437*#501-0.23437*#508]
#101=[#509+0.23437*#502-0.23437*#509]
#100=[#102+0.36441*#101-0.36441*#102]
G01 X10.9690 Y7.6178Z[#100+-0.1306]
#102=[#508+0.23298*#501-0.23298*#508]
#101=[#509+0.23298*#502-0.23298*#509]
#100=[#102+0.36776*#101-0.36776*#102]
G01 X10.9934 Y7.6296Z[#100+-0.1306]
#102=[#508+0.22478*#501-0.22478*#508]
#101=[#509+0.22478*#502-0.22478*#509]
#100=[#102+0.39090*#101-0.39090*#102]
G01 X11.1619 Y7.6993Z[#100+-0.1306]
#102=[#508+0.22385*#501-0.22385*#508]
#101=[#509+0.22385*#502-0.22385*#509]
#100=[#102+0.39403*#101-0.39403*#102]
G01 X11.1847 Y7.7072Z[#100+-0.1306]
#102=[#508+0.21789*#501-0.21789*#508]
#101=[#509+0.21789*#502-0.21789*#509]
#100=[#102+0.41818*#101-0.41818*#102]
G01 X11.3605 Y7.7578Z[#100+-0.1306]
#102=[#508+0.21729*#501-0.21729*#508]
#101=[#509+0.21729*#502-0.21729*#509]
#100=[#102+0.42133*#101-0.42133*#102]
G01 X11.3835 Y7.7629Z[#100+-0.1306]
#102=[#508+0.21376*#501-0.21376*#508]
#101=[#509+0.21376*#502-0.21376*#509]
#100=[#102+0.44563*#101-0.44563*#102]
G01 X11.5604 Y7.7929Z[#100+-0.1306]
#102=[#508+0.21348*#501-0.21348*#508]
#101=[#509+0.21348*#502-0.21348*#509]
#100=[#102+0.44818*#101-0.44818*#102]
G01 X11.5790 Y7.7953Z[#100+-0.1306]
#102=[#508+0.21217*#501-0.21217*#508]
#101=[#509+0.21217*#502-0.21217*#509]
#100=[#102+0.47579*#101-0.47579*#102]
G01 X11.7800 Y7.8064Z[#100+-0.1306]
#102=[#508+0.21348*#501-0.21348*#508]
#101=[#509+0.21348*#502-0.21348*#509]
#100=[#102+0.50339*#101-0.50339*#102]
G01 X11.9810 Y7.7953Z[#100+-0.1306]
#102=[#508+0.21376*#501-0.21376*#508]
#101=[#509+0.21376*#502-0.21376*#509]
#100=[#102+0.50594*#101-0.50594*#102]
G01 X11.9996 Y7.7929Z[#100+-0.1306]
#102=[#508+0.21729*#501-0.21729*#508]
#101=[#509+0.21729*#502-0.21729*#509]
#100=[#102+0.53024*#101-0.53024*#102]
G01 X12.1765 Y7.7629Z[#100+-0.1306]
#102=[#508+0.21800*#501-0.21800*#508]
#101=[#509+0.21800*#502-0.21800*#509]
#100=[#102+0.53386*#101-0.53386*#102]
G01 X12.2029 Y7.7569Z[#100+-0.1306]
#102=[#508+0.22385*#501-0.22385*#508]
#101=[#509+0.22385*#502-0.22385*#509]
#100=[#102+0.55754*#101-0.55754*#102]
G01 X12.3753 Y7.7072Z[#100+-0.1306]
#102=[#508+0.22478*#501-0.22478*#508]
#101=[#509+0.22478*#502-0.22478*#509]
#100=[#102+0.56067*#101-0.56067*#102]
G01 X12.3981 Y7.6993Z[#100+-0.1306]
#102=[#508+0.23298*#501-0.23298*#508]
#101=[#509+0.23298*#502-0.23298*#509]
#100=[#102+0.58381*#101-0.58381*#102]
G01 X12.5666 Y7.6296Z[#100+-0.1306]
#102=[#508+0.23437*#501-0.23437*#508]
#101=[#509+0.23437*#502-0.23437*#509]
#100=[#102+0.58716*#101-0.58716*#102]
G01 X12.5910 Y7.6178Z[#100+-0.1306]
#102=[#508+0.24028*#501-0.24028*#508]
#101=[#509+0.24028*#502-0.24028*#509]
#100=[#102+0.59964*#101-0.59964*#102]
G01 X12.6819 Y7.5676Z[#100+-0.1306]
#102=[#508+0.23623*#501-0.23623*#508]
#101=[#509+0.23623*#502-0.23623*#509]
#100=[#102+0.60437*#101-0.60437*#102]
G01 X12.7163 Y7.6020Z[#100+-0.1306]
#102=[#508+0.20852*#501-0.20852*#508]
#101=[#509+0.20852*#502-0.20852*#509]
#100=[#102+0.52253*#101-0.52253*#102]
G01 X12.1204 Y7.8374Z[#100+-0.1306]
#102=[#508+0.20997*#501-0.20997*#508]
#101=[#509+0.20997*#502-0.20997*#509]
#100=[#102+0.42014*#101-0.42014*#102]
G01 X11.3748 Y7.8251Z[#100+-0.1306]
#102=[#508+0.23597*#501-0.23597*#508]
#101=[#509+0.23597*#502-0.23597*#509]
#100=[#102+0.34690*#101-0.34690*#102]
G01 X10.8415 Y7.6042Z[#100+-0.1306]
#102=[#508+0.24028*#501-0.24028*#508]
#101=[#509+0.24028*#502-0.24028*#509]
#100=[#102+0.35193*#101-0.35193*#102]
G01 X10.8781 Y7.5676Z[#100+-0.1306]
G00 Z2.0000
G00 X13.1858 Y6.8913
G01 F350.00
#102=[#508+0.31989*#501-0.31989*#508]
#101=[#509+0.31989*#502-0.31989*#509]
#100=[#102+0.66884*#101-0.66884*#102]
G01 Z[#100+-0.1306]
#102=[#508+0.31989*#501-0.31989*#508]
#101=[#509+0.31989*#502-0.31989*#509]
#100=[#102+0.66884*#101-0.66884*#102]
G01 F400.00
#102=[#508+0.32358*#501-0.32358*#508]
#101=[#509+0.32358*#502-0.32358*#509]
#100=[#102+0.67184*#101-0.67184*#102]
G01 X13.2076 Y6.8600Z[#100+-0.1306]
#102=[#508+0.34238*#501-0.34238*#508]
#101=[#509+0.34238*#502-0.34238*#509]
#100=[#102+0.68396*#101-0.68396*#102]
G01 X13.2959 Y6.7003Z[#100+-0.1306]
#102=[#508+0.34339*#501-0.34339*#508]
#101=[#509+0.34339*#502-0.34339*#509]
#100=[#102+0.68454*#101-0.68454*#102]
G01 X13.3001 Y6.6917Z[#100+-0.1306]
#102=[#508+0.36289*#501-0.36289*#508]
#101=[#509+0.36289*#502-0.36289*#509]
#100=[#102+0.69396*#101-0.69396*#102]
G01 X13.3687 Y6.5260Z[#100+-0.1306]
#102=[#508+0.36395*#501-0.36395*#508]
#101=[#509+0.36395*#502-0.36395*#509]
#100=[#102+0.69440*#101-0.69440*#102]
G01 X13.3719 Y6.5170Z[#100+-0.1306]
#102=[#508+0.38439*#501-0.38439*#508]
#101=[#509+0.38439*#502-0.38439*#509]
#100=[#102+0.70127*#101-0.70127*#102]
G01 X13.4219 Y6.3434Z[#100+-0.1306]
#102=[#508+0.40616*#501-0.40616*#508]
#101=[#509+0.40616*#502-0.40616*#509]
#100=[#102+0.70563*#101-0.70563*#102]
G01 X13.4537 Y6.1584Z[#100+-0.1306]
#102=[#508+0.40728*#501-0.40728*#508]
#101=[#509+0.40728*#502-0.40728*#509]
#100=[#102+0.70579*#101-0.70579*#102]
G01 X13.4548 Y6.1489Z[#100+-0.1306]
#102=[#508+0.42893*#501-0.42893*#508]
#101=[#509+0.42893*#502-0.42893*#509]
#100=[#102+0.70719*#101-0.70719*#102]
G01 X13.4650 Y5.9650Z[#100+-0.1306]
#102=[#508+0.45058*#501-0.45058*#508]
#101=[#509+0.45058*#502-0.45058*#509]
#100=[#102+0.70579*#101-0.70579*#102]
G01 X13.4548 Y5.7811Z[#100+-0.1306]
#102=[#508+0.45170*#501-0.45170*#508]
#101=[#509+0.45170*#502-0.45170*#509]
#100=[#102+0.70563*#101-0.70563*#102]
G01 X13.4537 Y5.7716Z[#100+-0.1306]
#102=[#508+0.47347*#501-0.47347*#508]
#101=[#509+0.47347*#502-0.47347*#509]
#100=[#102+0.70127*#101-0.70127*#102]
G01 X13.4219 Y5.5866Z[#100+-0.1306]
#102=[#508+0.49391*#501-0.49391*#508]
#101=[#509+0.49391*#502-0.49391*#509]
#100=[#102+0.69440*#101-0.69440*#102]
G01 X13.3719 Y5.4130Z[#100+-0.1306]
#102=[#508+0.49497*#501-0.49497*#508]
#101=[#509+0.49497*#502-0.49497*#509]
#100=[#102+0.69396*#101-0.69396*#102]
G01 X13.3687 Y5.4040Z[#100+-0.1306]
#102=[#508+0.51447*#501-0.51447*#508]
#101=[#509+0.51447*#502-0.51447*#509]
#100=[#102+0.68454*#101-0.68454*#102]
G01 X13.3001 Y5.2383Z[#100+-0.1306]
#102=[#508+0.51549*#501-0.51549*#508]
#101=[#509+0.51549*#502-0.51549*#509]
#100=[#102+0.68396*#101-0.68396*#102]
G01 X13.2959 Y5.2297Z[#100+-0.1306]
#102=[#508+0.53429*#501-0.53429*#508]
#101=[#509+0.53429*#502-0.53429*#509]
#100=[#102+0.67184*#101-0.67184*#102]
G01 X13.2076 Y5.0700Z[#100+-0.1306]
#102=[#508+0.53797*#501-0.53797*#508]
#101=[#509+0.53797*#502-0.53797*#509]
#100=[#102+0.66884*#101-0.66884*#102]
G01 X13.1858 Y5.0387Z[#100+-0.1306]
#102=[#508+0.56389*#501-0.56389*#508]
#101=[#509+0.56389*#502-0.56389*#509]
#100=[#102+0.69908*#101-0.69908*#102]
G01 X13.4060 Y4.8185Z[#100+-0.1306]
#102=[#508+0.55644*#501-0.55644*#508]
#101=[#509+0.55644*#502-0.55644*#509]
#100=[#102+0.71571*#101-0.71571*#102]
G01 X13.5271 Y4.8818Z[#100+-0.1306]
#102=[#508+0.47237*#501-0.47237*#508]
#101=[#509+0.47237*#502-0.47237*#509]
#100=[#102+0.75447*#101-0.75447*#102]
G01 X13.8093 Y5.5960Z[#100+-0.1306]
#102=[#508+0.37743*#501-0.37743*#508]
#101=[#509+0.37743*#502-0.37743*#509]
#100=[#102+0.75264*#101-0.75264*#102]
G01 X13.7960 Y6.4025Z[#100+-0.1306]
#102=[#508+0.30153*#501-0.30153*#508]
#101=[#509+0.30153*#502-0.30153*#509]
#100=[#102+0.71596*#101-0.71596*#102]
G01 X13.5289 Y7.0473Z[#100+-0.1306]
#102=[#508+0.29397*#501-0.29397*#508]
#101=[#509+0.29397*#502-0.29397*#509]
#100=[#102+0.69908*#101-0.69908*#102]
G01 X13.4060 Y7.1115Z[#100+-0.1306]
#102=[#508+0.31989*#501-0.31989*#508]
#101=[#509+0.31989*#502-0.31989*#509]
#100=[#102+0.66884*#101-0.66884*#102]
G01 X13.1858 Y6.8913Z[#100+-0.1306]
#102=[#508+0.32358*#501-0.32358*#508]
#101=[#509+0.32358*#502-0.32358*#509]
#100=[#102+0.67184*#101-0.67184*#102]
G01 X13.2076 Y6.8600Z[#100+-0.1306]
G00 Z2.0000
G00 X13.3826 Y6.8669
G01 F350.00
#102=[#508+0.32276*#501-0.32276*#508]
#101=[#509+0.32276*#502-0.32276*#509]
#100=[#102+0.69587*#101-0.69587*#102]
G01 Z[#100+-0.1306]
#102=[#508+0.32276*#501-0.32276*#508]
#101=[#509+0.32276*#502-0.32276*#509]
#100=[#102+0.69587*#101-0.69587*#102]
G01 F400.00
#102=[#508+0.33346*#501-0.33346*#508]
#101=[#509+0.33346*#502-0.33346*#509]
#100=[#102+0.70276*#101-0.70276*#102]
G01 X13.4328 Y6.7760Z[#100+-0.1306]
#102=[#508+0.33634*#501-0.33634*#508]
#101=[#509+0.33634*#502-0.33634*#509]
#100=[#102+0.70438*#101-0.70438*#102]
G01 X13.4446 Y6.7516Z[#100+-0.1306]
#102=[#508+0.35617*#501-0.35617*#508]
#101=[#509+0.35617*#502-0.35617*#509]
#100=[#102+0.71396*#101-0.71396*#102]
G01 X13.5143 Y6.5831Z[#100+-0.1306]
#102=[#508+0.35886*#501-0.35886*#508]
#101=[#509+0.35886*#502-0.35886*#509]
#100=[#102+0.71504*#101-0.71504*#102]
G01 X13.5222 Y6.5603Z[#100+-0.1306]
#102=[#508+0.37955*#501-0.37955*#508]
#101=[#509+0.37955*#502-0.37955*#509]
#100=[#102+0.72199*#101-0.72199*#102]
G01 X13.5728 Y6.3845Z[#100+-0.1306]
#102=[#508+0.38226*#501-0.38226*#508]
#101=[#509+0.38226*#502-0.38226*#509]
#100=[#102+0.72269*#101-0.72269*#102]
G01 X13.5779 Y6.3615Z[#100+-0.1306]
#102=[#508+0.40308*#501-0.40308*#508]
#101=[#509+0.40308*#502-0.40308*#509]
#100=[#102+0.72681*#101-0.72681*#102]
G01 X13.6079 Y6.1846Z[#100+-0.1306]
#102=[#508+0.40527*#501-0.40527*#508]
#101=[#509+0.40527*#502-0.40527*#509]
#100=[#102+0.72714*#101-0.72714*#102]
G01 X13.6103 Y6.1660Z[#100+-0.1306]
#102=[#508+0.42893*#501-0.42893*#508]
#101=[#509+0.42893*#502-0.42893*#509]
#100=[#102+0.72866*#101-0.72866*#102]
G01 X13.6214 Y5.9650Z[#100+-0.1306]
#102=[#508+0.45259*#501-0.45259*#508]
#101=[#509+0.45259*#502-0.45259*#509]
#100=[#102+0.72714*#101-0.72714*#102]
G01 X13.6103 Y5.7640Z[#100+-0.1306]
#102=[#508+0.45478*#501-0.45478*#508]
#101=[#509+0.45478*#502-0.45478*#509]
#100=[#102+0.72681*#101-0.72681*#102]
G01 X13.6079 Y5.7454Z[#100+-0.1306]
#102=[#508+0.47560*#501-0.47560*#508]
#101=[#509+0.47560*#502-0.47560*#509]
#100=[#102+0.72269*#101-0.72269*#102]
G01 X13.5779 Y5.5685Z[#100+-0.1306]
#102=[#508+0.47871*#501-0.47871*#508]
#101=[#509+0.47871*#502-0.47871*#509]
#100=[#102+0.72187*#101-0.72187*#102]
G01 X13.5719 Y5.5421Z[#100+-0.1306]
#102=[#508+0.49901*#501-0.49901*#508]
#101=[#509+0.49901*#502-0.49901*#509]
#100=[#102+0.71504*#101-0.71504*#102]
G01 X13.5222 Y5.3697Z[#100+-0.1306]
#102=[#508+0.50169*#501-0.50169*#508]
#101=[#509+0.50169*#502-0.50169*#509]
#100=[#102+0.71396*#101-0.71396*#102]
G01 X13.5143 Y5.3469Z[#100+-0.1306]
#102=[#508+0.52153*#501-0.52153*#508]
#101=[#509+0.52153*#502-0.52153*#509]
#100=[#102+0.70438*#101-0.70438*#102]
G01 X13.4446 Y5.1784Z[#100+-0.1306]
#102=[#508+0.52440*#501-0.52440*#508]
#101=[#509+0.52440*#502-0.52440*#509]
#100=[#102+0.70276*#101-0.70276*#102]
G01 X13.4328 Y5.1540Z[#100+-0.1306]
#102=[#508+0.53510*#501-0.53510*#508]
#101=[#509+0.53510*#502-0.53510*#509]
#100=[#102+0.69587*#101-0.69587*#102]
G01 X13.3826 Y5.0631Z[#100+-0.1306]
#102=[#508+0.53915*#501-0.53915*#508]
#101=[#509+0.53915*#502-0.53915*#509]
#100=[#102+0.70059*#101-0.70059*#102]
G01 X13.4170 Y5.0287Z[#100+-0.1306]
#102=[#508+0.46900*#501-0.46900*#508]
#101=[#509+0.46900*#502-0.46900*#509]
#100=[#102+0.73292*#101-0.73292*#102]
G01 X13.6524 Y5.6246Z[#100+-0.1306]
#102=[#508+0.38123*#501-0.38123*#508]
#101=[#509+0.38123*#502-0.38123*#509]
#100=[#102+0.73123*#101-0.73123*#102]
G01 X13.6401 Y6.3702Z[#100+-0.1306]
#102=[#508+0.31846*#501-0.31846*#508]
#101=[#509+0.31846*#502-0.31846*#509]
#100=[#102+0.70090*#101-0.70090*#102]
G01 X13.4192 Y6.9035Z[#100+-0.1306]
#102=[#508+0.32276*#501-0.32276*#508]
#101=[#509+0.32276*#502-0.32276*#509]
#100=[#102+0.69587*#101-0.69587*#102]
G01 X13.3826 Y6.8669Z[#100+-0.1306]
#102=[#508+0.33346*#501-0.33346*#508]
#101=[#509+0.33346*#502-0.33346*#509]
#100=[#102+0.70276*#101-0.70276*#102]
G01 X13.4328 Y6.7760Z[#100+-0.1306]
G00 Z2.0000
G00 X10.8537 Y4.5592
G01 F350.00
#102=[#508+0.59441*#501-0.59441*#508]
#101=[#509+0.59441*#502-0.59441*#509]
#100=[#102+0.34858*#101-0.34858*#102]
G01 Z[#100+-0.1306]
#102=[#508+0.59441*#501-0.59441*#508]
#101=[#509+0.59441*#502-0.59441*#509]
#100=[#102+0.34858*#101-0.34858*#102]
G01 F400.00
#102=[#508+0.62033*#501-0.62033*#508]
#101=[#509+0.62033*#502-0.62033*#509]
#100=[#102+0.31834*#101-0.31834*#102]
G01 X10.6335 Y4.3390Z[#100+-0.1306]
#102=[#508+0.63459*#501-0.63459*#508]
#101=[#509+0.63459*#502-0.63459*#509]
#100=[#102+0.32703*#101-0.32703*#102]
G01 X10.6968 Y4.2179Z[#100+-0.1306]
#102=[#508+0.66781*#501-0.66781*#508]
#101=[#509+0.66781*#502-0.66781*#509]
