(This GCode script was designed to adjust the Z height of a CNC machine according)
(to the minute variations in the surface height in order to achieve a better result in the milling/etching process)
(This script is the output of AutoLevellerAE, 0.9.5u2 Changeset: ...2d0387 @ http://autoleveller.co.uk)
(Author: James Hawthorne PhD. File creation date: 10-02-2019 20:54)
(This program and any of its output is licensed under GPLv2 and as such...)
(AutoLevellerAE comes with ABSOLUTELY NO WARRANTY; for details, see sections 11 and 12 of the GPLv2 @ http://www.gnu.org/licenses/old-licenses/gpl-2.0.html)

(The following is a checklist which can be used before the probe routine starts)
(The checklist may not be entirely correct given your machine, therefore you should make your own adaptations as appropriate)
(1. Make sure wires/clips are attached and the probe is working correctly)
(Test probe connections within control software before starting)
(2. Home all axis)
(3. Load GCode file that contains the probe routine into your software controller)
(4. Jog tool tip close to surface and touch off Z)
(5. Jog Z up a fraction to make sure surface is cleared)
(6. Jog to and touch off X and Y at the desired bottom left corner of the probe area)
(Note: The first probe will touch off Z to 0.0 when it first touches to the surface,)
(all other probe values are relative to this first point)

G90 G21 S20000 G17

M0 (Attach probe wires and clips that need attaching)
(Initialize probe routine)
G0 Z25 (Move clear of the board first)
G1 X1.0337 Y1.1055 F600 (Move to bottom left corner)
G0 Z1 (Quick move to probe clearance height)
G38.2 Z-1 F100 (Probe to a maximum of the specified probe height at the specified feed rate)
G92 Z0 (Touch off Z to 0 once contact is made)
G0 Z1 (Move Z to above the contact point)
G38.2 Z-1 F50 (Repeat at a more accurate slower rate)
G92 Z0
G0 Z1

G0 Z1
G1 X1.0337 Y1.1055 F600
G38.2 Z-1 F100
#500=#5422
G0 Z1
G1 X8.31545 Y1.1055 F600
G38.2 Z-1 F100
#501=#5422
G0 Z1
G1 X15.5972 Y1.1055 F600
G38.2 Z-1 F100
#502=#5422
G0 Z1
G1 X22.87895 Y1.1055 F600
G38.2 Z-1 F100
#503=#5422
G0 Z1
G1 X30.1607 Y1.1055 F600
G38.2 Z-1 F100
#504=#5422
G0 Z1
G1 X37.44245 Y1.1055 F600
G38.2 Z-1 F100
#505=#5422
G0 Z1
G1 X44.7242 Y1.1055 F600
G38.2 Z-1 F100
#506=#5422
G0 Z1
G1 X44.7242 Y9.60268 F600
G38.2 Z-1 F100
#513=#5422
G0 Z1
G1 X37.44245 Y9.60268 F600
G38.2 Z-1 F100
#512=#5422
G0 Z1
G1 X30.1607 Y9.60268 F600
G38.2 Z-1 F100
#511=#5422
G0 Z1
G1 X22.87895 Y9.60268 F600
G38.2 Z-1 F100
#510=#5422
G0 Z1
G1 X15.5972 Y9.60268 F600
G38.2 Z-1 F100
#509=#5422
G0 Z1
G1 X8.31545 Y9.60268 F600
G38.2 Z-1 F100
#508=#5422
G0 Z1
G1 X1.0337 Y9.60268 F600
G38.2 Z-1 F100
#507=#5422
G0 Z1
G1 X1.0337 Y18.09986 F600
G38.2 Z-1 F100
#514=#5422
G0 Z1
G1 X8.31545 Y18.09986 F600
G38.2 Z-1 F100
#515=#5422
G0 Z1
G1 X15.5972 Y18.09986 F600
G38.2 Z-1 F100
#516=#5422
G0 Z1
G1 X22.87895 Y18.09986 F600
G38.2 Z-1 F100
#517=#5422
G0 Z1
G1 X30.1607 Y18.09986 F600
G38.2 Z-1 F100
#518=#5422
G0 Z1
G1 X37.44245 Y18.09986 F600
G38.2 Z-1 F100
#519=#5422
G0 Z1
G1 X44.7242 Y18.09986 F600
G38.2 Z-1 F100
#520=#5422
G0 Z1
G1 X44.7242 Y26.59704 F600
G38.2 Z-1 F100
#527=#5422
G0 Z1
G1 X37.44245 Y26.59704 F600
G38.2 Z-1 F100
#526=#5422
G0 Z1
G1 X30.1607 Y26.59704 F600
G38.2 Z-1 F100
#525=#5422
G0 Z1
G1 X22.87895 Y26.59704 F600
G38.2 Z-1 F100
#524=#5422
G0 Z1
G1 X15.5972 Y26.59704 F600
G38.2 Z-1 F100
#523=#5422
G0 Z1
G1 X8.31545 Y26.59704 F600
G38.2 Z-1 F100
#522=#5422
G0 Z1
G1 X1.0337 Y26.59704 F600
G38.2 Z-1 F100
#521=#5422
G0 Z1
G1 X1.0337 Y35.09422 F600
G38.2 Z-1 F100
#528=#5422
G0 Z1
G1 X8.31545 Y35.09422 F600
G38.2 Z-1 F100
#529=#5422
G0 Z1
G1 X15.5972 Y35.09422 F600
G38.2 Z-1 F100
#530=#5422
G0 Z1
G1 X22.87895 Y35.09422 F600
G38.2 Z-1 F100
#531=#5422
G0 Z1
G1 X30.1607 Y35.09422 F600
G38.2 Z-1 F100
#532=#5422
G0 Z1
G1 X37.44245 Y35.09422 F600
G38.2 Z-1 F100
#533=#5422
G0 Z1
G1 X44.7242 Y35.09422 F600
G38.2 Z-1 F100
#534=#5422
G0 Z1.00000

M0 (Detach any clips used for probing)

(G-CODE GENERATED BY FLATCAM v8.905 - www.flatcam.org - Version Date: 2019/01/29)

(Name: Rectifier-B.Cu.gbr_iso_cnc)
(Type: G-code from Geometry)
(Units: MM)

(Created on Sunday, 10 February 2019 at 20:53)

(TOOL DIAMETER: 0.17 mm)
(Feedrate: 400.0 mm/min)
(Feedrate_Z: 350.0 mm/min)
(Feedrate rapids 800.0 mm/min)

(Z_Cut: -0.1306 mm)
(Z_Move: 2.0 mm)
(Z Toolchange: 50.0 mm)
(X,Y Toolchange: 0.0000, 0.0000 mm)
(Z Start: 1.0 mm)
(Z End: 20.0 mm)
(Steps per circle: 64)
(Postprocessor Geometry: default)
(Spindle Speed: 18000 RPM)
G94 ( Millimeters per minute feed rate. )
G21 ( Units == Millimeters. )
G90 ( Absolute coordinates. )
G64 P0.01000 ( set maximum deviation from commanded toolpath )
G21
G90
G94
G21
G90
G94

G01 F400.00
G00 Z2.0000
G00 Z1.0000
M03 S18000
G00 X3.5182 Y1.6689
G01 F350.00
#102=[#507+0.93370*#500-0.93370*#507]
#101=[#508+0.93370*#501-0.93370*#508]
#100=[#102+0.34120*#101-0.34120*#102]
G01 Z[#100+-0.1306]
#102=[#507+0.93370*#500-0.93370*#507]
#101=[#508+0.93370*#501-0.93370*#508]
#100=[#102+0.34120*#101-0.34120*#102]
G01 F400.00
#102=[#507+0.93373*#500-0.93373*#507]
#101=[#508+0.93373*#501-0.93373*#508]
#100=[#102+0.67241*#101-0.67241*#102]
G01 X5.9300 Y1.6686Z[#100+-0.1306]
#102=[#507+0.93370*#500-0.93370*#507]
#101=[#508+0.93370*#501-0.93370*#508]
#100=[#102+0.67403*#101-0.67403*#102]
G01 X5.9418 Y1.6689Z[#100+-0.1306]
#102=[#507+0.93335*#500-0.93335*#507]
#101=[#508+0.93335*#501-0.93335*#508]
#100=[#102+0.67776*#101-0.67776*#102]
G01 X5.9690 Y1.6718Z[#100+-0.1306]
#102=[#507+0.93266*#500-0.93266*#507]
#101=[#508+0.93266*#501-0.93266*#508]
#100=[#102+0.68143*#101-0.68143*#102]
G01 X5.9957 Y1.6777Z[#100+-0.1306]
#102=[#507+0.93161*#500-0.93161*#507]
#101=[#508+0.93161*#501-0.93161*#508]
#100=[#102+0.68497*#101-0.68497*#102]
G01 X6.0215 Y1.6866Z[#100+-0.1306]
#102=[#507+0.93022*#500-0.93022*#507]
#101=[#508+0.93022*#501-0.93022*#508]
#100=[#102+0.68836*#101-0.68836*#102]
G01 X6.0462 Y1.6984Z[#100+-0.1306]
#102=[#507+0.92852*#500-0.92852*#507]
#101=[#508+0.92852*#501-0.92852*#508]
#100=[#102+0.69155*#101-0.69155*#102]
G01 X6.0694 Y1.7129Z[#100+-0.1306]
#102=[#507+0.92652*#500-0.92652*#507]
#101=[#508+0.92652*#501-0.92652*#508]
#100=[#102+0.69449*#101-0.69449*#102]
G01 X6.0908 Y1.7299Z[#100+-0.1306]
#102=[#507+0.92425*#500-0.92425*#507]
#101=[#508+0.92425*#501-0.92425*#508]
#100=[#102+0.69714*#101-0.69714*#102]
G01 X6.1101 Y1.7492Z[#100+-0.1306]
#102=[#507+0.92173*#500-0.92173*#507]
#101=[#508+0.92173*#501-0.92173*#508]
#100=[#102+0.69947*#101-0.69947*#102]
G01 X6.1271 Y1.7706Z[#100+-0.1306]
#102=[#507+0.91900*#500-0.91900*#507]
#101=[#508+0.91900*#501-0.91900*#508]
#100=[#102+0.70147*#101-0.70147*#102]
G01 X6.1416 Y1.7938Z[#100+-0.1306]
#102=[#507+0.91609*#500-0.91609*#507]
#101=[#508+0.91609*#501-0.91609*#508]
#100=[#102+0.70309*#101-0.70309*#102]
G01 X6.1534 Y1.8185Z[#100+-0.1306]
#102=[#507+0.91305*#500-0.91305*#507]
#101=[#508+0.91305*#501-0.91305*#508]
#100=[#102+0.70431*#101-0.70431*#102]
G01 X6.1623 Y1.8443Z[#100+-0.1306]
#102=[#507+0.90991*#500-0.90991*#507]
#101=[#508+0.90991*#501-0.90991*#508]
#100=[#102+0.70512*#101-0.70512*#102]
G01 X6.1682 Y1.8710Z[#100+-0.1306]
#102=[#507+0.90671*#500-0.90671*#507]
#101=[#508+0.90671*#501-0.90671*#508]
#100=[#102+0.70552*#101-0.70552*#102]
G01 X6.1711 Y1.8982Z[#100+-0.1306]
#102=[#507+0.90532*#500-0.90532*#507]
#101=[#508+0.90532*#501-0.90532*#508]
#100=[#102+0.70556*#101-0.70556*#102]
G01 X6.1714 Y1.9100Z[#100+-0.1306]
#102=[#507+0.85139*#500-0.85139*#507]
#101=[#508+0.85139*#501-0.85139*#508]
#100=[#102+0.70556*#101-0.70556*#102]
G01 X6.1714 Y2.3683Z[#100+-0.1306]
#102=[#507+0.85139*#500-0.85139*#507]
#101=[#508+0.85139*#501-0.85139*#508]
#100=[#102+0.76755*#101-0.76755*#102]
G01 X6.6228 Y2.3683Z[#100+-0.1306]
#102=[#501+0*#501-0*#501]
#101=[#502+0*#502-0*#502]
#100=[#102+0.00551*#101-0.00551*#102]
G01 X8.3556 Y0.6356Z[#100+-0.1306]
#102=[#501+0*#501-0*#501]
#101=[#502+0*#502-0*#502]
#100=[#102+0.01260*#101-0.01260*#102]
G01 X8.4072 Y0.5889Z[#100+-0.1306]
#102=[#501+0*#501-0*#501]
#101=[#502+0*#502-0*#502]
#100=[#102+0.01551*#101-0.01551*#102]
G01 X8.4284 Y0.5720Z[#100+-0.1306]
#102=[#501+0*#501-0*#501]
#101=[#502+0*#502-0*#502]
#100=[#102+0.02180*#101-0.02180*#102]
G01 X8.4742 Y0.5395Z[#100+-0.1306]
#102=[#501+0*#501-0*#501]
#101=[#502+0*#502-0*#502]
#100=[#102+0.02495*#101-0.02495*#102]
G01 X8.4971 Y0.5251Z[#100+-0.1306]
#102=[#501+0*#501-0*#501]
#101=[#502+0*#502-0*#502]
#100=[#102+0.03334*#101-0.03334*#102]
G01 X8.5582 Y0.4918Z[#100+-0.1306]
#102=[#501+0*#501-0*#501]
#101=[#502+0*#502-0*#502]
#100=[#102+0.04388*#101-0.04388*#102]
G01 X8.6350 Y0.4600Z[#100+-0.1306]
#102=[#501+0*#501-0*#501]
#101=[#502+0*#502-0*#502]
#100=[#102+0.05307*#101-0.05307*#102]
G01 X8.7019 Y0.4403Z[#100+-0.1306]
#102=[#501+0*#501-0*#501]
#101=[#502+0*#502-0*#502]
#100=[#102+0.05668*#101-0.05668*#102]
G01 X8.7282 Y0.4343Z[#100+-0.1306]
#102=[#501+0*#501-0*#501]
#101=[#502+0*#502-0*#502]
#100=[#102+0.06613*#101-0.06613*#102]
G01 X8.7970 Y0.4230Z[#100+-0.1306]
#102=[#501+0*#501-0*#501]
#101=[#502+0*#502-0*#502]
#100=[#102+0.07660*#101-0.07660*#102]
G01 X8.8732 Y0.4184Z[#100+-0.1306]
#102=[#501+0*#501-0*#501]
#101=[#502+0*#502-0*#502]
#100=[#102+0.76324*#101-0.76324*#102]
G01 X13.87320 Y0.41838Z[#100+-0.1306] ;segmented line. Max segment length set to 5
#102=[#502+0*#502-0*#502]
#101=[#503+0*#503-0*#503]
#100=[#102+0.44989*#101-0.44989*#102]
G01 X18.87320 Y0.41836Z[#100+-0.1306] ;segmented line. Max segment length set to 5
#102=[#503+0*#503-0*#503]
#101=[#504+0*#504-0*#504]
#100=[#102+0.13654*#101-0.13654*#102]
G01 X23.87320 Y0.41835Z[#100+-0.1306] ;segmented line. Max segment length set to 5
#102=[#503+0*#503-0*#503]
#101=[#504+0*#504-0*#504]
#100=[#102+0.82319*#101-0.82319*#102]
G01 X28.87320 Y0.41833Z[#100+-0.1306] ;segmented line. Max segment length set to 5
#102=[#504+0*#504-0*#504]
#101=[#505+0*#505-0*#505]
#100=[#102+0.50984*#101-0.50984*#102]
G01 X33.87320 Y0.41832Z[#100+-0.1306] ;segmented line. Max segment length set to 5
#102=[#505+0*#505-0*#505]
#101=[#506+0*#506-0*#506]
#100=[#102+0.19648*#101-0.19648*#102]
G01 X38.87320 Y0.41830Z[#100+-0.1306] ;segmented line. Max segment length set to 5
#102=[#505+0*#505-0*#505]
#101=[#506+0*#506-0*#506]
#100=[#102+0.23862*#101-0.23862*#102]
G01 X39.1800 Y0.4183Z[#100+-0.1306]
#102=[#505+0*#505-0*#505]
#101=[#506+0*#506-0*#506]
#100=[#102+0.25002*#101-0.25002*#102]
G01 X39.2630 Y0.4230Z[#100+-0.1306]
#102=[#505+0*#505-0*#505]
#101=[#506+0*#506-0*#506]
#100=[#102+0.26128*#101-0.26128*#102]
G01 X39.3450 Y0.4369Z[#100+-0.1306]
#102=[#505+0*#505-0*#505]
#101=[#506+0*#506-0*#506]
#100=[#102+0.27226*#101-0.27226*#102]
G01 X39.4250 Y0.4600Z[#100+-0.1306]
#102=[#505+0*#505-0*#505]
#101=[#506+0*#506-0*#506]
#100=[#102+0.28281*#101-0.28281*#102]
G01 X39.5018 Y0.4918Z[#100+-0.1306]
#102=[#505+0*#505-0*#505]
#101=[#506+0*#506-0*#506]
#100=[#102+0.29120*#101-0.29120*#102]
G01 X39.5629 Y0.5251Z[#100+-0.1306]
#102=[#505+0*#505-0*#505]
#101=[#506+0*#506-0*#506]
#100=[#102+0.29435*#101-0.29435*#102]
G01 X39.5858 Y0.5395Z[#100+-0.1306]
#102=[#505+0*#505-0*#505]
#101=[#506+0*#506-0*#506]
#100=[#102+0.30212*#101-0.30212*#102]
G01 X39.6424 Y0.5802Z[#100+-0.1306]
#102=[#505+0*#505-0*#505]
#101=[#506+0*#506-0*#506]
#100=[#102+0.30997*#101-0.30997*#102]
G01 X39.6996 Y0.6309Z[#100+-0.1306]
#102=[#512+0.84879*#505-0.84879*#512]
#101=[#513+0.84879*#506-0.84879*#513]
#100=[#102+0.55161*#101-0.55161*#102]
G01 X41.4591 Y2.3904Z[#100+-0.1306]
#102=[#512+0.84205*#505-0.84205*#512]
#101=[#513+0.84205*#506-0.84205*#513]
#100=[#102+0.55857*#101-0.55857*#102]
G01 X41.5098 Y2.4476Z[#100+-0.1306]
#102=[#512+0.83539*#505-0.83539*#512]
#101=[#513+0.83539*#506-0.83539*#513]
#100=[#102+0.56416*#101-0.56416*#102]
G01 X41.5505 Y2.5042Z[#100+-0.1306]
#102=[#512+0.83270*#505-0.83270*#512]
#101=[#513+0.83270*#506-0.83270*#513]
#100=[#102+0.56613*#101-0.56613*#102]
G01 X41.5649 Y2.5271Z[#100+-0.1306]
#102=[#512+0.82551*#505-0.82551*#512]
#101=[#513+0.82551*#506-0.82551*#513]
#100=[#102+0.57071*#101-0.57071*#102]
G01 X41.5982 Y2.5882Z[#100+-0.1306]
#102=[#512+0.81647*#505-0.81647*#512]
#101=[#513+0.81647*#506-0.81647*#513]
#100=[#102+0.57507*#101-0.57507*#102]
G01 X41.6300 Y2.6650Z[#100+-0.1306]
#102=[#512+0.80860*#505-0.80860*#512]
#101=[#513+0.80860*#506-0.80860*#513]
#100=[#102+0.57778*#101-0.57778*#102]
G01 X41.6497 Y2.7319Z[#100+-0.1306]
#102=[#512+0.80550*#505-0.80550*#512]
#101=[#513+0.80550*#506-0.80550*#513]
#100=[#102+0.57860*#101-0.57860*#102]
G01 X41.6557 Y2.7582Z[#100+-0.1306]
#102=[#512+0.79712*#505-0.79712*#512]
#101=[#513+0.79712*#506-0.79712*#513]
#100=[#102+0.58018*#101-0.58018*#102]
G01 X41.6672 Y2.8294Z[#100+-0.1306]
#102=[#512+0.79274*#505-0.79274*#512]
#101=[#513+0.79274*#506-0.79274*#513]
#100=[#102+0.90175*#101-0.90175*#102]
G01 X44.0088 Y2.8666Z[#100+-0.1306]
#102=[#512+0.79240*#505-0.79240*#512]
#101=[#513+0.79240*#506-0.79240*#513]
#100=[#102+0.90736*#101-0.90736*#102]
G01 X44.0496 Y2.8695Z[#100+-0.1306]
#102=[#512+0.79186*#505-0.79186*#512]
#101=[#513+0.79186*#506-0.79186*#513]
#100=[#102+0.91109*#101-0.91109*#102]
G01 X44.0768 Y2.8741Z[#100+-0.1306]
#102=[#512+0.79112*#505-0.79112*#512]
#101=[#513+0.79112*#506-0.79112*#513]
#100=[#102+0.91466*#101-0.91466*#102]
G01 X44.1028 Y2.8804Z[#100+-0.1306]
#102=[#512+0.79013*#505-0.79013*#512]
#101=[#513+0.79013*#506-0.79013*#513]
#100=[#102+0.91826*#101-0.91826*#102]
G01 X44.1290 Y2.8888Z[#100+-0.1306]
#102=[#512+0.78891*#505-0.78891*#512]
#101=[#513+0.78891*#506-0.78891*#513]
#100=[#102+0.92176*#101-0.92176*#102]
G01 X44.1545 Y2.8992Z[#100+-0.1306]
#102=[#512+0.78751*#505-0.78751*#512]
#101=[#513+0.78751*#506-0.78751*#513]
#100=[#102+0.92506*#101-0.92506*#102]
G01 X44.1785 Y2.9111Z[#100+-0.1306]
#102=[#512+0.78587*#505-0.78587*#512]
#101=[#513+0.78587*#506-0.78587*#513]
#100=[#102+0.92831*#101-0.92831*#102]
G01 X44.2022 Y2.9250Z[#100+-0.1306]
#102=[#512+0.78400*#505-0.78400*#512]
#101=[#513+0.78400*#506-0.78400*#513]
#100=[#102+0.93140*#101-0.93140*#102]
G01 X44.2247 Y2.9409Z[#100+-0.1306]
#102=[#512+0.78201*#505-0.78201*#512]
#101=[#513+0.78201*#506-0.78201*#513]
#100=[#102+0.93426*#101-0.93426*#102]
G01 X44.2455 Y2.9578Z[#100+-0.1306]
#102=[#512+0.77981*#505-0.77981*#512]
#101=[#513+0.77981*#506-0.77981*#513]
#100=[#102+0.93702*#101-0.93702*#102]
G01 X44.2656 Y2.9765Z[#100+-0.1306]
#102=[#512+0.77741*#505-0.77741*#512]
#101=[#513+0.77741*#506-0.77741*#513]
#100=[#102+0.93956*#101-0.93956*#102]
G01 X44.2841 Y2.9969Z[#100+-0.1306]
#102=[#512+0.77493*#505-0.77493*#512]
#101=[#513+0.77493*#506-0.77493*#513]
#100=[#102+0.94183*#101-0.94183*#102]
G01 X44.3006 Y3.0180Z[#100+-0.1306]
#102=[#512+0.77225*#505-0.77225*#512]
#101=[#513+0.77225*#506-0.77225*#513]
#100=[#102+0.94396*#101-0.94396*#102]
G01 X44.3161 Y3.0407Z[#100+-0.1306]
#102=[#512+0.76943*#505-0.76943*#512]
#101=[#513+0.76943*#506-0.76943*#513]
#100=[#102+0.94581*#101-0.94581*#102]
G01 X44.3296 Y3.0647Z[#100+-0.1306]
#102=[#512+0.76658*#505-0.76658*#512]
#101=[#513+0.76658*#506-0.76658*#513]
#100=[#102+0.94739*#101-0.94739*#102]
G01 X44.3411 Y3.0889Z[#100+-0.1306]
#102=[#512+0.76357*#505-0.76357*#512]
#101=[#513+0.76357*#506-0.76357*#513]
#100=[#102+0.94878*#101-0.94878*#102]
G01 X44.3512 Y3.1145Z[#100+-0.1306]
#102=[#512+0.75894*#505-0.75894*#512]
#101=[#513+0.75894*#506-0.75894*#513]
#100=[#102+0.95031*#101-0.95031*#102]
G01 X44.3624 Y3.1538Z[#100+-0.1306]
#102=[#512+0.75419*#505-0.75419*#512]
#101=[#513+0.75419*#506-0.75419*#513]
#100=[#102+0.95125*#101-0.95125*#102]
G01 X44.3692 Y3.1942Z[#100+-0.1306]
#102=[#512+0.74939*#505-0.74939*#512]
#101=[#513+0.74939*#506-0.74939*#513]
#100=[#102+0.95156*#101-0.95156*#102]
G01 X44.3715 Y3.2350Z[#100+-0.1306]
#102=[#512+0.62346*#505-0.62346*#512]
#101=[#513+0.62346*#506-0.62346*#513]
#100=[#102+0.95156*#101-0.95156*#102]
G01 X44.3715 Y4.3050Z[#100+-0.1306]
#102=[#512+0.62019*#505-0.62019*#512]
#101=[#513+0.62019*#506-0.62019*#513]
#100=[#102+0.95140*#101-0.95140*#102]
G01 X44.3703 Y4.3328Z[#100+-0.1306]
#102=[#512+0.61860*#505-0.61860*#512]
#101=[#513+0.61860*#506-0.61860*#513]
#100=[#102+0.95123*#101-0.95123*#102]
G01 X44.3691 Y4.3463Z[#100+-0.1306]
#102=[#512+0.61538*#505-0.61538*#512]
#101=[#513+0.61538*#506-0.61538*#513]
#100=[#102+0.95066*#101-0.95066*#102]
G01 X44.3649 Y4.3737Z[#100+-0.1306]
#102=[#512+0.61227*#505-0.61227*#512]
#101=[#513+0.61227*#506-0.61227*#513]
#100=[#102+0.94982*#101-0.94982*#102]
G01 X44.3588 Y4.4001Z[#100+-0.1306]
#102=[#512+0.60914*#505-0.60914*#512]
#101=[#513+0.60914*#506-0.60914*#513]
#100=[#102+0.94872*#101-0.94872*#102]
G01 X44.3508 Y4.4267Z[#100+-0.1306]
#102=[#512+0.60465*#505-0.60465*#512]
#101=[#513+0.60465*#506-0.60465*#513]
#100=[#102+0.94655*#101-0.94655*#102]
G01 X44.3350 Y4.4649Z[#100+-0.1306]
#102=[#512+0.60040*#505-0.60040*#512]
#101=[#513+0.60040*#506-0.60040*#513]
#100=[#102+0.94380*#101-0.94380*#102]
G01 X44.3150 Y4.5010Z[#100+-0.1306]
#102=[#512+0.59643*#505-0.59643*#512]
#101=[#513+0.59643*#506-0.59643*#513]
#100=[#102+0.94052*#101-0.94052*#102]
G01 X44.2911 Y4.5347Z[#100+-0.1306]
#102=[#512+0.59281*#505-0.59281*#512]
#101=[#513+0.59281*#506-0.59281*#513]
#100=[#102+0.93673*#101-0.93673*#102]
G01 X44.2635 Y4.5655Z[#100+-0.1306]
#102=[#512+0.59059*#505-0.59059*#512]
#101=[#513+0.59059*#506-0.59059*#513]
#100=[#102+0.93393*#101-0.93393*#102]
G01 X44.2431 Y4.5843Z[#100+-0.1306]
#102=[#512+0.58860*#505-0.58860*#512]
#101=[#513+0.58860*#506-0.58860*#513]
#100=[#102+0.93102*#101-0.93102*#102]
G01 X44.2219 Y4.6012Z[#100+-0.1306]
#102=[#512+0.58675*#505-0.58675*#512]
#101=[#513+0.58675*#506-0.58675*#513]
#100=[#102+0.92787*#101-0.92787*#102]
G01 X44.1990 Y4.6170Z[#100+-0.1306]
#102=[#512+0.58439*#505-0.58439*#512]
#101=[#513+0.58439*#506-0.58439*#513]
#100=[#102+0.92292*#101-0.92292*#102]
G01 X44.1629 Y4.6370Z[#100+-0.1306]
#102=[#512+0.58310*#505-0.58310*#512]
#101=[#513+0.58310*#506-0.58310*#513]
#100=[#102+0.91940*#101-0.91940*#102]
G01 X44.1373 Y4.6480Z[#100+-0.1306]
#102=[#512+0.58205*#505-0.58205*#512]
#101=[#513+0.58205*#506-0.58205*#513]
#100=[#102+0.91590*#101-0.91590*#102]
G01 X44.1118 Y4.6569Z[#100+-0.1306]
#102=[#512+0.58119*#505-0.58119*#512]
#101=[#513+0.58119*#506-0.58119*#513]
#100=[#102+0.91222*#101-0.91222*#102]
G01 X44.0850 Y4.6642Z[#100+-0.1306]
#102=[#512+0.58038*#505-0.58038*#512]
#101=[#513+0.58038*#506-0.58038*#513]
#100=[#102+0.90663*#101-0.90663*#102]
G01 X44.0443 Y4.6711Z[#100+-0.1306]
#102=[#512+0.58014*#505-0.58014*#512]
#101=[#513+0.58014*#506-0.58014*#513]
#100=[#102+0.90281*#101-0.90281*#102]
G01 X44.0165 Y4.6731Z[#100+-0.1306]
#102=[#512+0.58010*#505-0.58010*#512]
#101=[#513+0.58010*#506-0.58010*#513]
#100=[#102+0.71591*#101-0.71591*#102]
G01 X42.6555 Y4.6735Z[#100+-0.1306]
#102=[#512+0.57714*#505-0.57714*#512]
#101=[#513+0.57714*#506-0.57714*#513]
#100=[#102+0.71591*#101-0.71591*#102]
G01 X42.6555 Y4.6986Z[#100+-0.1306]
#102=[#512+0.57714*#505-0.57714*#512]
#101=[#513+0.57714*#506-0.57714*#513]
#100=[#102+0.91565*#101-0.91565*#102]
G01 X44.1100 Y4.6986Z[#100+-0.1306]
#102=[#512+0.57711*#505-0.57711*#512]
#101=[#513+0.57711*#506-0.57711*#513]
#100=[#102+0.91727*#101-0.91727*#102]
G01 X44.1218 Y4.6989Z[#100+-0.1306]
#102=[#512+0.57677*#505-0.57677*#512]
#101=[#513+0.57677*#506-0.57677*#513]
#100=[#102+0.92101*#101-0.92101*#102]
G01 X44.1490 Y4.7018Z[#100+-0.1306]
#102=[#512+0.57607*#505-0.57607*#512]
#101=[#513+0.57607*#506-0.57607*#513]
#100=[#102+0.92467*#101-0.92467*#102]
G01 X44.1757 Y4.7077Z[#100+-0.1306]
#102=[#512+0.57502*#505-0.57502*#512]
#101=[#513+0.57502*#506-0.57502*#513]
#100=[#102+0.92822*#101-0.92822*#102]
G01 X44.2015 Y4.7166Z[#100+-0.1306]
#102=[#512+0.57364*#505-0.57364*#512]
#101=[#513+0.57364*#506-0.57364*#513]
#100=[#102+0.93161*#101-0.93161*#102]
G01 X44.2262 Y4.7284Z[#100+-0.1306]
#102=[#512+0.57193*#505-0.57193*#512]
#101=[#513+0.57193*#506-0.57193*#513]
#100=[#102+0.93480*#101-0.93480*#102]
G01 X44.2494 Y4.7429Z[#100+-0.1306]
#102=[#512+0.56993*#505-0.56993*#512]
#101=[#513+0.56993*#506-0.56993*#513]
#100=[#102+0.93773*#101-0.93773*#102]
G01 X44.2708 Y4.7599Z[#100+-0.1306]
#102=[#512+0.56766*#505-0.56766*#512]
#101=[#513+0.56766*#506-0.56766*#513]
#100=[#102+0.94039*#101-0.94039*#102]
G01 X44.2901 Y4.7792Z[#100+-0.1306]
#102=[#512+0.56514*#505-0.56514*#512]
#101=[#513+0.56514*#506-0.56514*#513]
#100=[#102+0.94272*#101-0.94272*#102]
G01 X44.3071 Y4.8006Z[#100+-0.1306]
#102=[#512+0.56241*#505-0.56241*#512]
#101=[#513+0.56241*#506-0.56241*#513]
#100=[#102+0.94471*#101-0.94471*#102]
G01 X44.3216 Y4.8238Z[#100+-0.1306]
#102=[#512+0.55950*#505-0.55950*#512]
#101=[#513+0.55950*#506-0.55950*#513]
#100=[#102+0.94633*#101-0.94633*#102]
G01 X44.3334 Y4.8485Z[#100+-0.1306]
#102=[#512+0.55646*#505-0.55646*#512]
#101=[#513+0.55646*#506-0.55646*#513]
#100=[#102+0.94755*#101-0.94755*#102]
G01 X44.3423 Y4.8743Z[#100+-0.1306]
#102=[#512+0.55332*#505-0.55332*#512]
#101=[#513+0.55332*#506-0.55332*#513]
#100=[#102+0.94836*#101-0.94836*#102]
G01 X44.3482 Y4.9010Z[#100+-0.1306]
#102=[#512+0.55013*#505-0.55013*#512]
#101=[#513+0.55013*#506-0.55013*#513]
#100=[#102+0.94876*#101-0.94876*#102]
G01 X44.3511 Y4.9281Z[#100+-0.1306]
#102=[#512+0.54873*#505-0.54873*#512]
#101=[#513+0.54873*#506-0.54873*#513]
#100=[#102+0.94880*#101-0.94880*#102]
G01 X44.3514 Y4.9400Z[#100+-0.1306]
#102=[#519+0.96030*#512-0.96030*#519]
#101=[#520+0.96030*#513-0.96030*#520]
#100=[#102+0.94880*#101-0.94880*#102]
G01 X44.35140 Y9.94000Z[#100+-0.1306] ;segmented line. Max segment length set to 5
#102=[#519+0.91323*#512-0.91323*#519]
#101=[#520+0.91323*#513-0.91323*#520]
#100=[#102+0.94880*#101-0.94880*#102]
G01 X44.3514 Y10.3400Z[#100+-0.1306]
#102=[#519+0.91184*#512-0.91184*#519]
#101=[#520+0.91184*#513-0.91184*#520]
#100=[#102+0.94876*#101-0.94876*#102]
G01 X44.3511 Y10.3518Z[#100+-0.1306]
#102=[#519+0.90864*#512-0.90864*#519]
#101=[#520+0.90864*#513-0.90864*#520]
#100=[#102+0.94836*#101-0.94836*#102]
G01 X44.3482 Y10.3790Z[#100+-0.1306]
#102=[#519+0.90550*#512-0.90550*#519]
#101=[#520+0.90550*#513-0.90550*#520]
#100=[#102+0.94755*#101-0.94755*#102]
G01 X44.3423 Y10.4057Z[#100+-0.1306]
#102=[#519+0.90246*#512-0.90246*#519]
#101=[#520+0.90246*#513-0.90246*#520]
#100=[#102+0.94633*#101-0.94633*#102]
G01 X44.3334 Y10.4315Z[#100+-0.1306]
#102=[#519+0.89955*#512-0.89955*#519]
#101=[#520+0.89955*#513-0.89955*#520]
#100=[#102+0.94471*#101-0.94471*#102]
G01 X44.3216 Y10.4562Z[#100+-0.1306]
#102=[#519+0.89682*#512-0.89682*#519]
#101=[#520+0.89682*#513-0.89682*#520]
#100=[#102+0.94272*#101-0.94272*#102]
G01 X44.3071 Y10.4794Z[#100+-0.1306]
#102=[#519+0.89430*#512-0.89430*#519]
#101=[#520+0.89430*#513-0.89430*#520]
#100=[#102+0.94039*#101-0.94039*#102]
G01 X44.2901 Y10.5008Z[#100+-0.1306]
#102=[#519+0.89203*#512-0.89203*#519]
#101=[#520+0.89203*#513-0.89203*#520]
#100=[#102+0.93773*#101-0.93773*#102]
G01 X44.2708 Y10.5201Z[#100+-0.1306]
#102=[#519+0.89003*#512-0.89003*#519]
#101=[#520+0.89003*#513-0.89003*#520]
#100=[#102+0.93480*#101-0.93480*#102]
G01 X44.2494 Y10.5371Z[#100+-0.1306]
#102=[#519+0.88833*#512-0.88833*#519]
#101=[#520+0.88833*#513-0.88833*#520]
#100=[#102+0.93161*#101-0.93161*#102]
G01 X44.2262 Y10.5516Z[#100+-0.1306]
#102=[#519+0.88694*#512-0.88694*#519]
#101=[#520+0.88694*#513-0.88694*#520]
#100=[#102+0.92822*#101-0.92822*#102]
G01 X44.2015 Y10.5634Z[#100+-0.1306]
#102=[#519+0.88589*#512-0.88589*#519]
#101=[#520+0.88589*#513-0.88589*#520]
#100=[#102+0.92467*#101-0.92467*#102]
G01 X44.1757 Y10.5723Z[#100+-0.1306]
#102=[#519+0.88519*#512-0.88519*#519]
#101=[#520+0.88519*#513-0.88519*#520]
#100=[#102+0.92101*#101-0.92101*#102]
G01 X44.1490 Y10.5782Z[#100+-0.1306]
#102=[#519+0.88485*#512-0.88485*#519]
#101=[#520+0.88485*#513-0.88485*#520]
#100=[#102+0.91727*#101-0.91727*#102]
G01 X44.1218 Y10.5811Z[#100+-0.1306]
#102=[#519+0.88482*#512-0.88482*#519]
#101=[#520+0.88482*#513-0.88482*#520]
#100=[#102+0.91565*#101-0.91565*#102]
G01 X44.1100 Y10.5814Z[#100+-0.1306]
#102=[#519+0.88482*#512-0.88482*#519]
#101=[#520+0.88482*#513-0.88482*#520]
#100=[#102+0.71591*#101-0.71591*#102]
G01 X42.6555 Y10.5814Z[#100+-0.1306]
#102=[#519+0.88186*#512-0.88186*#519]
#101=[#520+0.88186*#513-0.88186*#520]
#100=[#102+0.71591*#101-0.71591*#102]
G01 X42.6555 Y10.6065Z[#100+-0.1306]
#102=[#519+0.88186*#512-0.88186*#519]
#101=[#520+0.88186*#513-0.88186*#520]
#100=[#102+0.90096*#101-0.90096*#102]
G01 X44.0030 Y10.6065Z[#100+-0.1306]
#102=[#519+0.88172*#512-0.88172*#519]
#101=[#520+0.88172*#513-0.88172*#520]
#100=[#102+0.90478*#101-0.90478*#102]
G01 X44.0308 Y10.6077Z[#100+-0.1306]
#102=[#519+0.88137*#512-0.88137*#519]
#101=[#520+0.88137*#513-0.88137*#520]
#100=[#102+0.90847*#101-0.90847*#102]
G01 X44.0577 Y10.6107Z[#100+-0.1306]
#102=[#519+0.88077*#512-0.88077*#519]
#101=[#520+0.88077*#513-0.88077*#520]
#100=[#102+0.91222*#101-0.91222*#102]
G01 X44.0850 Y10.6158Z[#100+-0.1306]
#102=[#519+0.87991*#512-0.87991*#519]
#101=[#520+0.87991*#513-0.87991*#520]
#100=[#102+0.91590*#101-0.91590*#102]
G01 X44.1118 Y10.6231Z[#100+-0.1306]
#102=[#519+0.87886*#512-0.87886*#519]
#101=[#520+0.87886*#513-0.87886*#520]
#100=[#102+0.91940*#101-0.91940*#102]
G01 X44.1373 Y10.6320Z[#100+-0.1306]
#102=[#519+0.87757*#512-0.87757*#519]
#101=[#520+0.87757*#513-0.87757*#520]
#100=[#102+0.92292*#101-0.92292*#102]
G01 X44.1629 Y10.6430Z[#100+-0.1306]
#102=[#519+0.87603*#512-0.87603*#519]
#101=[#520+0.87603*#513-0.87603*#520]
#100=[#102+0.92628*#101-0.92628*#102]
G01 X44.1874 Y10.6561Z[#100+-0.1306]
#102=[#519+0.87433*#512-0.87433*#519]
#101=[#520+0.87433*#513-0.87433*#520]
#100=[#102+0.92943*#101-0.92943*#102]
G01 X44.2103 Y10.6705Z[#100+-0.1306]
#102=[#519+0.87240*#512-0.87240*#519]
#101=[#520+0.87240*#513-0.87240*#520]
#100=[#102+0.93250*#101-0.93250*#102]
G01 X44.2327 Y10.6869Z[#100+-0.1306]
#102=[#519+0.87025*#512-0.87025*#519]
#101=[#520+0.87025*#513-0.87025*#520]
#100=[#102+0.93539*#101-0.93539*#102]
G01 X44.2537 Y10.7052Z[#100+-0.1306]
#102=[#519+0.86800*#512-0.86800*#519]
#101=[#520+0.86800*#513-0.86800*#520]
#100=[#102+0.93801*#101-0.93801*#102]
G01 X44.2728 Y10.7243Z[#100+-0.1306]
#102=[#519+0.86553*#512-0.86553*#519]
#101=[#520+0.86553*#513-0.86553*#520]
#100=[#102+0.94052*#101-0.94052*#102]
G01 X44.2911 Y10.7453Z[#100+-0.1306]
#102=[#519+0.86156*#512-0.86156*#519]
#101=[#520+0.86156*#513-0.86156*#520]
#100=[#102+0.94380*#101-0.94380*#102]
G01 X44.3150 Y10.7790Z[#100+-0.1306]
#102=[#519+0.85873*#512-0.85873*#519]
#101=[#520+0.85873*#513-0.85873*#520]
#100=[#102+0.94570*#101-0.94570*#102]
G01 X44.3288 Y10.8031Z[#100+-0.1306]
#102=[#519+0.85586*#512-0.85586*#519]
#101=[#520+0.85586*#513-0.85586*#520]
#100=[#102+0.94731*#101-0.94731*#102]
G01 X44.3405 Y10.8275Z[#100+-0.1306]
#102=[#519+0.85282*#512-0.85282*#519]
#101=[#520+0.85282*#513-0.85282*#520]
#100=[#102+0.94872*#101-0.94872*#102]
G01 X44.3508 Y10.8533Z[#100+-0.1306]
#102=[#519+0.84969*#512-0.84969*#519]
#101=[#520+0.84969*#513-0.84969*#520]
#100=[#102+0.94982*#101-0.94982*#102]
G01 X44.3588 Y10.8799Z[#100+-0.1306]
#102=[#519+0.84658*#512-0.84658*#519]
#101=[#520+0.84658*#513-0.84658*#520]
#100=[#102+0.95066*#101-0.95066*#102]
G01 X44.3649 Y10.9063Z[#100+-0.1306]
#102=[#519+0.84336*#512-0.84336*#519]
#101=[#520+0.84336*#513-0.84336*#520]
#100=[#102+0.95123*#101-0.95123*#102]
G01 X44.3691 Y10.9337Z[#100+-0.1306]
#102=[#519+0.83850*#512-0.83850*#519]
#101=[#520+0.83850*#513-0.83850*#520]
#100=[#102+0.95156*#101-0.95156*#102]
G01 X44.3715 Y10.9750Z[#100+-0.1306]
#102=[#519+0.25007*#512-0.25007*#519]
#101=[#520+0.25007*#513-0.25007*#520]
#100=[#102+0.95156*#101-0.95156*#102]
G01 X44.37150 Y15.97500Z[#100+-0.1306] ;segmented line. Max segment length set to 5
#102=[#519+0.12579*#512-0.12579*#519]
#101=[#520+0.12579*#513-0.12579*#520]
#100=[#102+0.95156*#101-0.95156*#102]
G01 X44.3715 Y17.0310Z[#100+-0.1306]
#102=[#519+0.12088*#512-0.12088*#519]
#101=[#520+0.12088*#513-0.12088*#520]
#100=[#102+0.95123*#101-0.95123*#102]
G01 X44.3691 Y17.0727Z[#100+-0.1306]
#102=[#519+0.11605*#512-0.11605*#519]
#101=[#520+0.11605*#513-0.11605*#520]
#100=[#102+0.95026*#101-0.95026*#102]
G01 X44.3620 Y17.1138Z[#100+-0.1306]
#102=[#519+0.11287*#512-0.11287*#519]
#101=[#520+0.11287*#513-0.11287*#520]
#100=[#102+0.94924*#101-0.94924*#102]
G01 X44.3546 Y17.1408Z[#100+-0.1306]
#102=[#519+0.10983*#512-0.10983*#519]
#101=[#520+0.10983*#513-0.10983*#520]
#100=[#102+0.94799*#101-0.94799*#102]
G01 X44.3455 Y17.1666Z[#100+-0.1306]
#102=[#519+0.10680*#512-0.10680*#519]
#101=[#520+0.10680*#513-0.10680*#520]
#100=[#102+0.94646*#101-0.94646*#102]
G01 X44.3343 Y17.1924Z[#100+-0.1306]
#102=[#519+0.10390*#512-0.10390*#519]
#101=[#520+0.10390*#513-0.10390*#520]
#100=[#102+0.94461*#101-0.94461*#102]
G01 X44.3209 Y17.2170Z[#100+-0.1306]
#102=[#519+0.10118*#512-0.10118*#519]
#101=[#520+0.10118*#513-0.10118*#520]
#100=[#102+0.94260*#101-0.94260*#102]
G01 X44.3062 Y17.2401Z[#100+-0.1306]
#102=[#519+0.09852*#512-0.09852*#519]
#101=[#520+0.09852*#513-0.09852*#520]
#100=[#102+0.94030*#101-0.94030*#102]
G01 X44.2895 Y17.2627Z[#100+-0.1306]
#102=[#519+0.09605*#512-0.09605*#519]
#101=[#520+0.09605*#513-0.09605*#520]
#100=[#102+0.93776*#101-0.93776*#102]
G01 X44.2710 Y17.2837Z[#100+-0.1306]
#102=[#519+0.09379*#512-0.09379*#519]
#101=[#520+0.09379*#513-0.09379*#520]
#100=[#102+0.93508*#101-0.93508*#102]
G01 X44.2515 Y17.3029Z[#100+-0.1306]
#102=[#519+0.09165*#512-0.09165*#519]
#101=[#520+0.09165*#513-0.09165*#520]
#100=[#102+0.93216*#101-0.93216*#102]
G01 X44.2302 Y17.3211Z[#100+-0.1306]
#102=[#519+0.08972*#512-0.08972*#519]
#101=[#520+0.08972*#513-0.08972*#520]
#100=[#102+0.92901*#101-0.92901*#102]
G01 X44.2073 Y17.3375Z[#100+-0.1306]
#102=[#519+0.08804*#512-0.08804*#519]
#101=[#520+0.08804*#513-0.08804*#520]
#100=[#102+0.92581*#101-0.92581*#102]
G01 X44.1840 Y17.3518Z[#100+-0.1306]
#102=[#519+0.08652*#512-0.08652*#519]
#101=[#520+0.08652*#513-0.08652*#520]
#100=[#102+0.92241*#101-0.92241*#102]
G01 X44.1592 Y17.3647Z[#100+-0.1306]
#102=[#519+0.08468*#512-0.08468*#519]
#101=[#520+0.08468*#513-0.08468*#520]
#100=[#102+0.91708*#101-0.91708*#102]
G01 X44.1204 Y17.3803Z[#100+-0.1306]
#102=[#519+0.08376*#512-0.08376*#519]
#101=[#520+0.08376*#513-0.08376*#520]
#100=[#102+0.91339*#101-0.91339*#102]
G01 X44.0935 Y17.3881Z[#100+-0.1306]
#102=[#519+0.08309*#512-0.08309*#519]
#101=[#520+0.08309*#513-0.08309*#520]
#100=[#102+0.90971*#101-0.90971*#102]
G01 X44.0667 Y17.3938Z[#100+-0.1306]
#102=[#519+0.08263*#512-0.08263*#519]
#101=[#520+0.08263*#513-0.08263*#520]
#100=[#102+0.90589*#101-0.90589*#102]
G01 X44.0389 Y17.3977Z[#100+-0.1306]
#102=[#519+0.08243*#512-0.08243*#519]
#101=[#520+0.08243*#513-0.08243*#520]
#100=[#102+0.90016*#101-0.90016*#102]
G01 X43.9972 Y17.3994Z[#100+-0.1306]
#102=[#519+0.08707*#512-0.08707*#519]
#101=[#520+0.08707*#513-0.08707*#520]
#100=[#102+0.55332*#101-0.55332*#102]
G01 X41.4716 Y17.3600Z[#100+-0.1306]
#102=[#526+0.96824*#519-0.96824*#526]
#101=[#527+0.96824*#520-0.96824*#527]
#100=[#102+0.55332*#101-0.55332*#102]
G01 X41.4716 Y18.3697Z[#100+-0.1306]
#102=[#526+0.96383*#519-0.96383*#526]
#101=[#527+0.96383*#520-0.96383*#527]
#100=[#102+0.56876*#101-0.56876*#102]
G01 X41.5840 Y18.4072Z[#100+-0.1306]
#102=[#526+0.97581*#519-0.97581*#526]
#101=[#527+0.97581*#520-0.97581*#527]
#100=[#102+0.58131*#101-0.58131*#102]
G01 X41.6754 Y18.3054Z[#100+-0.1306]
#102=[#526+0.98790*#519-0.98790*#526]
#101=[#527+0.98790*#520-0.98790*#527]
#100=[#102+0.59702*#101-0.59702*#102]
G01 X41.7898 Y18.2027Z[#100+-0.1306]
#102=[#526+0.98989*#519-0.98989*#526]
#101=[#527+0.98989*#520-0.98989*#527]
#100=[#102+0.59992*#101-0.59992*#102]
G01 X41.8109 Y18.1858Z[#100+-0.1306]
#102=[#526+0.99943*#519-0.99943*#526]
#101=[#527+0.99943*#520-0.99943*#527]
#100=[#102+0.61563*#101-0.61563*#102]
G01 X41.9253 Y18.1047Z[#100+-0.1306]
#102=[#519+0.00113*#512-0.00113*#519]
#101=[#520+0.00113*#513-0.00113*#520]
#100=[#102+0.61877*#101-0.61877*#102]
G01 X41.9482 Y18.0903Z[#100+-0.1306]
#102=[#519+0.00983*#512-0.00983*#519]
#101=[#520+0.00983*#513-0.00983*#520]
#100=[#102+0.63727*#101-0.63727*#102]
G01 X42.0829 Y18.0163Z[#100+-0.1306]
#102=[#519+0.01680*#512-0.01680*#519]
#101=[#520+0.01680*#513-0.01680*#520]
#100=[#102+0.65676*#101-0.65676*#102]
G01 X42.2248 Y17.9571Z[#100+-0.1306]
#102=[#519+0.01785*#512-0.01785*#519]
#101=[#520+0.01785*#513-0.01785*#520]
#100=[#102+0.66026*#101-0.66026*#102]
G01 X42.2503 Y17.9482Z[#100+-0.1306]
#102=[#519+0.02241*#512-0.02241*#519]
#101=[#520+0.02241*#513-0.02241*#520]
#100=[#102+0.67876*#101-0.67876*#102]
G01 X42.3850 Y17.9094Z[#100+-0.1306]
#102=[#519+0.02312*#512-0.02312*#519]
#101=[#520+0.02312*#513-0.02312*#520]
#100=[#102+0.68238*#101-0.68238*#102]
G01 X42.4114 Y17.9034Z[#100+-0.1306]
#102=[#519+0.02611*#512-0.02611*#519]
#101=[#520+0.02611*#513-0.02611*#520]
#100=[#102+0.70320*#101-0.70320*#102]
G01 X42.5630 Y17.8780Z[#100+-0.1306]
#102=[#519+0.02722*#512-0.02722*#519]
#101=[#520+0.02722*#513-0.02722*#520]
#100=[#102+0.72614*#101-0.72614*#102]
G01 X42.7300 Y17.8686Z[#100+-0.1306]
#102=[#519+0.02611*#512-0.02611*#519]
#101=[#520+0.02611*#513-0.02611*#520]
#100=[#102+0.74907*#101-0.74907*#102]
G01 X42.8970 Y17.8780Z[#100+-0.1306]
#102=[#519+0.02281*#512-0.02281*#519]
#101=[#520+0.02281*#513-0.02281*#520]
#100=[#102+0.77172*#101-0.77172*#102]
G01 X43.0619 Y17.9060Z[#100+-0.1306]
#102=[#519+0.01737*#512-0.01737*#519]
#101=[#520+0.01737*#513-0.01737*#520]
#100=[#102+0.79379*#101-0.79379*#102]
G01 X43.2226 Y17.9523Z[#100+-0.1306]
#102=[#519+0.01048*#512-0.01048*#519]
#101=[#520+0.01048*#513-0.01048*#520]
#100=[#102+0.81330*#101-0.81330*#102]
G01 X43.3647 Y18.0108Z[#100+-0.1306]
#102=[#519+0.00910*#512-0.00910*#519]
#101=[#520+0.00910*#513-0.00910*#520]
#100=[#102+0.81665*#101-0.81665*#102]
G01 X43.3891 Y18.0225Z[#100+-0.1306]
#102=[#519+0.00113*#512-0.00113*#519]
#101=[#520+0.00113*#513-0.00113*#520]
#100=[#102+0.83350*#101-0.83350*#102]
G01 X43.5118 Y18.0903Z[#100+-0.1306]
#102=[#526+0.99943*#519-0.99943*#526]
#101=[#527+0.99943*#520-0.99943*#527]
#100=[#102+0.83665*#101-0.83665*#102]
G01 X43.5347 Y18.1047Z[#100+-0.1306]
#102=[#526+0.98892*#519-0.98892*#526]
#101=[#527+0.98892*#520-0.98892*#527]
#100=[#102+0.85384*#101-0.85384*#102]
G01 X43.6599 Y18.1940Z[#100+-0.1306]
#102=[#526+0.97581*#519-0.97581*#526]
#101=[#527+0.97581*#520-0.97581*#527]
#100=[#102+0.87097*#101-0.87097*#102]
G01 X43.7846 Y18.3054Z[#100+-0.1306]
#102=[#526+0.96235*#519-0.96235*#526]
#101=[#527+0.96235*#520-0.96235*#527]
#100=[#102+0.88507*#101-0.88507*#102]
G01 X43.8873 Y18.4198Z[#100+-0.1306]
#102=[#526+0.95986*#519-0.95986*#526]
#101=[#527+0.95986*#520-0.95986*#527]
#100=[#102+0.88739*#101-0.88739*#102]
G01 X43.9042 Y18.4409Z[#100+-0.1306]
#102=[#526+0.94508*#519-0.94508*#526]
#101=[#527+0.94508*#520-0.94508*#527]
#100=[#102+0.89956*#101-0.89956*#102]
G01 X43.9928 Y18.5665Z[#100+-0.1306]
#102=[#526+0.92927*#519-0.92927*#526]
#101=[#527+0.92927*#520-0.92927*#527]
#100=[#102+0.90982*#101-0.90982*#102]
G01 X44.0675 Y18.7009Z[#100+-0.1306]
#102=[#526+0.92639*#519-0.92639*#526]
#101=[#527+0.92639*#520-0.92639*#527]
#100=[#102+0.91142*#101-0.91142*#102]
G01 X44.0792 Y18.7253Z[#100+-0.1306]
#102=[#526+0.90967*#519-0.90967*#526]
#101=[#527+0.90967*#520-0.90967*#527]
#100=[#102+0.91946*#101-0.91946*#102]
G01 X44.1377 Y18.8674Z[#100+-0.1306]
#102=[#526+0.89230*#519-0.89230*#526]
#101=[#527+0.89230*#520-0.89230*#527]
#100=[#102+0.92535*#101-0.92535*#102]
G01 X44.1806 Y19.0150Z[#100+-0.1306]
#102=[#526+0.88919*#519-0.88919*#526]
#101=[#527+0.88919*#520-0.88919*#527]
#100=[#102+0.92617*#101-0.92617*#102]
G01 X44.1866 Y19.0414Z[#100+-0.1306]
#102=[#526+0.87135*#519-0.87135*#526]
#101=[#527+0.87135*#520-0.87135*#527]
#100=[#102+0.92966*#101-0.92966*#102]
G01 X44.2120 Y19.1930Z[#100+-0.1306]
#102=[#526+0.85329*#519-0.85329*#526]
#101=[#527+0.85329*#520-0.85329*#527]
#100=[#102+0.93090*#101-0.93090*#102]
G01 X44.2210 Y19.3465Z[#100+-0.1306]
#102=[#526+0.85011*#519-0.85011*#526]
#101=[#527+0.85011*#520-0.85011*#527]
#100=[#102+0.93090*#101-0.93090*#102]
G01 X44.2210 Y19.3735Z[#100+-0.1306]
#102=[#526+0.83205*#519-0.83205*#526]
#101=[#527+0.83205*#520-0.83205*#527]
#100=[#102+0.92966*#101-0.92966*#102]
G01 X44.2120 Y19.5270Z[#100+-0.1306]
#102=[#526+0.81264*#519-0.81264*#526]
#101=[#527+0.81264*#520-0.81264*#527]
#100=[#102+0.92581*#101-0.92581*#102]
G01 X44.1840 Y19.6919Z[#100+-0.1306]
#102=[#526+0.79525*#519-0.79525*#526]
#101=[#527+0.79525*#520-0.79525*#527]
#100=[#102+0.92002*#101-0.92002*#102]
G01 X44.1418 Y19.8397Z[#100+-0.1306]
#102=[#526+0.79224*#519-0.79224*#526]
#101=[#527+0.79224*#520-0.79224*#527]
#100=[#102+0.91880*#101-0.91880*#102]
G01 X44.1329 Y19.8652Z[#100+-0.1306]
#102=[#526+0.77554*#519-0.77554*#526]
#101=[#527+0.77554*#520-0.77554*#527]
#100=[#102+0.91067*#101-0.91067*#102]
G01 X44.0737 Y20.0071Z[#100+-0.1306]
#102=[#526+0.75832*#519-0.75832*#526]
#101=[#527+0.75832*#520-0.75832*#527]
#100=[#102+0.89956*#101-0.89956*#102]
G01 X43.9928 Y20.1535Z[#100+-0.1306]
#102=[#526+0.74226*#519-0.74226*#526]
#101=[#527+0.74226*#520-0.74226*#527]
#100=[#102+0.88626*#101-0.88626*#102]
G01 X43.8960 Y20.2899Z[#100+-0.1306]
#102=[#526+0.72759*#519-0.72759*#526]
#101=[#527+0.72759*#520-0.72759*#527]
#100=[#102+0.87097*#101-0.87097*#102]
G01 X43.7846 Y20.4146Z[#100+-0.1306]
#102=[#526+0.71550*#519-0.71550*#526]
#101=[#527+0.71550*#520-0.71550*#527]
#100=[#102+0.85525*#101-0.85525*#102]
G01 X43.6702 Y20.5173Z[#100+-0.1306]
#102=[#526+0.71351*#519-0.71351*#526]
#101=[#527+0.71351*#520-0.71351*#527]
#100=[#102+0.85236*#101-0.85236*#102]
G01 X43.6491 Y20.5342Z[#100+-0.1306]
#102=[#526+0.70397*#519-0.70397*#526]
#101=[#527+0.70397*#520-0.70397*#527]
#100=[#102+0.83665*#101-0.83665*#102]
G01 X43.5347 Y20.6153Z[#100+-0.1306]
#102=[#526+0.70227*#519-0.70227*#526]
#101=[#527+0.70227*#520-0.70227*#527]
#100=[#102+0.83350*#101-0.83350*#102]
G01 X43.5118 Y20.6297Z[#100+-0.1306]
#102=[#526+0.69356*#519-0.69356*#526]
#101=[#527+0.69356*#520-0.69356*#527]
#100=[#102+0.81500*#101-0.81500*#102]
G01 X43.3771 Y20.7037Z[#100+-0.1306]
#102=[#526+0.68603*#519-0.68603*#526]
#101=[#527+0.68603*#520-0.68603*#527]
#100=[#102+0.79379*#101-0.79379*#102]
G01 X43.2226 Y20.7677Z[#100+-0.1306]
#102=[#526+0.68058*#519-0.68058*#526]
#101=[#527+0.68058*#520-0.68058*#527]
#100=[#102+0.77172*#101-0.77172*#102]
G01 X43.0619 Y20.8140Z[#100+-0.1306]
#102=[#526+0.67729*#519-0.67729*#526]
#101=[#527+0.67729*#520-0.67729*#527]
#100=[#102+0.74907*#101-0.74907*#102]
G01 X42.8970 Y20.8420Z[#100+-0.1306]
#102=[#526+0.67618*#519-0.67618*#526]
#101=[#527+0.67618*#520-0.67618*#527]
#100=[#102+0.72614*#101-0.72614*#102]
G01 X42.7300 Y20.8514Z[#100+-0.1306]
#102=[#526+0.67715*#519-0.67715*#526]
#101=[#527+0.67715*#520-0.67715*#527]
#100=[#102+0.70506*#101-0.70506*#102]
G01 X42.5765 Y20.8432Z[#100+-0.1306]
#102=[#526+0.67751*#519-0.67751*#526]
#101=[#527+0.67751*#520-0.67751*#527]
#100=[#102+0.70136*#101-0.70136*#102]
G01 X42.5496 Y20.8401Z[#100+-0.1306]
#102=[#526+0.68028*#519-0.68028*#526]
#101=[#527+0.68028*#520-0.68028*#527]
#100=[#102+0.68238*#101-0.68238*#102]
G01 X42.4114 Y20.8166Z[#100+-0.1306]
#102=[#526+0.68098*#519-0.68098*#526]
#101=[#527+0.68098*#520-0.68098*#527]
#100=[#102+0.67876*#101-0.67876*#102]
G01 X42.3850 Y20.8106Z[#100+-0.1306]
#102=[#526+0.68603*#519-0.68603*#526]
#101=[#527+0.68603*#520-0.68603*#527]
#100=[#102+0.65849*#101-0.65849*#102]
G01 X42.2374 Y20.7677Z[#100+-0.1306]
#102=[#526+0.69356*#519-0.69356*#526]
#101=[#527+0.69356*#520-0.69356*#527]
#100=[#102+0.63727*#101-0.63727*#102]
G01 X42.0829 Y20.7037Z[#100+-0.1306]
#102=[#526+0.70227*#519-0.70227*#526]
#101=[#527+0.70227*#520-0.70227*#527]
#100=[#102+0.61877*#101-0.61877*#102]
G01 X41.9482 Y20.6297Z[#100+-0.1306]
#102=[#526+0.70397*#519-0.70397*#526]
#101=[#527+0.70397*#520-0.70397*#527]
#100=[#102+0.61563*#101-0.61563*#102]
G01 X41.9253 Y20.6153Z[#100+-0.1306]
#102=[#526+0.71448*#519-0.71448*#526]
#101=[#527+0.71448*#520-0.71448*#527]
#100=[#102+0.59843*#101-0.59843*#102]
G01 X41.8001 Y20.5260Z[#100+-0.1306]
#102=[#526+0.72649*#519-0.72649*#526]
#101=[#527+0.72649*#520-0.72649*#527]
#100=[#102+0.58267*#101-0.58267*#102]
G01 X41.6853 Y20.4239Z[#100+-0.1306]
#102=[#526+0.72875*#519-0.72875*#526]
#101=[#527+0.72875*#520-0.72875*#527]
#100=[#102+0.58003*#101-0.58003*#102]
G01 X41.6661 Y20.4047Z[#100+-0.1306]
#102=[#526+0.74226*#519-0.74226*#526]
#101=[#527+0.74226*#520-0.74226*#527]
#100=[#102+0.56601*#101-0.56601*#102]
G01 X41.5640 Y20.2899Z[#100+-0.1306]
#102=[#526+0.75832*#519-0.75832*#526]
#101=[#527+0.75832*#520-0.75832*#527]
#100=[#102+0.55272*#101-0.55272*#102]
G01 X41.4672 Y20.1535Z[#100+-0.1306]
#102=[#526+0.77554*#519-0.77554*#526]
#101=[#527+0.77554*#520-0.77554*#527]
#100=[#102+0.54161*#101-0.54161*#102]
G01 X41.3863 Y20.0071Z[#100+-0.1306]
#102=[#526+0.79224*#519-0.79224*#526]
#101=[#527+0.79224*#520-0.79224*#527]
#100=[#102+0.53348*#101-0.53348*#102]
G01 X41.3271 Y19.8652Z[#100+-0.1306]
#102=[#526+0.79525*#519-0.79525*#526]
#101=[#527+0.79525*#520-0.79525*#527]
#100=[#102+0.53226*#101-0.53226*#102]
G01 X41.3182 Y19.8397Z[#100+-0.1306]
#102=[#526+0.81110*#519-0.81110*#526]
#101=[#527+0.81110*#520-0.81110*#527]
#100=[#102+0.52693*#101-0.52693*#102]
G01 X41.2794 Y19.7050Z[#100+-0.1306]
#102=[#526+0.81420*#519-0.81420*#526]
#101=[#527+0.81420*#520-0.81420*#527]
#100=[#102+0.52610*#101-0.52610*#102]
G01 X41.2734 Y19.6786Z[#100+-0.1306]
#102=[#526+0.83205*#519-0.83205*#526]
#101=[#527+0.83205*#520-0.83205*#527]
#100=[#102+0.52261*#101-0.52261*#102]
G01 X41.2480 Y19.5270Z[#100+-0.1306]
#102=[#526+0.84287*#519-0.84287*#526]
#101=[#527+0.84287*#520-0.84287*#527]
#100=[#102+0.52185*#101-0.52185*#102]
G01 X41.2424 Y19.4350Z[#100+-0.1306]
#102=[#526+0.86215*#519-0.86215*#526]
#101=[#527+0.86215*#520-0.86215*#527]
#100=[#102+0.45438*#101-0.45438*#102]
G01 X40.7511 Y19.2712Z[#100+-0.1306]
#102=[#526+0.86448*#519-0.86448*#526]
#101=[#527+0.86448*#520-0.86448*#527]
#100=[#102+0.44767*#101-0.44767*#102]
G01 X40.7023 Y19.2514Z[#100+-0.1306]
#102=[#526+0.86706*#519-0.86706*#526]
#101=[#527+0.86706*#520-0.86706*#527]
#100=[#102+0.44193*#101-0.44193*#102]
G01 X40.6605 Y19.2295Z[#100+-0.1306]
#102=[#526+0.86835*#519-0.86835*#526]
#101=[#527+0.86835*#520-0.86835*#527]
#100=[#102+0.43938*#101-0.43938*#102]
G01 X40.6419 Y19.2185Z[#100+-0.1306]
#102=[#526+0.87202*#519-0.87202*#526]
#101=[#527+0.87202*#520-0.87202*#527]
#100=[#102+0.43325*#101-0.43325*#102]
G01 X40.5973 Y19.1873Z[#100+-0.1306]
#102=[#526+0.87551*#519-0.87551*#526]
#101=[#527+0.87551*#520-0.87551*#527]
#100=[#102+0.42852*#101-0.42852*#102]
G01 X40.5628 Y19.1577Z[#100+-0.1306]
#102=[#526+0.87840*#519-0.87840*#526]
#101=[#527+0.87840*#520-0.87840*#527]
#100=[#102+0.42508*#101-0.42508*#102]
G01 X40.5378 Y19.1331Z[#100+-0.1306]
#102=[#526+0.88200*#519-0.88200*#526]
#101=[#527+0.88200*#520-0.88200*#527]
#100=[#102+0.42133*#101-0.42133*#102]
G01 X40.5105 Y19.1025Z[#100+-0.1306]
#102=[#526+0.88630*#519-0.88630*#526]
#101=[#527+0.88630*#520-0.88630*#527]
#100=[#102+0.41763*#101-0.41763*#102]
G01 X40.4835 Y19.0660Z[#100+-0.1306]
#102=[#526+0.88841*#519-0.88841*#526]
#101=[#527+0.88841*#520-0.88841*#527]
#100=[#102+0.41598*#101-0.41598*#102]
G01 X40.4715 Y19.0481Z[#100+-0.1306]
#102=[#526+0.89381*#519-0.89381*#526]
#101=[#527+0.89381*#520-0.89381*#527]
#100=[#102+0.41242*#101-0.41242*#102]
G01 X40.4456 Y19.0022Z[#100+-0.1306]
#102=[#526+0.89611*#519-0.89611*#526]
#101=[#527+0.89611*#520-0.89611*#527]
#100=[#102+0.41117*#101-0.41117*#102]
G01 X40.4365 Y18.9826Z[#100+-0.1306]
#102=[#526+0.90037*#519-0.90037*#526]
#101=[#527+0.90037*#520-0.90037*#527]
#100=[#102+0.40913*#101-0.40913*#102]
G01 X40.4216 Y18.9464Z[#100+-0.1306]
#102=[#526+0.90277*#519-0.90277*#526]
#101=[#527+0.90277*#520-0.90277*#527]
#100=[#102+0.40818*#101-0.40818*#102]
G01 X40.4147 Y18.9260Z[#100+-0.1306]
#102=[#526+0.90721*#519-0.90721*#526]
#101=[#527+0.90721*#520-0.90721*#527]
#100=[#102+0.40669*#101-0.40669*#102]
G01 X40.4039 Y18.8883Z[#100+-0.1306]
#102=[#526+0.90969*#519-0.90969*#526]
#101=[#527+0.90969*#520-0.90969*#527]
#100=[#102+0.40608*#101-0.40608*#102]
G01 X40.3994 Y18.8672Z[#100+-0.1306]
#102=[#526+0.91424*#519-0.91424*#526]
#101=[#527+0.91424*#520-0.91424*#527]
#100=[#102+0.40517*#101-0.40517*#102]
G01 X40.3928 Y18.8286Z[#100+-0.1306]
#102=[#526+0.91677*#519-0.91677*#526]
#101=[#527+0.91677*#520-0.91677*#527]
#100=[#102+0.40488*#101-0.40488*#102]
G01 X40.3907 Y18.8071Z[#100+-0.1306]
#102=[#526+0.92137*#519-0.92137*#526]
#101=[#527+0.92137*#520-0.92137*#527]
#100=[#102+0.40458*#101-0.40458*#102]
G01 X40.3885 Y18.7680Z[#100+-0.1306]
#102=[#519+0.08907*#512-0.08907*#519]
#101=[#520+0.08907*#513-0.08907*#520]
#100=[#102+0.40457*#101-0.40457*#102]
G01 X40.3884 Y17.3430Z[#100+-0.1306]
#102=[#519+0.09373*#512-0.09373*#519]
#101=[#520+0.09373*#513-0.09373*#520]
#100=[#102+0.05626*#101-0.05626*#102]
G01 X37.8521 Y17.3034Z[#100+-0.1306]
#102=[#519+0.09407*#512-0.09407*#519]
#101=[#520+0.09407*#513-0.09407*#520]
#100=[#102+0.05063*#101-0.05063*#102]
G01 X37.8111 Y17.3005Z[#100+-0.1306]
#102=[#519+0.09463*#512-0.09463*#519]
#101=[#520+0.09463*#513-0.09463*#520]
#100=[#102+0.04689*#101-0.04689*#102]
G01 X37.7839 Y17.2958Z[#100+-0.1306]
#102=[#519+0.09538*#512-0.09538*#519]
#101=[#520+0.09538*#513-0.09538*#520]
#100=[#102+0.04329*#101-0.04329*#102]
G01 X37.7577 Y17.2894Z[#100+-0.1306]
#102=[#519+0.09636*#512-0.09636*#519]
#101=[#520+0.09636*#513-0.09636*#520]
#100=[#102+0.03968*#101-0.03968*#102]
G01 X37.7314 Y17.2811Z[#100+-0.1306]
#102=[#519+0.09760*#512-0.09760*#519]
#101=[#520+0.09760*#513-0.09760*#520]
#100=[#102+0.03618*#101-0.03618*#102]
G01 X37.7059 Y17.2705Z[#100+-0.1306]
#102=[#519+0.09902*#512-0.09902*#519]
#101=[#520+0.09902*#513-0.09902*#520]
#100=[#102+0.03287*#101-0.03287*#102]
G01 X37.6818 Y17.2585Z[#100+-0.1306]
#102=[#519+0.10066*#512-0.10066*#519]
#101=[#520+0.10066*#513-0.10066*#520]
#100=[#102+0.02959*#101-0.02959*#102]
G01 X37.6579 Y17.2445Z[#100+-0.1306]
#102=[#519+0.10351*#512-0.10351*#519]
#101=[#520+0.10351*#513-0.10351*#520]
#100=[#102+0.02503*#101-0.02503*#102]
G01 X37.6247 Y17.2203Z[#100+-0.1306]
#102=[#519+0.10568*#512-0.10568*#519]
#101=[#520+0.10568*#513-0.10568*#520]
#100=[#102+0.02220*#101-0.02220*#102]
G01 X37.6041 Y17.2019Z[#100+-0.1306]
#102=[#519+0.10794*#512-0.10794*#519]
#101=[#520+0.10794*#513-0.10794*#520]
#100=[#102+0.01962*#101-0.01962*#102]
G01 X37.5853 Y17.1827Z[#100+-0.1306]
#102=[#519+0.11042*#512-0.11042*#519]
#101=[#520+0.11042*#513-0.11042*#520]
#100=[#102+0.01716*#101-0.01716*#102]
G01 X37.5674 Y17.1616Z[#100+-0.1306]
#102=[#519+0.11307*#512-0.11307*#519]
#101=[#520+0.11307*#513-0.11307*#520]
#100=[#102+0.01495*#101-0.01495*#102]
G01 X37.5513 Y17.1391Z[#100+-0.1306]
#102=[#519+0.11576*#512-0.11576*#519]
#101=[#520+0.11576*#513-0.11576*#520]
#100=[#102+0.01301*#101-0.01301*#102]
G01 X37.5372 Y17.1162Z[#100+-0.1306]
#102=[#519+0.11865*#512-0.11865*#519]
#101=[#520+0.11865*#513-0.11865*#520]
#100=[#102+0.01125*#101-0.01125*#102]
G01 X37.5244 Y17.0917Z[#100+-0.1306]
#102=[#519+0.12165*#512-0.12165*#519]
#101=[#520+0.12165*#513-0.12165*#520]
#100=[#102+0.00978*#101-0.00978*#102]
G01 X37.5137 Y17.0662Z[#100+-0.1306]
#102=[#519+0.12465*#512-0.12465*#519]
#101=[#520+0.12465*#513-0.12465*#520]
#100=[#102+0.00860*#101-0.00860*#102]
G01 X37.5051 Y17.0407Z[#100+-0.1306]
#102=[#519+0.12779*#512-0.12779*#519]
#101=[#520+0.12779*#513-0.12779*#520]
#100=[#102+0.00763*#101-0.00763*#102]
G01 X37.4980 Y17.0140Z[#100+-0.1306]
#102=[#519+0.13099*#512-0.13099*#519]
#101=[#520+0.13099*#513-0.13099*#520]
#100=[#102+0.00697*#101-0.00697*#102]
G01 X37.4932 Y16.9868Z[#100+-0.1306]
#102=[#519+0.13415*#512-0.13415*#519]
#101=[#520+0.13415*#513-0.13415*#520]
#100=[#102+0.00658*#101-0.00658*#102]
G01 X37.4904 Y16.9600Z[#100+-0.1306]
#102=[#519+0.13739*#512-0.13739*#519]
#101=[#520+0.13739*#513-0.13739*#520]
#100=[#102+0.00645*#101-0.00645*#102]
G01 X37.4894 Y16.9324Z[#100+-0.1306]
#102=[#519+0.72581*#512-0.72581*#519]
#101=[#520+0.72581*#513-0.72581*#520]
#100=[#102+0.01134*#101-0.01134*#102]
G01 X37.52499 Y11.93253Z[#100+-0.1306] ;segmented line. Max segment length set to 5
#102=[#512+0.31422*#505-0.31422*#512]
#101=[#513+0.31422*#506-0.31422*#513]
#100=[#102+0.01622*#101-0.01622*#102]
G01 X37.56058 Y6.93266Z[#100+-0.1306] ;segmented line. Max segment length set to 5
#102=[#512+0.76099*#505-0.76099*#512]
#101=[#513+0.76099*#506-0.76099*#513]
#100=[#102+0.01993*#101-0.01993*#102]
G01 X37.5876 Y3.1364Z[#100+-0.1306]
#102=[#512+0.76427*#505-0.76427*#512]
#101=[#513+0.76427*#506-0.76427*#513]
#100=[#102+0.02013*#101-0.02013*#102]
G01 X37.5890 Y3.1085Z[#100+-0.1306]
#102=[#512+0.76745*#505-0.76745*#512]
#101=[#513+0.76745*#506-0.76745*#513]
#100=[#102+0.02058*#101-0.02058*#102]
G01 X37.5923 Y3.0815Z[#100+-0.1306]
#102=[#512+0.77069*#505-0.77069*#512]
#101=[#513+0.77069*#506-0.77069*#513]
#100=[#102+0.02131*#101-0.02131*#102]
G01 X37.5976 Y3.0540Z[#100+-0.1306]
#102=[#512+0.77537*#505-0.77537*#512]
#101=[#513+0.77537*#506-0.77537*#513]
#100=[#102+0.02293*#101-0.02293*#102]
G01 X37.6094 Y3.0142Z[#100+-0.1306]
#102=[#512+0.77842*#505-0.77842*#512]
#101=[#513+0.77842*#506-0.77842*#513]
#100=[#102+0.02438*#101-0.02438*#102]
G01 X37.6200 Y2.9883Z[#100+-0.1306]
#102=[#512+0.78129*#505-0.78129*#512]
#101=[#513+0.78129*#506-0.78129*#513]
#100=[#102+0.02603*#101-0.02603*#102]
G01 X37.6320 Y2.9639Z[#100+-0.1306]
#102=[#512+0.78413*#505-0.78413*#512]
#101=[#513+0.78413*#506-0.78413*#513]
#100=[#102+0.02797*#101-0.02797*#102]
G01 X37.6461 Y2.9398Z[#100+-0.1306]
#102=[#512+0.78808*#505-0.78808*#512]
#101=[#513+0.78808*#506-0.78808*#513]
#100=[#102+0.03132*#101-0.03132*#102]
G01 X37.6705 Y2.9062Z[#100+-0.1306]
#102=[#512+0.79054*#505-0.79054*#512]
#101=[#513+0.79054*#506-0.79054*#513]
#100=[#102+0.03387*#101-0.03387*#102]
G01 X37.6891 Y2.8853Z[#100+-0.1306]
#102=[#512+0.79278*#505-0.79278*#512]
#101=[#513+0.79278*#506-0.79278*#513]
#100=[#102+0.03655*#101-0.03655*#102]
G01 X37.7086 Y2.8663Z[#100+-0.1306]
#102=[#512+0.79491*#505-0.79491*#512]
#101=[#513+0.79491*#506-0.79491*#513]
#100=[#102+0.03948*#101-0.03948*#102]
G01 X37.7299 Y2.8482Z[#100+-0.1306]
#102=[#512+0.79769*#505-0.79769*#512]
#101=[#513+0.79769*#506-0.79769*#513]
#100=[#102+0.04416*#101-0.04416*#102]
G01 X37.7640 Y2.8246Z[#100+-0.1306]
#102=[#512+0.79929*#505-0.79929*#512]
#101=[#513+0.79929*#506-0.79929*#513]
#100=[#102+0.04752*#101-0.04752*#102]
G01 X37.7885 Y2.8110Z[#100+-0.1306]
#102=[#512+0.80064*#505-0.80064*#512]
#101=[#513+0.80064*#506-0.80064*#513]
#100=[#102+0.05091*#101-0.05091*#102]
G01 X37.8132 Y2.7995Z[#100+-0.1306]
#102=[#512+0.80180*#505-0.80180*#512]
#101=[#513+0.80180*#506-0.80180*#513]
#100=[#102+0.05450*#101-0.05450*#102]
G01 X37.8393 Y2.7896Z[#100+-0.1306]
#102=[#512+0.80310*#505-0.80310*#512]
#101=[#513+0.80310*#506-0.80310*#513]
#100=[#102+0.06001*#101-0.06001*#102]
G01 X37.8794 Y2.7786Z[#100+-0.1306]
#102=[#512+0.80364*#505-0.80364*#512]
#101=[#513+0.80364*#506-0.80364*#513]
#100=[#102+0.06378*#101-0.06378*#102]
G01 X37.9069 Y2.7740Z[#100+-0.1306]
#102=[#512+0.80396*#505-0.80396*#512]
#101=[#513+0.80396*#506-0.80396*#513]
#100=[#102+0.06750*#101-0.06750*#102]
G01 X37.9340 Y2.7713Z[#100+-0.1306]
#102=[#512+0.80404*#505-0.80404*#512]
#101=[#513+0.80404*#506-0.80404*#513]
#100=[#102+0.07134*#101-0.07134*#102]
G01 X37.9619 Y2.7706Z[#100+-0.1306]
#102=[#512+0.80066*#505-0.80066*#512]
#101=[#513+0.80066*#506-0.80066*#513]
#100=[#102+0.31971*#101-0.31971*#102]
G01 X39.7705 Y2.7993Z[#100+-0.1306]
#102=[#512+0.90630*#505-0.90630*#512]
#101=[#513+0.90630*#506-0.90630*#513]
#100=[#102+0.19643*#101-0.19643*#102]
G01 X38.8728 Y1.9017Z[#100+-0.1306]
#102=[#511+0.90630*#504-0.90630*#511]
#101=[#512+0.90630*#505-0.90630*#512]
#100=[#102+0.50978*#101-0.50978*#102]
G01 X33.87280 Y1.90170Z[#100+-0.1306] ;segmented line. Max segment length set to 5
#102=[#510+0.90630*#503-0.90630*#510]
#101=[#511+0.90630*#504-0.90630*#511]
#100=[#102+0.82313*#101-0.82313*#102]
G01 X28.87280 Y1.90170Z[#100+-0.1306] ;segmented line. Max segment length set to 5
#102=[#510+0.90630*#503-0.90630*#510]
#101=[#511+0.90630*#504-0.90630*#511]
#100=[#102+0.13649*#101-0.13649*#102]
G01 X23.87280 Y1.90170Z[#100+-0.1306] ;segmented line. Max segment length set to 5
#102=[#509+0.90630*#502-0.90630*#509]
#101=[#510+0.90630*#503-0.90630*#510]
#100=[#102+0.44984*#101-0.44984*#102]
G01 X18.87280 Y1.90170Z[#100+-0.1306] ;segmented line. Max segment length set to 5
#102=[#508+0.90630*#501-0.90630*#508]
#101=[#509+0.90630*#502-0.90630*#509]
#100=[#102+0.76319*#101-0.76319*#102]
G01 X13.87280 Y1.90170Z[#100+-0.1306] ;segmented line. Max segment length set to 5
#102=[#508+0.90630*#501-0.90630*#508]
#101=[#509+0.90630*#502-0.90630*#509]
#100=[#102+0.11972*#101-0.11972*#102]
G01 X9.1872 Y1.9017Z[#100+-0.1306]
#102=[#507+0.70238*#500-0.70238*#507]
#101=[#508+0.70238*#501-0.70238*#508]
#100=[#102+0.88175*#101-0.88175*#102]
G01 X7.4544 Y3.6344Z[#100+-0.1306]
#102=[#507+0.69586*#500-0.69586*#507]
#101=[#508+0.69586*#501-0.69586*#508]
#100=[#102+0.87324*#101-0.87324*#102]
G01 X7.3924 Y3.6898Z[#100+-0.1306]
#102=[#507+0.69019*#500-0.69019*#507]
#101=[#508+0.69019*#501-0.69019*#508]
#100=[#102+0.86393*#101-0.86393*#102]
G01 X7.3246 Y3.7380Z[#100+-0.1306]
#102=[#507+0.68546*#500-0.68546*#507]
#101=[#508+0.68546*#501-0.68546*#508]
#100=[#102+0.85393*#101-0.85393*#102]
G01 X7.2518 Y3.7782Z[#100+-0.1306]
#102=[#507+0.68172*#500-0.68172*#507]
#101=[#508+0.68172*#501-0.68172*#508]
#100=[#102+0.84338*#101-0.84338*#102]
G01 X7.1750 Y3.8100Z[#100+-0.1306]
#102=[#507+0.67900*#500-0.67900*#507]
#101=[#508+0.67900*#501-0.67900*#508]
#100=[#102+0.83240*#101-0.83240*#102]
G01 X7.0950 Y3.8331Z[#100+-0.1306]
#102=[#507+0.67736*#500-0.67736*#507]
#101=[#508+0.67736*#501-0.67736*#508]
#100=[#102+0.82114*#101-0.82114*#102]
G01 X7.0130 Y3.8470Z[#100+-0.1306]
#102=[#507+0.67681*#500-0.67681*#507]
#101=[#508+0.67681*#501-0.67681*#508]
#100=[#102+0.80974*#101-0.80974*#102]
G01 X6.9300 Y3.8517Z[#100+-0.1306]
#102=[#507+0.67681*#500-0.67681*#507]
#101=[#508+0.67681*#501-0.67681*#508]
#100=[#102+0.70556*#101-0.70556*#102]
G01 X6.1714 Y3.8517Z[#100+-0.1306]
#102=[#507+0.62287*#500-0.62287*#507]
#101=[#508+0.62287*#501-0.62287*#508]
#100=[#102+0.70556*#101-0.70556*#102]
G01 X6.1714 Y4.3100Z[#100+-0.1306]
#102=[#507+0.62149*#500-0.62149*#507]
#101=[#508+0.62149*#501-0.62149*#508]
#100=[#102+0.70552*#101-0.70552*#102]
G01 X6.1711 Y4.3218Z[#100+-0.1306]
#102=[#507+0.61829*#500-0.61829*#507]
#101=[#508+0.61829*#501-0.61829*#508]
#100=[#102+0.70512*#101-0.70512*#102]
G01 X6.1682 Y4.3490Z[#100+-0.1306]
#102=[#507+0.61514*#500-0.61514*#507]
#101=[#508+0.61514*#501-0.61514*#508]
#100=[#102+0.70431*#101-0.70431*#102]
G01 X6.1623 Y4.3757Z[#100+-0.1306]
#102=[#507+0.61211*#500-0.61211*#507]
#101=[#508+0.61211*#501-0.61211*#508]
#100=[#102+0.70309*#101-0.70309*#102]
G01 X6.1534 Y4.4015Z[#100+-0.1306]
#102=[#507+0.60920*#500-0.60920*#507]
#101=[#508+0.60920*#501-0.60920*#508]
#100=[#102+0.70147*#101-0.70147*#102]
G01 X6.1416 Y4.4262Z[#100+-0.1306]
#102=[#507+0.60647*#500-0.60647*#507]
#101=[#508+0.60647*#501-0.60647*#508]
#100=[#102+0.69947*#101-0.69947*#102]
G01 X6.1271 Y4.4494Z[#100+-0.1306]
#102=[#507+0.60395*#500-0.60395*#507]
#101=[#508+0.60395*#501-0.60395*#508]
#100=[#102+0.69714*#101-0.69714*#102]
G01 X6.1101 Y4.4708Z[#100+-0.1306]
#102=[#507+0.60168*#500-0.60168*#507]
#101=[#508+0.60168*#501-0.60168*#508]
#100=[#102+0.69449*#101-0.69449*#102]
G01 X6.0908 Y4.4901Z[#100+-0.1306]
#102=[#507+0.59968*#500-0.59968*#507]
#101=[#508+0.59968*#501-0.59968*#508]
#100=[#102+0.69155*#101-0.69155*#102]
G01 X6.0694 Y4.5071Z[#100+-0.1306]
#102=[#507+0.59797*#500-0.59797*#507]
#101=[#508+0.59797*#501-0.59797*#508]
#100=[#102+0.68836*#101-0.68836*#102]
G01 X6.0462 Y4.5216Z[#100+-0.1306]
#102=[#507+0.59658*#500-0.59658*#507]
#101=[#508+0.59658*#501-0.59658*#508]
#100=[#102+0.68497*#101-0.68497*#102]
G01 X6.0215 Y4.5334Z[#100+-0.1306]
#102=[#507+0.59554*#500-0.59554*#507]
#101=[#508+0.59554*#501-0.59554*#508]
#100=[#102+0.68143*#101-0.68143*#102]
G01 X5.9957 Y4.5423Z[#100+-0.1306]
#102=[#507+0.59484*#500-0.59484*#507]
#101=[#508+0.59484*#501-0.59484*#508]
#100=[#102+0.67776*#101-0.67776*#102]
G01 X5.9690 Y4.5482Z[#100+-0.1306]
#102=[#507+0.59450*#500-0.59450*#507]
#101=[#508+0.59450*#501-0.59450*#508]
#100=[#102+0.67403*#101-0.67403*#102]
G01 X5.9418 Y4.5511Z[#100+-0.1306]
#102=[#507+0.59447*#500-0.59447*#507]
#101=[#508+0.59447*#501-0.59447*#508]
#100=[#102+0.67241*#101-0.67241*#102]
G01 X5.9300 Y4.5514Z[#100+-0.1306]
#102=[#507+0.59447*#500-0.59447*#507]
#101=[#508+0.59447*#501-0.59447*#508]
#100=[#102+0.34282*#101-0.34282*#102]
G01 X3.5300 Y4.5514Z[#100+-0.1306]
#102=[#507+0.59450*#500-0.59450*#507]
#101=[#508+0.59450*#501-0.59450*#508]
#100=[#102+0.34120*#101-0.34120*#102]
G01 X3.5182 Y4.5511Z[#100+-0.1306]
#102=[#507+0.59484*#500-0.59484*#507]
#101=[#508+0.59484*#501-0.59484*#508]
#100=[#102+0.33746*#101-0.33746*#102]
G01 X3.4910 Y4.5482Z[#100+-0.1306]
#102=[#507+0.59554*#500-0.59554*#507]
#101=[#508+0.59554*#501-0.59554*#508]
#100=[#102+0.33379*#101-0.33379*#102]
G01 X3.4643 Y4.5423Z[#100+-0.1306]
#102=[#507+0.59658*#500-0.59658*#507]
#101=[#508+0.59658*#501-0.59658*#508]
#100=[#102+0.33025*#101-0.33025*#102]
G01 X3.4385 Y4.5334Z[#100+-0.1306]
#102=[#507+0.59797*#500-0.59797*#507]
#101=[#508+0.59797*#501-0.59797*#508]
#100=[#102+0.32686*#101-0.32686*#102]
G01 X3.4138 Y4.5216Z[#100+-0.1306]
#102=[#507+0.59968*#500-0.59968*#507]
#101=[#508+0.59968*#501-0.59968*#508]
#100=[#102+0.32367*#101-0.32367*#102]
G01 X3.3906 Y4.5071Z[#100+-0.1306]
#102=[#507+0.60168*#500-0.60168*#507]
#101=[#508+0.60168*#501-0.60168*#508]
#100=[#102+0.32073*#101-0.32073*#102]
G01 X3.3692 Y4.4901Z[#100+-0.1306]
#102=[#507+0.60395*#500-0.60395*#507]
#101=[#508+0.60395*#501-0.60395*#508]
#100=[#102+0.31808*#101-0.31808*#102]
G01 X3.3499 Y4.4708Z[#100+-0.1306]
#102=[#507+0.60647*#500-0.60647*#507]
#101=[#508+0.60647*#501-0.60647*#508]
#100=[#102+0.31575*#101-0.31575*#102]
G01 X3.3329 Y4.4494Z[#100+-0.1306]
#102=[#507+0.60920*#500-0.60920*#507]
#101=[#508+0.60920*#501-0.60920*#508]
#100=[#102+0.31376*#101-0.31376*#102]
G01 X3.3184 Y4.4262Z[#100+-0.1306]
#102=[#507+0.61211*#500-0.61211*#507]
#101=[#508+0.61211*#501-0.61211*#508]
#100=[#102+0.31214*#101-0.31214*#102]
G01 X3.3066 Y4.4015Z[#100+-0.1306]
#102=[#507+0.61514*#500-0.61514*#507]
#101=[#508+0.61514*#501-0.61514*#508]
#100=[#102+0.31091*#101-0.31091*#102]
G01 X3.2977 Y4.3757Z[#100+-0.1306]
#102=[#507+0.61829*#500-0.61829*#507]
#101=[#508+0.61829*#501-0.61829*#508]
#100=[#102+0.31010*#101-0.31010*#102]
G01 X3.2918 Y4.3490Z[#100+-0.1306]
#102=[#507+0.62149*#500-0.62149*#507]
#101=[#508+0.62149*#501-0.62149*#508]
#100=[#102+0.30971*#101-0.30971*#102]
G01 X3.2889 Y4.3218Z[#100+-0.1306]
#102=[#507+0.62287*#500-0.62287*#507]
#101=[#508+0.62287*#501-0.62287*#508]
#100=[#102+0.30966*#101-0.30966*#102]
G01 X3.2886 Y4.3100Z[#100+-0.1306]
#102=[#507+0.90671*#500-0.90671*#507]
#101=[#508+0.90671*#501-0.90671*#508]
#100=[#102+0.30971*#101-0.30971*#102]
G01 X3.2889 Y1.8982Z[#100+-0.1306]
#102=[#507+0.90991*#500-0.90991*#507]
#101=[#508+0.90991*#501-0.90991*#508]
#100=[#102+0.31010*#101-0.31010*#102]
G01 X3.2918 Y1.8710Z[#100+-0.1306]
#102=[#507+0.91305*#500-0.91305*#507]
#101=[#508+0.91305*#501-0.91305*#508]
#100=[#102+0.31091*#101-0.31091*#102]
G01 X3.2977 Y1.8443Z[#100+-0.1306]
#102=[#507+0.91609*#500-0.91609*#507]
#101=[#508+0.91609*#501-0.91609*#508]
#100=[#102+0.31214*#101-0.31214*#102]
G01 X3.3066 Y1.8185Z[#100+-0.1306]
#102=[#507+0.91900*#500-0.91900*#507]
#101=[#508+0.91900*#501-0.91900*#508]
#100=[#102+0.31376*#101-0.31376*#102]
G01 X3.3184 Y1.7938Z[#100+-0.1306]
#102=[#507+0.92173*#500-0.92173*#507]
#101=[#508+0.92173*#501-0.92173*#508]
#100=[#102+0.31575*#101-0.31575*#102]
G01 X3.3329 Y1.7706Z[#100+-0.1306]
#102=[#507+0.92425*#500-0.92425*#507]
#101=[#508+0.92425*#501-0.92425*#508]
#100=[#102+0.31808*#101-0.31808*#102]
G01 X3.3499 Y1.7492Z[#100+-0.1306]
#102=[#507+0.92652*#500-0.92652*#507]
#101=[#508+0.92652*#501-0.92652*#508]
#100=[#102+0.32073*#101-0.32073*#102]
G01 X3.3692 Y1.7299Z[#100+-0.1306]
#102=[#507+0.92852*#500-0.92852*#507]
#101=[#508+0.92852*#501-0.92852*#508]
#100=[#102+0.32367*#101-0.32367*#102]
G01 X3.3906 Y1.7129Z[#100+-0.1306]
#102=[#507+0.93022*#500-0.93022*#507]
#101=[#508+0.93022*#501-0.93022*#508]
#100=[#102+0.32686*#101-0.32686*#102]
G01 X3.4138 Y1.6984Z[#100+-0.1306]
#102=[#507+0.93161*#500-0.93161*#507]
#101=[#508+0.93161*#501-0.93161*#508]
#100=[#102+0.33025*#101-0.33025*#102]
G01 X3.4385 Y1.6866Z[#100+-0.1306]
#102=[#507+0.93266*#500-0.93266*#507]
#101=[#508+0.93266*#501-0.93266*#508]
#100=[#102+0.33379*#101-0.33379*#102]
G01 X3.4643 Y1.6777Z[#100+-0.1306]
#102=[#507+0.93335*#500-0.93335*#507]
#101=[#508+0.93335*#501-0.93335*#508]
#100=[#102+0.33746*#101-0.33746*#102]
G01 X3.4910 Y1.6718Z[#100+-0.1306]
#102=[#507+0.93370*#500-0.93370*#507]
#101=[#508+0.93370*#501-0.93370*#508]
#100=[#102+0.34120*#101-0.34120*#102]
G01 X3.5182 Y1.6689Z[#100+-0.1306]
#102=[#507+0.93373*#500-0.93373*#507]
#101=[#508+0.93373*#501-0.93373*#508]
#100=[#102+0.67241*#101-0.67241*#102]
G01 X5.9300 Y1.6686Z[#100+-0.1306]
G00 Z2.0000
G00 X3.5258 Y1.8251
G01 F350.00
#102=[#507+0.91531*#500-0.91531*#507]
#101=[#508+0.91531*#501-0.91531*#508]
#100=[#102+0.34224*#101-0.34224*#102]
G01 Z[#100+-0.1306]
#102=[#507+0.91531*#500-0.91531*#507]
#101=[#508+0.91531*#501-0.91531*#508]
#100=[#102+0.34224*#101-0.34224*#102]
G01 F400.00
#102=[#507+0.91532*#500-0.91532*#507]
#101=[#508+0.91532*#501-0.91532*#508]
#100=[#102+0.67241*#101-0.67241*#102]
G01 X5.9300 Y1.8250Z[#100+-0.1306]
#102=[#507+0.91520*#500-0.91520*#507]
#101=[#508+0.91520*#501-0.91520*#508]
#100=[#102+0.67429*#101-0.67429*#102]
G01 X5.9437 Y1.8261Z[#100+-0.1306]
#102=[#507+0.91495*#500-0.91495*#507]
#101=[#508+0.91495*#501-0.91495*#508]
#100=[#102+0.67558*#101-0.67558*#102]
G01 X5.9531 Y1.8282Z[#100+-0.1306]
#102=[#507+0.91458*#500-0.91458*#507]
#101=[#508+0.91458*#501-0.91458*#508]
#100=[#102+0.67683*#101-0.67683*#102]
G01 X5.9622 Y1.8313Z[#100+-0.1306]
#102=[#507+0.91409*#500-0.91409*#507]
#101=[#508+0.91409*#501-0.91409*#508]
#100=[#102+0.67802*#101-0.67802*#102]
G01 X5.9709 Y1.8355Z[#100+-0.1306]
#102=[#507+0.91349*#500-0.91349*#507]
#101=[#508+0.91349*#501-0.91349*#508]
#100=[#102+0.67915*#101-0.67915*#102]
G01 X5.9791 Y1.8406Z[#100+-0.1306]
#102=[#507+0.91278*#500-0.91278*#507]
#101=[#508+0.91278*#501-0.91278*#508]
#100=[#102+0.68018*#101-0.68018*#102]
G01 X5.9866 Y1.8466Z[#100+-0.1306]
#102=[#507+0.91198*#500-0.91198*#507]
#101=[#508+0.91198*#501-0.91198*#508]
#100=[#102+0.68111*#101-0.68111*#102]
G01 X5.9934 Y1.8534Z[#100+-0.1306]
#102=[#507+0.91110*#500-0.91110*#507]
#101=[#508+0.91110*#501-0.91110*#508]
#100=[#102+0.68194*#101-0.68194*#102]
G01 X5.9994 Y1.8609Z[#100+-0.1306]
#102=[#507+0.91013*#500-0.91013*#507]
#101=[#508+0.91013*#501-0.91013*#508]
#100=[#102+0.68264*#101-0.68264*#102]
G01 X6.0045 Y1.8691Z[#100+-0.1306]
#102=[#507+0.90911*#500-0.90911*#507]
#101=[#508+0.90911*#501-0.90911*#508]
#100=[#102+0.68321*#101-0.68321*#102]
G01 X6.0087 Y1.8778Z[#100+-0.1306]
#102=[#507+0.90804*#500-0.90804*#507]
#101=[#508+0.90804*#501-0.90804*#508]
#100=[#102+0.68364*#101-0.68364*#102]
G01 X6.0118 Y1.8869Z[#100+-0.1306]
#102=[#507+0.90693*#500-0.90693*#507]
#101=[#508+0.90693*#501-0.90693*#508]
#100=[#102+0.68393*#101-0.68393*#102]
G01 X6.0139 Y1.8963Z[#100+-0.1306]
#102=[#507+0.90582*#500-0.90582*#507]
#101=[#508+0.90582*#501-0.90582*#508]
#100=[#102+0.68407*#101-0.68407*#102]
G01 X6.0149 Y1.9058Z[#100+-0.1306]
#102=[#507+0.83298*#500-0.83298*#507]
#101=[#508+0.83298*#501-0.83298*#508]
#100=[#102+0.68408*#101-0.68408*#102]
G01 X6.0150 Y2.5247Z[#100+-0.1306]
#102=[#507+0.83298*#500-0.83298*#507]
#101=[#508+0.83298*#501-0.83298*#508]
#100=[#102+0.77645*#101-0.77645*#102]
G01 X6.6876 Y2.5247Z[#100+-0.1306]
#102=[#501+0*#501-0*#501]
#101=[#502+0*#502-0*#502]
#100=[#102+0.02070*#101-0.02070*#102]
G01 X8.4662 Y0.7462Z[#100+-0.1306]
#102=[#501+0*#501-0*#501]
#101=[#502+0*#502-0*#502]
#100=[#102+0.02692*#101-0.02692*#102]
G01 X8.5115 Y0.7055Z[#100+-0.1306]
#102=[#501+0*#501-0*#501]
#101=[#502+0*#502-0*#502]
#100=[#102+0.03423*#101-0.03423*#102]
G01 X8.5647 Y0.6671Z[#100+-0.1306]
#102=[#501+0*#501-0*#501]
#101=[#502+0*#502-0*#502]
#100=[#102+0.03533*#101-0.03533*#102]
G01 X8.5727 Y0.6620Z[#100+-0.1306]
#102=[#501+0*#501-0*#501]
#101=[#502+0*#502-0*#502]
#100=[#102+0.04266*#101-0.04266*#102]
G01 X8.6261 Y0.6327Z[#100+-0.1306]
#102=[#501+0*#501-0*#501]
#101=[#502+0*#502-0*#502]
#100=[#102+0.05098*#101-0.05098*#102]
G01 X8.6867 Y0.6076Z[#100+-0.1306]
#102=[#501+0*#501-0*#501]
#101=[#502+0*#502-0*#502]
#100=[#102+0.06028*#101-0.06028*#102]
G01 X8.7544 Y0.5885Z[#100+-0.1306]
#102=[#501+0*#501-0*#501]
#101=[#502+0*#502-0*#502]
#100=[#102+0.06853*#101-0.06853*#102]
G01 X8.8145 Y0.5784Z[#100+-0.1306]
#102=[#501+0*#501-0*#501]
#101=[#502+0*#502-0*#502]
#100=[#102+0.07720*#101-0.07720*#102]
G01 X8.8776 Y0.5748Z[#100+-0.1306]
#102=[#501+0*#501-0*#501]
#101=[#502+0*#502-0*#502]
#100=[#102+0.76385*#101-0.76385*#102]
G01 X13.87760 Y0.57478Z[#100+-0.1306] ;segmented line. Max segment length set to 5
#102=[#502+0*#502-0*#502]
#101=[#503+0*#503-0*#503]
#100=[#102+0.45050*#101-0.45050*#102]
G01 X18.87760 Y0.57476Z[#100+-0.1306] ;segmented line. Max segment length set to 5
#102=[#503+0*#503-0*#503]
#101=[#504+0*#504-0*#504]
#100=[#102+0.13714*#101-0.13714*#102]
G01 X23.87760 Y0.57475Z[#100+-0.1306] ;segmented line. Max segment length set to 5
#102=[#503+0*#503-0*#503]
#101=[#504+0*#504-0*#504]
#100=[#102+0.82379*#101-0.82379*#102]
G01 X28.87760 Y0.57473Z[#100+-0.1306] ;segmented line. Max segment length set to 5
#102=[#504+0*#504-0*#504]
#101=[#505+0*#505-0*#505]
#100=[#102+0.51044*#101-0.51044*#102]
G01 X33.87760 Y0.57472Z[#100+-0.1306] ;segmented line. Max segment length set to 5
#102=[#505+0*#505-0*#505]
#101=[#506+0*#506-0*#506]
#100=[#102+0.19709*#101-0.19709*#102]
G01 X38.87760 Y0.57470Z[#100+-0.1306] ;segmented line. Max segment length set to 5
#102=[#505+0*#505-0*#505]
#101=[#506+0*#506-0*#506]
#100=[#102+0.23862*#101-0.23862*#102]
G01 X39.1800 Y0.5747Z[#100+-0.1306]
#102=[#505+0*#505-0*#505]
#101=[#506+0*#506-0*#506]
#100=[#102+0.24761*#101-0.24761*#102]
G01 X39.2455 Y0.5784Z[#100+-0.1306]
#102=[#505+0*#505-0*#505]
#101=[#506+0*#506-0*#506]
#100=[#102+0.25650*#101-0.25650*#102]
G01 X39.3102 Y0.5894Z[#100+-0.1306]
#102=[#505+0*#505-0*#505]
#101=[#506+0*#506-0*#506]
#100=[#102+0.26516*#101-0.26516*#102]
G01 X39.3733 Y0.6076Z[#100+-0.1306]
#102=[#505+0*#505-0*#505]
#101=[#506+0*#506-0*#506]
#100=[#102+0.27349*#101-0.27349*#102]
G01 X39.4339 Y0.6327Z[#100+-0.1306]
#102=[#505+0*#505-0*#505]
#101=[#506+0*#506-0*#506]
#100=[#102+0.28138*#101-0.28138*#102]
G01 X39.4914 Y0.6645Z[#100+-0.1306]
#102=[#505+0*#505-0*#505]
#101=[#506+0*#506-0*#506]
#100=[#102+0.28821*#101-0.28821*#102]
G01 X39.5411 Y0.6996Z[#100+-0.1306]
#102=[#505+0*#505-0*#505]
#101=[#506+0*#506-0*#506]
#100=[#102+0.29544*#101-0.29544*#102]
G01 X39.5938 Y0.7462Z[#100+-0.1306]
#102=[#512+0.83633*#505-0.83633*#512]
#101=[#513+0.83633*#506-0.83633*#513]
#100=[#102+0.53577*#101-0.53577*#102]
G01 X41.3438 Y2.4962Z[#100+-0.1306]
#102=[#512+0.83100*#505-0.83100*#512]
#101=[#513+0.83100*#506-0.83100*#513]
#100=[#102+0.54136*#101-0.54136*#102]
G01 X41.3845 Y2.5415Z[#100+-0.1306]
#102=[#512+0.82428*#505-0.82428*#512]
#101=[#513+0.82428*#506-0.82428*#513]
#100=[#102+0.54699*#101-0.54699*#102]
G01 X41.4255 Y2.5986Z[#100+-0.1306]
#102=[#512+0.81802*#505-0.81802*#512]
#101=[#513+0.81802*#506-0.81802*#513]
#100=[#102+0.55106*#101-0.55106*#102]
G01 X41.4551 Y2.6518Z[#100+-0.1306]
#102=[#512+0.81091*#505-0.81091*#512]
#101=[#513+0.81091*#506-0.81091*#513]
#100=[#102+0.55457*#101-0.55457*#102]
G01 X41.4807 Y2.7122Z[#100+-0.1306]
#102=[#512+0.80985*#505-0.80985*#512]
#101=[#513+0.80985*#506-0.80985*#513]
#100=[#102+0.55501*#101-0.55501*#102]
G01 X41.4839 Y2.7212Z[#100+-0.1306]
#102=[#512+0.80296*#505-0.80296*#512]
#101=[#513+0.80296*#506-0.80296*#513]
#100=[#102+0.55730*#101-0.55730*#102]
G01 X41.5006 Y2.7798Z[#100+-0.1306]
#102=[#512+0.79534*#505-0.79534*#512]
#101=[#513+0.79534*#506-0.79534*#513]
#100=[#102+0.55881*#101-0.55881*#102]
G01 X41.5116 Y2.8445Z[#100+-0.1306]
#102=[#512+0.78792*#505-0.78792*#512]
#101=[#513+0.78792*#506-0.78792*#513]
#100=[#102+0.55931*#101-0.55931*#102]
G01 X41.5152 Y2.9076Z[#100+-0.1306]
#102=[#512+0.77900*#505-0.77900*#512]
#101=[#513+0.77900*#506-0.77900*#513]
#100=[#102+0.55932*#101-0.55932*#102]
G01 X41.5153 Y2.9834Z[#100+-0.1306]
#102=[#512+0.77434*#505-0.77434*#512]
#101=[#513+0.77434*#506-0.77434*#513]
#100=[#102+0.90142*#101-0.90142*#102]
G01 X44.0064 Y3.0230Z[#100+-0.1306]
#102=[#512+0.77420*#505-0.77420*#512]
#101=[#513+0.77420*#506-0.77420*#513]
#100=[#102+0.90401*#101-0.90401*#102]
G01 X44.0252 Y3.0242Z[#100+-0.1306]
#102=[#512+0.77376*#505-0.77376*#512]
#101=[#513+0.77376*#506-0.77376*#513]
#100=[#102+0.90719*#101-0.90719*#102]
G01 X44.0484 Y3.0279Z[#100+-0.1306]
#102=[#512+0.77349*#505-0.77349*#512]
#101=[#513+0.77349*#506-0.77349*#513]
#100=[#102+0.90846*#101-0.90846*#102]
G01 X44.0576 Y3.0302Z[#100+-0.1306]
#102=[#512+0.77284*#505-0.77284*#512]
#101=[#513+0.77284*#506-0.77284*#513]
#100=[#102+0.91091*#101-0.91091*#102]
G01 X44.0755 Y3.0357Z[#100+-0.1306]
#102=[#512+0.77198*#505-0.77198*#512]
#101=[#513+0.77198*#506-0.77198*#513]
#100=[#102+0.91330*#101-0.91330*#102]
G01 X44.0929 Y3.0430Z[#100+-0.1306]
#102=[#512+0.77038*#505-0.77038*#512]
#101=[#513+0.77038*#506-0.77038*#513]
#100=[#102+0.91671*#101-0.91671*#102]
G01 X44.1177 Y3.0566Z[#100+-0.1306]
#102=[#512+0.76839*#505-0.76839*#512]
#101=[#513+0.76839*#506-0.76839*#513]
#100=[#102+0.91981*#101-0.91981*#102]
G01 X44.1403 Y3.0735Z[#100+-0.1306]
#102=[#512+0.76690*#505-0.76690*#512]
#101=[#513+0.76690*#506-0.76690*#513]
#100=[#102+0.92171*#101-0.92171*#102]
G01 X44.1541 Y3.0862Z[#100+-0.1306]
#102=[#512+0.76524*#505-0.76524*#512]
#101=[#513+0.76524*#506-0.76524*#513]
#100=[#102+0.92344*#101-0.92344*#102]
G01 X44.1667 Y3.1003Z[#100+-0.1306]
#102=[#512+0.76254*#505-0.76254*#512]
#101=[#513+0.76254*#506-0.76254*#513]
#100=[#102+0.92570*#101-0.92570*#102]
G01 X44.1832 Y3.1232Z[#100+-0.1306]
#102=[#512+0.75960*#505-0.75960*#512]
#101=[#513+0.75960*#506-0.75960*#513]
#100=[#102+0.92752*#101-0.92752*#102]
G01 X44.1964 Y3.1482Z[#100+-0.1306]
#102=[#512+0.75755*#505-0.75755*#512]
#101=[#513+0.75755*#506-0.75755*#513]
#100=[#102+0.92848*#101-0.92848*#102]
G01 X44.2034 Y3.1656Z[#100+-0.1306]
#102=[#512+0.75488*#505-0.75488*#512]
#101=[#513+0.75488*#506-0.75488*#513]
#100=[#102+0.92937*#101-0.92937*#102]
G01 X44.2099 Y3.1883Z[#100+-0.1306]
#102=[#512+0.75215*#505-0.75215*#512]
#101=[#513+0.75215*#506-0.75215*#513]
#100=[#102+0.92991*#101-0.92991*#102]
G01 X44.2138 Y3.2115Z[#100+-0.1306]
#102=[#512+0.74939*#505-0.74939*#512]
#101=[#513+0.74939*#506-0.74939*#513]
#100=[#102+0.93009*#101-0.93009*#102]
G01 X44.2151 Y3.2350Z[#100+-0.1306]
#102=[#512+0.62346*#505-0.62346*#512]
#101=[#513+0.62346*#506-0.62346*#513]
#100=[#102+0.93009*#101-0.93009*#102]
G01 X44.2151 Y4.3050Z[#100+-0.1306]
#102=[#512+0.62123*#505-0.62123*#512]
#101=[#513+0.62123*#506-0.62123*#513]
#100=[#102+0.92995*#101-0.92995*#102]
G01 X44.2141 Y4.3240Z[#100+-0.1306]
#102=[#512+0.61791*#505-0.61791*#512]
#101=[#513+0.61791*#506-0.61791*#513]
#100=[#102+0.92934*#101-0.92934*#102]
G01 X44.2097 Y4.3522Z[#100+-0.1306]
#102=[#512+0.61575*#505-0.61575*#512]
#101=[#513+0.61575*#506-0.61575*#513]
#100=[#102+0.92864*#101-0.92864*#102]
G01 X44.2046 Y4.3705Z[#100+-0.1306]
#102=[#512+0.61314*#505-0.61314*#512]
#101=[#513+0.61314*#506-0.61314*#513]
#100=[#102+0.92746*#101-0.92746*#102]
G01 X44.1960 Y4.3927Z[#100+-0.1306]
#102=[#512+0.61214*#505-0.61214*#512]
#101=[#513+0.61214*#506-0.61214*#513]
#100=[#102+0.92690*#101-0.92690*#102]
G01 X44.1919 Y4.4012Z[#100+-0.1306]
#102=[#512+0.61019*#505-0.61019*#512]
#101=[#513+0.61019*#506-0.61019*#513]
#100=[#102+0.92562*#101-0.92562*#102]
G01 X44.1826 Y4.4178Z[#100+-0.1306]
#102=[#512+0.60791*#505-0.60791*#512]
#101=[#513+0.60791*#506-0.60791*#513]
#100=[#102+0.92373*#101-0.92373*#102]
G01 X44.1688 Y4.4372Z[#100+-0.1306]
#102=[#512+0.60581*#505-0.60581*#512]
#101=[#513+0.60581*#506-0.60581*#513]
#100=[#102+0.92156*#101-0.92156*#102]
G01 X44.1530 Y4.4550Z[#100+-0.1306]
#102=[#512+0.60395*#505-0.60395*#512]
#101=[#513+0.60395*#506-0.60395*#513]
#100=[#102+0.91911*#101-0.91911*#102]
G01 X44.1352 Y4.4708Z[#100+-0.1306]
#102=[#512+0.60204*#505-0.60204*#512]
#101=[#513+0.60204*#506-0.60204*#513]
#100=[#102+0.91589*#101-0.91589*#102]
G01 X44.1117 Y4.4870Z[#100+-0.1306]
#102=[#512+0.60097*#505-0.60097*#512]
#101=[#513+0.60097*#506-0.60097*#513]
#100=[#102+0.91359*#101-0.91359*#102]
G01 X44.0950 Y4.4961Z[#100+-0.1306]
#102=[#512+0.59990*#505-0.59990*#512]
#101=[#513+0.59990*#506-0.59990*#513]
#100=[#102+0.91057*#101-0.91057*#102]
G01 X44.0730 Y4.5052Z[#100+-0.1306]
#102=[#512+0.59902*#505-0.59902*#512]
#101=[#513+0.59902*#506-0.59902*#513]
#100=[#102+0.90679*#101-0.90679*#102]
G01 X44.0455 Y4.5127Z[#100+-0.1306]
#102=[#512+0.59867*#505-0.59867*#512]
#101=[#513+0.59867*#506-0.59867*#513]
#100=[#102+0.90421*#101-0.90421*#102]
G01 X44.0267 Y4.5157Z[#100+-0.1306]
#102=[#512+0.59853*#505-0.59853*#512]
#101=[#513+0.59853*#506-0.59853*#513]
#100=[#102+0.90162*#101-0.90162*#102]
G01 X44.0078 Y4.5169Z[#100+-0.1306]
#102=[#512+0.59850*#505-0.59850*#512]
#101=[#513+0.59850*#506-0.59850*#513]
#100=[#102+0.69917*#101-0.69917*#102]
G01 X42.5336 Y4.5171Z[#100+-0.1306]
#102=[#512+0.59444*#505-0.59444*#512]
#101=[#513+0.59444*#506-0.59444*#513]
#100=[#102+0.69443*#101-0.69443*#102]
G01 X42.4991 Y4.5516Z[#100+-0.1306]
#102=[#512+0.55874*#505-0.55874*#512]
#101=[#513+0.55874*#506-0.55874*#513]
#100=[#102+0.69443*#101-0.69443*#102]
G01 X42.4991 Y4.8550Z[#100+-0.1306]
#102=[#512+0.55872*#505-0.55872*#512]
#101=[#513+0.55872*#506-0.55872*#513]
#100=[#102+0.91623*#101-0.91623*#102]
G01 X44.1142 Y4.8551Z[#100+-0.1306]
#102=[#512+0.55861*#505-0.55861*#512]
#101=[#513+0.55861*#506-0.55861*#513]
#100=[#102+0.91753*#101-0.91753*#102]
G01 X44.1237 Y4.8561Z[#100+-0.1306]
#102=[#512+0.55836*#505-0.55836*#512]
#101=[#513+0.55836*#506-0.55836*#513]
#100=[#102+0.91882*#101-0.91882*#102]
G01 X44.1331 Y4.8582Z[#100+-0.1306]
#102=[#512+0.55799*#505-0.55799*#512]
#101=[#513+0.55799*#506-0.55799*#513]
#100=[#102+0.92007*#101-0.92007*#102]
G01 X44.1422 Y4.8613Z[#100+-0.1306]
#102=[#512+0.55750*#505-0.55750*#512]
#101=[#513+0.55750*#506-0.55750*#513]
#100=[#102+0.92127*#101-0.92127*#102]
G01 X44.1509 Y4.8655Z[#100+-0.1306]
#102=[#512+0.55690*#505-0.55690*#512]
#101=[#513+0.55690*#506-0.55690*#513]
#100=[#102+0.92240*#101-0.92240*#102]
G01 X44.1591 Y4.8706Z[#100+-0.1306]
#102=[#512+0.55619*#505-0.55619*#512]
#101=[#513+0.55619*#506-0.55619*#513]
#100=[#102+0.92343*#101-0.92343*#102]
G01 X44.1666 Y4.8766Z[#100+-0.1306]
#102=[#512+0.55539*#505-0.55539*#512]
#101=[#513+0.55539*#506-0.55539*#513]
#100=[#102+0.92436*#101-0.92436*#102]
G01 X44.1734 Y4.8834Z[#100+-0.1306]
#102=[#512+0.55451*#505-0.55451*#512]
#101=[#513+0.55451*#506-0.55451*#513]
#100=[#102+0.92518*#101-0.92518*#102]
G01 X44.1794 Y4.8909Z[#100+-0.1306]
#102=[#512+0.55355*#505-0.55355*#512]
#101=[#513+0.55355*#506-0.55355*#513]
#100=[#102+0.92588*#101-0.92588*#102]
G01 X44.1845 Y4.8991Z[#100+-0.1306]
#102=[#512+0.55252*#505-0.55252*#512]
#101=[#513+0.55252*#506-0.55252*#513]
#100=[#102+0.92646*#101-0.92646*#102]
G01 X44.1887 Y4.9078Z[#100+-0.1306]
#102=[#512+0.55145*#505-0.55145*#512]
#101=[#513+0.55145*#506-0.55145*#513]
#100=[#102+0.92689*#101-0.92689*#102]
G01 X44.1918 Y4.9169Z[#100+-0.1306]
#102=[#512+0.55034*#505-0.55034*#512]
#101=[#513+0.55034*#506-0.55034*#513]
#100=[#102+0.92717*#101-0.92717*#102]
G01 X44.1939 Y4.9263Z[#100+-0.1306]
#102=[#512+0.54873*#505-0.54873*#512]
#101=[#513+0.54873*#506-0.54873*#513]
#100=[#102+0.92733*#101-0.92733*#102]
G01 X44.1950 Y4.9400Z[#100+-0.1306]
#102=[#519+0.96030*#512-0.96030*#519]
#101=[#520+0.96030*#513-0.96030*#520]
#100=[#102+0.92733*#101-0.92733*#102]
G01 X44.19500 Y9.94000Z[#100+-0.1306] ;segmented line. Max segment length set to 5
#102=[#519+0.91323*#512-0.91323*#519]
#101=[#520+0.91323*#513-0.91323*#520]
#100=[#102+0.92733*#101-0.92733*#102]
G01 X44.1950 Y10.3400Z[#100+-0.1306]
#102=[#519+0.91162*#512-0.91162*#519]
#101=[#520+0.91162*#513-0.91162*#520]
#100=[#102+0.92717*#101-0.92717*#102]
G01 X44.1939 Y10.3537Z[#100+-0.1306]
#102=[#519+0.91051*#512-0.91051*#519]
#101=[#520+0.91051*#513-0.91051*#520]
#100=[#102+0.92689*#101-0.92689*#102]
G01 X44.1918 Y10.3631Z[#100+-0.1306]
#102=[#519+0.90944*#512-0.90944*#519]
#101=[#520+0.90944*#513-0.90944*#520]
#100=[#102+0.92646*#101-0.92646*#102]
G01 X44.1887 Y10.3722Z[#100+-0.1306]
#102=[#519+0.90841*#512-0.90841*#519]
#101=[#520+0.90841*#513-0.90841*#520]
#100=[#102+0.92588*#101-0.92588*#102]
G01 X44.1845 Y10.3809Z[#100+-0.1306]
#102=[#519+0.90745*#512-0.90745*#519]
#101=[#520+0.90745*#513-0.90745*#520]
#100=[#102+0.92518*#101-0.92518*#102]
G01 X44.1794 Y10.3891Z[#100+-0.1306]
#102=[#519+0.90657*#512-0.90657*#519]
#101=[#520+0.90657*#513-0.90657*#520]
#100=[#102+0.92436*#101-0.92436*#102]
G01 X44.1734 Y10.3966Z[#100+-0.1306]
#102=[#519+0.90577*#512-0.90577*#519]
#101=[#520+0.90577*#513-0.90577*#520]
#100=[#102+0.92343*#101-0.92343*#102]
G01 X44.1666 Y10.4034Z[#100+-0.1306]
#102=[#519+0.90506*#512-0.90506*#519]
#101=[#520+0.90506*#513-0.90506*#520]
#100=[#102+0.92240*#101-0.92240*#102]
G01 X44.1591 Y10.4094Z[#100+-0.1306]
#102=[#519+0.90446*#512-0.90446*#519]
#101=[#520+0.90446*#513-0.90446*#520]
#100=[#102+0.92127*#101-0.92127*#102]
G01 X44.1509 Y10.4145Z[#100+-0.1306]
#102=[#519+0.90397*#512-0.90397*#519]
#101=[#520+0.90397*#513-0.90397*#520]
#100=[#102+0.92007*#101-0.92007*#102]
G01 X44.1422 Y10.4187Z[#100+-0.1306]
#102=[#519+0.90360*#512-0.90360*#519]
#101=[#520+0.90360*#513-0.90360*#520]
#100=[#102+0.91882*#101-0.91882*#102]
G01 X44.1331 Y10.4218Z[#100+-0.1306]
#102=[#519+0.90335*#512-0.90335*#519]
#101=[#520+0.90335*#513-0.90335*#520]
#100=[#102+0.91753*#101-0.91753*#102]
G01 X44.1237 Y10.4239Z[#100+-0.1306]
#102=[#519+0.90324*#512-0.90324*#519]
#101=[#520+0.90324*#513-0.90324*#520]
#100=[#102+0.91623*#101-0.91623*#102]
G01 X44.1142 Y10.4249Z[#100+-0.1306]
#102=[#519+0.90322*#512-0.90322*#519]
#101=[#520+0.90322*#513-0.90322*#520]
#100=[#102+0.69443*#101-0.69443*#102]
G01 X42.4991 Y10.4250Z[#100+-0.1306]
#102=[#519+0.86752*#512-0.86752*#519]
#101=[#520+0.86752*#513-0.86752*#520]
#100=[#102+0.69443*#101-0.69443*#102]
G01 X42.4991 Y10.7284Z[#100+-0.1306]
#102=[#519+0.86346*#512-0.86346*#519]
#101=[#520+0.86346*#513-0.86346*#520]
#100=[#102+0.69917*#101-0.69917*#102]
G01 X42.5336 Y10.7629Z[#100+-0.1306]
#102=[#519+0.86346*#512-0.86346*#519]
#101=[#520+0.86346*#513-0.86346*#520]
#100=[#102+0.90096*#101-0.90096*#102]
G01 X44.0030 Y10.7629Z[#100+-0.1306]
#102=[#519+0.86329*#512-0.86329*#519]
#101=[#520+0.86329*#513-0.86329*#520]
#100=[#102+0.90421*#101-0.90421*#102]
G01 X44.0267 Y10.7643Z[#100+-0.1306]
#102=[#519+0.86269*#512-0.86269*#519]
#101=[#520+0.86269*#513-0.86269*#520]
#100=[#102+0.90807*#101-0.90807*#102]
G01 X44.0548 Y10.7694Z[#100+-0.1306]
#102=[#519+0.86206*#512-0.86206*#519]
#101=[#520+0.86206*#513-0.86206*#520]
#100=[#102+0.91057*#101-0.91057*#102]
G01 X44.0730 Y10.7748Z[#100+-0.1306]
#102=[#519+0.86121*#512-0.86121*#519]
#101=[#520+0.86121*#513-0.86121*#520]
#100=[#102+0.91300*#101-0.91300*#102]
G01 X44.0907 Y10.7820Z[#100+-0.1306]
#102=[#519+0.85963*#512-0.85963*#519]
#101=[#520+0.85963*#513-0.85963*#520]
#100=[#102+0.91645*#101-0.91645*#102]
G01 X44.1158 Y10.7954Z[#100+-0.1306]
#102=[#519+0.85764*#512-0.85764*#519]
#101=[#520+0.85764*#513-0.85764*#520]
#100=[#102+0.91962*#101-0.91962*#102]
G01 X44.1389 Y10.8123Z[#100+-0.1306]
#102=[#519+0.85615*#512-0.85615*#519]
#101=[#520+0.85615*#513-0.85615*#520]
#100=[#102+0.92156*#101-0.92156*#102]
G01 X44.1530 Y10.8250Z[#100+-0.1306]
#102=[#519+0.85449*#512-0.85449*#519]
#101=[#520+0.85449*#513-0.85449*#520]
#100=[#102+0.92330*#101-0.92330*#102]
G01 X44.1657 Y10.8391Z[#100+-0.1306]
#102=[#519+0.85177*#512-0.85177*#519]
#101=[#520+0.85177*#513-0.85177*#520]
#100=[#102+0.92562*#101-0.92562*#102]
G01 X44.1826 Y10.8622Z[#100+-0.1306]
#102=[#519+0.84882*#512-0.84882*#519]
#101=[#520+0.84882*#513-0.84882*#520]
#100=[#102+0.92746*#101-0.92746*#102]
G01 X44.1960 Y10.8873Z[#100+-0.1306]
#102=[#519+0.84674*#512-0.84674*#519]
#101=[#520+0.84674*#513-0.84674*#520]
#100=[#102+0.92845*#101-0.92845*#102]
G01 X44.2032 Y10.9050Z[#100+-0.1306]
#102=[#519+0.84459*#512-0.84459*#519]
#101=[#520+0.84459*#513-0.84459*#520]
#100=[#102+0.92919*#101-0.92919*#102]
G01 X44.2086 Y10.9232Z[#100+-0.1306]
#102=[#519+0.84129*#512-0.84129*#519]
#101=[#520+0.84129*#513-0.84129*#520]
#100=[#102+0.92989*#101-0.92989*#102]
G01 X44.2137 Y10.9513Z[#100+-0.1306]
#102=[#519+0.83850*#512-0.83850*#519]
#101=[#520+0.83850*#513-0.83850*#520]
#100=[#102+0.93009*#101-0.93009*#102]
G01 X44.2151 Y10.9750Z[#100+-0.1306]
#102=[#519+0.25007*#512-0.25007*#519]
#101=[#520+0.25007*#513-0.25007*#520]
#100=[#102+0.93009*#101-0.93009*#102]
G01 X44.21510 Y15.97500Z[#100+-0.1306] ;segmented line. Max segment length set to 5
#102=[#519+0.12579*#512-0.12579*#519]
#101=[#520+0.12579*#513-0.12579*#520]
#100=[#102+0.93009*#101-0.93009*#102]
G01 X44.2151 Y17.0310Z[#100+-0.1306]
#102=[#519+0.12297*#512-0.12297*#519]
#101=[#520+0.12297*#513-0.12297*#520]
#100=[#102+0.92989*#101-0.92989*#102]
G01 X44.2137 Y17.0550Z[#100+-0.1306]
#102=[#519+0.12018*#512-0.12018*#519]
#101=[#520+0.12018*#513-0.12018*#520]
#100=[#102+0.92933*#101-0.92933*#102]
G01 X44.2096 Y17.0787Z[#100+-0.1306]
#102=[#519+0.11694*#512-0.11694*#519]
#101=[#520+0.11694*#513-0.11694*#520]
#100=[#102+0.92818*#101-0.92818*#102]
G01 X44.2012 Y17.1062Z[#100+-0.1306]
#102=[#519+0.11486*#512-0.11486*#519]
#101=[#520+0.11486*#513-0.11486*#520]
#100=[#102+0.92715*#101-0.92715*#102]
G01 X44.1937 Y17.1239Z[#100+-0.1306]
#102=[#519+0.11240*#512-0.11240*#519]
#101=[#520+0.11240*#513-0.11240*#520]
#100=[#102+0.92553*#101-0.92553*#102]
G01 X44.1819 Y17.1448Z[#100+-0.1306]
#102=[#519+0.10967*#512-0.10967*#519]
#101=[#520+0.10967*#513-0.10967*#520]
#100=[#102+0.92318*#101-0.92318*#102]
G01 X44.1648 Y17.1680Z[#100+-0.1306]
#102=[#519+0.10801*#512-0.10801*#519]
#101=[#520+0.10801*#513-0.10801*#520]
#100=[#102+0.92139*#101-0.92139*#102]
G01 X44.1518 Y17.1821Z[#100+-0.1306]
#102=[#519+0.10650*#512-0.10650*#519]
#101=[#520+0.10650*#513-0.10650*#520]
#100=[#102+0.91941*#101-0.91941*#102]
G01 X44.1374 Y17.1949Z[#100+-0.1306]
#102=[#519+0.10452*#512-0.10452*#519]
#101=[#520+0.10452*#513-0.10452*#520]
#100=[#102+0.91620*#101-0.91620*#102]
G01 X44.1140 Y17.2117Z[#100+-0.1306]
#102=[#519+0.10296*#512-0.10296*#519]
#101=[#520+0.10296*#513-0.10296*#520]
#100=[#102+0.91270*#101-0.91270*#102]
G01 X44.0885 Y17.2250Z[#100+-0.1306]
#102=[#519+0.10214*#512-0.10214*#519]
#101=[#520+0.10214*#513-0.10214*#520]
#100=[#102+0.91024*#101-0.91024*#102]
G01 X44.0706 Y17.2320Z[#100+-0.1306]
#102=[#519+0.10152*#512-0.10152*#519]
#101=[#520+0.10152*#513-0.10152*#520]
#100=[#102+0.90770*#101-0.90770*#102]
G01 X44.0521 Y17.2372Z[#100+-0.1306]
#102=[#519+0.10103*#512-0.10103*#519]
#101=[#520+0.10103*#513-0.10103*#520]
#100=[#102+0.90446*#101-0.90446*#102]
G01 X44.0285 Y17.2414Z[#100+-0.1306]
#102=[#519+0.10091*#512-0.10091*#519]
#101=[#520+0.10091*#513-0.10091*#520]
#100=[#102+0.90314*#101-0.90314*#102]
G01 X44.0189 Y17.2424Z[#100+-0.1306]
#102=[#519+0.10084*#512-0.10084*#519]
#101=[#520+0.10084*#513-0.10084*#520]
#100=[#102+0.90050*#101-0.90050*#102]
G01 X43.9997 Y17.2430Z[#100+-0.1306]
#102=[#519+0.10577*#512-0.10577*#519]
#101=[#520+0.10577*#513-0.10577*#520]
#100=[#102+0.53184*#101-0.53184*#102]
G01 X41.3152 Y17.2011Z[#100+-0.1306]
#102=[#526+0.95498*#519-0.95498*#526]
#101=[#527+0.95498*#520-0.95498*#527]
#100=[#102+0.53184*#101-0.53184*#102]
G01 X41.3152 Y18.4824Z[#100+-0.1306]
#102=[#526+0.94220*#519-0.94220*#526]
#101=[#527+0.94220*#520-0.94220*#527]
#100=[#102+0.57660*#101-0.57660*#102]
G01 X41.6411 Y18.5910Z[#100+-0.1306]
#102=[#526+0.94966*#519-0.94966*#526]
#101=[#527+0.94966*#520-0.94966*#527]
#100=[#102+0.58281*#101-0.58281*#102]
G01 X41.6863 Y18.5276Z[#100+-0.1306]
#102=[#526+0.96279*#519-0.96279*#526]
#101=[#527+0.96279*#520-0.96279*#527]
#100=[#102+0.59650*#101-0.59650*#102]
G01 X41.7860 Y18.4160Z[#100+-0.1306]
#102=[#526+0.97453*#519-0.97453*#526]
#101=[#527+0.97453*#520-0.97453*#527]
#100=[#102+0.61182*#101-0.61182*#102]
G01 X41.8976 Y18.3163Z[#100+-0.1306]
#102=[#526+0.98473*#519-0.98473*#526]
#101=[#527+0.98473*#520-0.98473*#527]
#100=[#102+0.62859*#101-0.62859*#102]
G01 X42.0197 Y18.2296Z[#100+-0.1306]
#102=[#526+0.99325*#519-0.99325*#526]
#101=[#527+0.99325*#520-0.99325*#527]
#100=[#102+0.64660*#101-0.64660*#102]
G01 X42.1508 Y18.1572Z[#100+-0.1306]
#102=[#526+1.00000*#519-1.00000*#526]
#101=[#527+1.00000*#520-1.00000*#527]
#100=[#102+0.66559*#101-0.66559*#102]
G01 X42.2891 Y18.0999Z[#100+-0.1306]
#102=[#519+0.00487*#512-0.00487*#519]
#101=[#520+0.00487*#513-0.00487*#520]
#100=[#102+0.68534*#101-0.68534*#102]
G01 X42.4329 Y18.0585Z[#100+-0.1306]
#102=[#519+0.00782*#512-0.00782*#519]
#101=[#520+0.00782*#513-0.00782*#520]
#100=[#102+0.70561*#101-0.70561*#102]
G01 X42.5805 Y18.0334Z[#100+-0.1306]
#102=[#519+0.00880*#512-0.00880*#519]
#101=[#520+0.00880*#513-0.00880*#520]
#100=[#102+0.72548*#101-0.72548*#102]
G01 X42.7252 Y18.0251Z[#100+-0.1306]
#102=[#519+0.00880*#512-0.00880*#519]
#101=[#520+0.00880*#513-0.00880*#520]
#100=[#102+0.72680*#101-0.72680*#102]
G01 X42.7348 Y18.0251Z[#100+-0.1306]
#102=[#519+0.00782*#512-0.00782*#519]
#101=[#520+0.00782*#513-0.00782*#520]
#100=[#102+0.74667*#101-0.74667*#102]
G01 X42.8795 Y18.0334Z[#100+-0.1306]
#102=[#519+0.00487*#512-0.00487*#519]
#101=[#520+0.00487*#513-0.00487*#520]
#100=[#102+0.76694*#101-0.76694*#102]
G01 X43.0271 Y18.0585Z[#100+-0.1306]
#102=[#519+0.00016*#512-0.00016*#519]
#101=[#520+0.00016*#513-0.00016*#520]
#100=[#102+0.78607*#101-0.78607*#102]
G01 X43.1664 Y18.0985Z[#100+-0.1306]
#102=[#526+0.99980*#519-0.99980*#526]
#101=[#527+0.99980*#520-0.99980*#527]
#100=[#102+0.78730*#101-0.78730*#102]
G01 X43.1754 Y18.1016Z[#100+-0.1306]
#102=[#526+0.99325*#519-0.99325*#526]
#101=[#527+0.99325*#520-0.99325*#527]
#100=[#102+0.80568*#101-0.80568*#102]
G01 X43.3092 Y18.1572Z[#100+-0.1306]
#102=[#526+0.98501*#519-0.98501*#526]
#101=[#527+0.98501*#520-0.98501*#527]
#100=[#102+0.82312*#101-0.82312*#102]
G01 X43.4362 Y18.2272Z[#100+-0.1306]
#102=[#526+0.98441*#519-0.98441*#526]
#101=[#527+0.98441*#520-0.98441*#527]
#100=[#102+0.82422*#101-0.82422*#102]
G01 X43.4442 Y18.2323Z[#100+-0.1306]
#102=[#526+0.97487*#519-0.97487*#526]
#101=[#527+0.97487*#520-0.97487*#527]
#100=[#102+0.83991*#101-0.83991*#102]
G01 X43.5585 Y18.3134Z[#100+-0.1306]
#102=[#526+0.97417*#519-0.97417*#526]
#101=[#527+0.97417*#520-0.97417*#527]
#100=[#102+0.84094*#101-0.84094*#102]
G01 X43.5660 Y18.3193Z[#100+-0.1306]
#102=[#526+0.96279*#519-0.96279*#526]
#101=[#527+0.96279*#520-0.96279*#527]
#100=[#102+0.85578*#101-0.85578*#102]
G01 X43.6740 Y18.4160Z[#100+-0.1306]
#102=[#526+0.94966*#519-0.94966*#526]
#101=[#527+0.94966*#520-0.94966*#527]
#100=[#102+0.86947*#101-0.86947*#102]
G01 X43.7737 Y18.5276Z[#100+-0.1306]
#102=[#526+0.93529*#519-0.93529*#526]
#101=[#527+0.93529*#520-0.93529*#527]
#100=[#102+0.88137*#101-0.88137*#102]
G01 X43.8604 Y18.6497Z[#100+-0.1306]
#102=[#526+0.92037*#519-0.92037*#526]
#101=[#527+0.92037*#520-0.92037*#527]
#100=[#102+0.89102*#101-0.89102*#102]
G01 X43.9306 Y18.7765Z[#100+-0.1306]
#102=[#526+0.91936*#519-0.91936*#526]
#101=[#527+0.91936*#520-0.91936*#527]
#100=[#102+0.89158*#101-0.89158*#102]
G01 X43.9347 Y18.7851Z[#100+-0.1306]
#102=[#526+0.90412*#519-0.90412*#526]
#101=[#527+0.90412*#520-0.90412*#527]
#100=[#102+0.89895*#101-0.89895*#102]
G01 X43.9884 Y18.9146Z[#100+-0.1306]
#102=[#526+0.90306*#519-0.90306*#526]
#101=[#527+0.90306*#520-0.90306*#527]
#100=[#102+0.89938*#101-0.89938*#102]
G01 X43.9915 Y18.9236Z[#100+-0.1306]
#102=[#526+0.88666*#519-0.88666*#526]
#101=[#527+0.88666*#520-0.88666*#527]
#100=[#102+0.90487*#101-0.90487*#102]
G01 X44.0315 Y19.0629Z[#100+-0.1306]
#102=[#526+0.86929*#519-0.86929*#526]
#101=[#527+0.86929*#520-0.86929*#527]
#100=[#102+0.90832*#101-0.90832*#102]
G01 X44.0566 Y19.2105Z[#100+-0.1306]
#102=[#526+0.85170*#519-0.85170*#526]
#101=[#527+0.85170*#520-0.85170*#527]
#100=[#102+0.90947*#101-0.90947*#102]
G01 X44.0650 Y19.3600Z[#100+-0.1306]
#102=[#526+0.83467*#519-0.83467*#526]
#101=[#527+0.83467*#520-0.83467*#527]
#100=[#102+0.90837*#101-0.90837*#102]
G01 X44.0570 Y19.5047Z[#100+-0.1306]
#102=[#526+0.83355*#519-0.83355*#526]
#101=[#527+0.83355*#520-0.83355*#527]
#100=[#102+0.90822*#101-0.90822*#102]
G01 X44.0559 Y19.5142Z[#100+-0.1306]
#102=[#526+0.81729*#519-0.81729*#526]
#101=[#527+0.81729*#520-0.81729*#527]
#100=[#102+0.90501*#101-0.90501*#102]
G01 X44.0325 Y19.6524Z[#100+-0.1306]
#102=[#526+0.81619*#519-0.81619*#526]
#101=[#527+0.81619*#520-0.81619*#527]
#100=[#102+0.90471*#101-0.90471*#102]
G01 X44.0303 Y19.6617Z[#100+-0.1306]
#102=[#526+0.79981*#519-0.79981*#526]
#101=[#527+0.79981*#520-0.79981*#527]
#100=[#102+0.89919*#101-0.89919*#102]
G01 X43.9901 Y19.8009Z[#100+-0.1306]
#102=[#526+0.78354*#519-0.78354*#526]
#101=[#527+0.78354*#520-0.78354*#527]
#100=[#102+0.89132*#101-0.89132*#102]
G01 X43.9328 Y19.9392Z[#100+-0.1306]
#102=[#526+0.76811*#519-0.76811*#526]
#101=[#527+0.76811*#520-0.76811*#527]
#100=[#102+0.88137*#101-0.88137*#102]
G01 X43.8604 Y20.0703Z[#100+-0.1306]
#102=[#526+0.75374*#519-0.75374*#526]
#101=[#527+0.75374*#520-0.75374*#527]
#100=[#102+0.86947*#101-0.86947*#102]
G01 X43.7737 Y20.1924Z[#100+-0.1306]
#102=[#526+0.74060*#519-0.74060*#526]
#101=[#527+0.74060*#520-0.74060*#527]
#100=[#102+0.85578*#101-0.85578*#102]
G01 X43.6740 Y20.3040Z[#100+-0.1306]
#102=[#526+0.72922*#519-0.72922*#526]
#101=[#527+0.72922*#520-0.72922*#527]
#100=[#102+0.84094*#101-0.84094*#102]
G01 X43.5660 Y20.4007Z[#100+-0.1306]
#102=[#526+0.72853*#519-0.72853*#526]
#101=[#527+0.72853*#520-0.72853*#527]
#100=[#102+0.83991*#101-0.83991*#102]
G01 X43.5585 Y20.4066Z[#100+-0.1306]
#102=[#526+0.71898*#519-0.71898*#526]
#101=[#527+0.71898*#520-0.71898*#527]
#100=[#102+0.82422*#101-0.82422*#102]
G01 X43.4442 Y20.4877Z[#100+-0.1306]
#102=[#526+0.71838*#519-0.71838*#526]
#101=[#527+0.71838*#520-0.71838*#527]
#100=[#102+0.82312*#101-0.82312*#102]
G01 X43.4362 Y20.4928Z[#100+-0.1306]
#102=[#526+0.71015*#519-0.71015*#526]
#101=[#527+0.71015*#520-0.71015*#527]
#100=[#102+0.80568*#101-0.80568*#102]
G01 X43.3092 Y20.5628Z[#100+-0.1306]
#102=[#526+0.70340*#519-0.70340*#526]
#101=[#527+0.70340*#520-0.70340*#527]
#100=[#102+0.78669*#101-0.78669*#102]
G01 X43.1709 Y20.6201Z[#100+-0.1306]
#102=[#526+0.69853*#519-0.69853*#526]
#101=[#527+0.69853*#520-0.69853*#527]
#100=[#102+0.76694*#101-0.76694*#102]
G01 X43.0271 Y20.6615Z[#100+-0.1306]
#102=[#526+0.69558*#519-0.69558*#526]
#101=[#527+0.69558*#520-0.69558*#527]
#100=[#102+0.74667*#101-0.74667*#102]
G01 X42.8795 Y20.6866Z[#100+-0.1306]
#102=[#526+0.69459*#519-0.69459*#526]
#101=[#527+0.69459*#520-0.69459*#527]
#100=[#102+0.72614*#101-0.72614*#102]
G01 X42.7300 Y20.6950Z[#100+-0.1306]
#102=[#526+0.69553*#519-0.69553*#526]
#101=[#527+0.69553*#520-0.69553*#527]
#100=[#102+0.70627*#101-0.70627*#102]
G01 X42.5853 Y20.6870Z[#100+-0.1306]
#102=[#526+0.69566*#519-0.69566*#526]
#101=[#527+0.69566*#520-0.69566*#527]
#100=[#102+0.70496*#101-0.70496*#102]
G01 X42.5758 Y20.6859Z[#100+-0.1306]
#102=[#526+0.69841*#519-0.69841*#526]
#101=[#527+0.69841*#520-0.69841*#527]
#100=[#102+0.68598*#101-0.68598*#102]
G01 X42.4376 Y20.6625Z[#100+-0.1306]
#102=[#526+0.69867*#519-0.69867*#526]
#101=[#527+0.69867*#520-0.69867*#527]
#100=[#102+0.68470*#101-0.68470*#102]
G01 X42.4283 Y20.6603Z[#100+-0.1306]
#102=[#526+0.70340*#519-0.70340*#526]
#101=[#527+0.70340*#520-0.70340*#527]
#100=[#102+0.66559*#101-0.66559*#102]
G01 X42.2891 Y20.6201Z[#100+-0.1306]
#102=[#526+0.71015*#519-0.71015*#526]
#101=[#527+0.71015*#520-0.71015*#527]
#100=[#102+0.64660*#101-0.64660*#102]
G01 X42.1508 Y20.5628Z[#100+-0.1306]
#102=[#526+0.71838*#519-0.71838*#526]
#101=[#527+0.71838*#520-0.71838*#527]
#100=[#102+0.62916*#101-0.62916*#102]
G01 X42.0238 Y20.4928Z[#100+-0.1306]
#102=[#526+0.71898*#519-0.71898*#526]
#101=[#527+0.71898*#520-0.71898*#527]
#100=[#102+0.62806*#101-0.62806*#102]
G01 X42.0158 Y20.4877Z[#100+-0.1306]
#102=[#526+0.72887*#519-0.72887*#526]
#101=[#527+0.72887*#520-0.72887*#527]
#100=[#102+0.61182*#101-0.61182*#102]
G01 X41.8976 Y20.4037Z[#100+-0.1306]
#102=[#526+0.74021*#519-0.74021*#526]
#101=[#527+0.74021*#520-0.74021*#527]
#100=[#102+0.59698*#101-0.59698*#102]
G01 X41.7895 Y20.3073Z[#100+-0.1306]
#102=[#526+0.74102*#519-0.74102*#526]
#101=[#527+0.74102*#520-0.74102*#527]
#100=[#102+0.59604*#101-0.59604*#102]
G01 X41.7827 Y20.3005Z[#100+-0.1306]
#102=[#526+0.75374*#519-0.75374*#526]
#101=[#527+0.75374*#520-0.75374*#527]
#100=[#102+0.58281*#101-0.58281*#102]
G01 X41.6863 Y20.1924Z[#100+-0.1306]
#102=[#526+0.76811*#519-0.76811*#526]
#101=[#527+0.76811*#520-0.76811*#527]
#100=[#102+0.57090*#101-0.57090*#102]
G01 X41.5996 Y20.0703Z[#100+-0.1306]
#102=[#526+0.78303*#519-0.78303*#526]
#101=[#527+0.78303*#520-0.78303*#527]
#100=[#102+0.56126*#101-0.56126*#102]
G01 X41.5294 Y19.9435Z[#100+-0.1306]
#102=[#526+0.78404*#519-0.78404*#526]
#101=[#527+0.78404*#520-0.78404*#527]
#100=[#102+0.56070*#101-0.56070*#102]
G01 X41.5253 Y19.9349Z[#100+-0.1306]
#102=[#526+0.79981*#519-0.79981*#526]
#101=[#527+0.79981*#520-0.79981*#527]
#100=[#102+0.55309*#101-0.55309*#102]
G01 X41.4699 Y19.8009Z[#100+-0.1306]
#102=[#526+0.81619*#519-0.81619*#526]
#101=[#527+0.81619*#520-0.81619*#527]
#100=[#102+0.54757*#101-0.54757*#102]
G01 X41.4297 Y19.6617Z[#100+-0.1306]
#102=[#526+0.81729*#519-0.81729*#526]
#101=[#527+0.81729*#520-0.81729*#527]
#100=[#102+0.54727*#101-0.54727*#102]
G01 X41.4275 Y19.6524Z[#100+-0.1306]
#102=[#526+0.83410*#519-0.83410*#526]
#101=[#527+0.83410*#520-0.83410*#527]
#100=[#102+0.54396*#101-0.54396*#102]
G01 X41.4034 Y19.5095Z[#100+-0.1306]
#102=[#526+0.85113*#519-0.85113*#526]
#101=[#527+0.85113*#520-0.85113*#527]
#100=[#102+0.54282*#101-0.54282*#102]
G01 X41.3951 Y19.3648Z[#100+-0.1306]
#102=[#526+0.85621*#519-0.85621*#526]
#101=[#527+0.85621*#520-0.85621*#527]
#100=[#102+0.54308*#101-0.54308*#102]
G01 X41.3970 Y19.3217Z[#100+-0.1306]
#102=[#526+0.87931*#519-0.87931*#526]
#101=[#527+0.87931*#520-0.87931*#527]
#100=[#102+0.46222*#101-0.46222*#102]
G01 X40.8082 Y19.1254Z[#100+-0.1306]
#102=[#526+0.88147*#519-0.88147*#526]
#101=[#527+0.88147*#520-0.88147*#527]
#100=[#102+0.45600*#101-0.45600*#102]
G01 X40.7629 Y19.1070Z[#100+-0.1306]
#102=[#526+0.88358*#519-0.88358*#526]
#101=[#527+0.88358*#520-0.88358*#527]
#100=[#102+0.45148*#101-0.45148*#102]
G01 X40.7300 Y19.0891Z[#100+-0.1306]
#102=[#526+0.88612*#519-0.88612*#526]
#101=[#527+0.88612*#520-0.88612*#527]
#100=[#102+0.44711*#101-0.44711*#102]
G01 X40.6982 Y19.0675Z[#100+-0.1306]
#102=[#526+0.88724*#519-0.88724*#526]
#101=[#527+0.88724*#520-0.88724*#527]
#100=[#102+0.44546*#101-0.44546*#102]
G01 X40.6862 Y19.0580Z[#100+-0.1306]
#102=[#526+0.89026*#519-0.89026*#526]
#101=[#527+0.89026*#520-0.89026*#527]
#100=[#102+0.44155*#101-0.44155*#102]
G01 X40.6577 Y19.0323Z[#100+-0.1306]
#102=[#526+0.89352*#519-0.89352*#526]
#101=[#527+0.89352*#520-0.89352*#527]
#100=[#102+0.43809*#101-0.43809*#102]
G01 X40.6325 Y19.0046Z[#100+-0.1306]
#102=[#526+0.89716*#519-0.89716*#526]
#101=[#527+0.89716*#520-0.89716*#527]
#100=[#102+0.43496*#101-0.43496*#102]
G01 X40.6097 Y18.9737Z[#100+-0.1306]
#102=[#526+0.89868*#519-0.89868*#526]
#101=[#527+0.89868*#520-0.89868*#527]
#100=[#102+0.43383*#101-0.43383*#102]
G01 X40.6015 Y18.9608Z[#100+-0.1306]
#102=[#526+0.90265*#519-0.90265*#526]
#101=[#527+0.90265*#520-0.90265*#527]
#100=[#102+0.43129*#101-0.43129*#102]
G01 X40.5830 Y18.9271Z[#100+-0.1306]
#102=[#526+0.90734*#519-0.90734*#526]
#101=[#527+0.90734*#520-0.90734*#527]
#100=[#102+0.42902*#101-0.42902*#102]
G01 X40.5665 Y18.8872Z[#100+-0.1306]
#102=[#526+0.91222*#519-0.91222*#526]
#101=[#527+0.91222*#520-0.91222*#527]
#100=[#102+0.42738*#101-0.42738*#102]
G01 X40.5545 Y18.8457Z[#100+-0.1306]
#102=[#526+0.91724*#519-0.91724*#526]
#101=[#527+0.91724*#520-0.91724*#527]
#100=[#102+0.42639*#101-0.42639*#102]
G01 X40.5473 Y18.8031Z[#100+-0.1306]
#102=[#526+0.92164*#519-0.92164*#526]
#101=[#527+0.92164*#520-0.92164*#527]
#100=[#102+0.42606*#101-0.42606*#102]
G01 X40.5449 Y18.7657Z[#100+-0.1306]
#102=[#519+0.10718*#512-0.10718*#519]
#101=[#520+0.10718*#513-0.10718*#520]
#100=[#102+0.42604*#101-0.42604*#102]
G01 X40.5448 Y17.1891Z[#100+-0.1306]
#102=[#519+0.11216*#512-0.11216*#519]
#101=[#520+0.11216*#513-0.11216*#520]
#100=[#102+0.05594*#101-0.05594*#102]
G01 X37.8498 Y17.1468Z[#100+-0.1306]
#102=[#519+0.11234*#512-0.11234*#519]
#101=[#520+0.11234*#513-0.11234*#520]
#100=[#102+0.05336*#101-0.05336*#102]
G01 X37.8310 Y17.1453Z[#100+-0.1306]
#102=[#519+0.11273*#512-0.11273*#519]
#101=[#520+0.11273*#513-0.11273*#520]
#100=[#102+0.05081*#101-0.05081*#102]
G01 X37.8124 Y17.1420Z[#100+-0.1306]
#102=[#519+0.11364*#512-0.11364*#519]
#101=[#520+0.11364*#513-0.11364*#520]
#100=[#102+0.04706*#101-0.04706*#102]
G01 X37.7851 Y17.1342Z[#100+-0.1306]
#102=[#519+0.11501*#512-0.11501*#519]
#101=[#520+0.11501*#513-0.11501*#520]
#100=[#102+0.04350*#101-0.04350*#102]
G01 X37.7592 Y17.1226Z[#100+-0.1306]
#102=[#519+0.11613*#512-0.11613*#519]
#101=[#520+0.11613*#513-0.11613*#520]
#100=[#102+0.04125*#101-0.04125*#102]
G01 X37.7428 Y17.1131Z[#100+-0.1306]
#102=[#519+0.11776*#512-0.11776*#519]
#101=[#520+0.11776*#513-0.11776*#520]
#100=[#102+0.03862*#101-0.03862*#102]
G01 X37.7237 Y17.0992Z[#100+-0.1306]
#102=[#519+0.11965*#512-0.11965*#519]
#101=[#520+0.11965*#513-0.11965*#520]
#100=[#102+0.03622*#101-0.03622*#102]
G01 X37.7062 Y17.0832Z[#100+-0.1306]
#102=[#519+0.12131*#512-0.12131*#519]
#101=[#520+0.12131*#513-0.12131*#520]
#100=[#102+0.03450*#101-0.03450*#102]
G01 X37.6937 Y17.0691Z[#100+-0.1306]
#102=[#519+0.12402*#512-0.12402*#519]
#101=[#520+0.12402*#513-0.12402*#520]
#100=[#102+0.03224*#101-0.03224*#102]
G01 X37.6772 Y17.0460Z[#100+-0.1306]
#102=[#519+0.12699*#512-0.12699*#519]
#101=[#520+0.12699*#513-0.12699*#520]
#100=[#102+0.03044*#101-0.03044*#102]
G01 X37.6641 Y17.0208Z[#100+-0.1306]
#102=[#519+0.12906*#512-0.12906*#519]
#101=[#520+0.12906*#513-0.12906*#520]
#100=[#102+0.02948*#101-0.02948*#102]
G01 X37.6571 Y17.0032Z[#100+-0.1306]
#102=[#519+0.13120*#512-0.13120*#519]
#101=[#520+0.13120*#513-0.13120*#520]
#100=[#102+0.02876*#101-0.02876*#102]
G01 X37.6519 Y16.9850Z[#100+-0.1306]
#102=[#519+0.13449*#512-0.13449*#519]
#101=[#520+0.13449*#513-0.13449*#520]
#100=[#102+0.02809*#101-0.02809*#102]
G01 X37.6470 Y16.9571Z[#100+-0.1306]
#102=[#519+0.13726*#512-0.13726*#519]
#101=[#520+0.13726*#513-0.13726*#520]
#100=[#102+0.02793*#101-0.02793*#102]
G01 X37.6458 Y16.9335Z[#100+-0.1306]
#102=[#519+0.72568*#512-0.72568*#519]
#101=[#520+0.72568*#513-0.72568*#520]
#100=[#102+0.03281*#101-0.03281*#102]
G01 X37.68139 Y11.93363Z[#100+-0.1306] ;segmented line. Max segment length set to 5
#102=[#512+0.31409*#505-0.31409*#512]
#101=[#513+0.31409*#506-0.31409*#513]
#100=[#102+0.03770*#101-0.03770*#102]
G01 X37.71698 Y6.93376Z[#100+-0.1306] ;segmented line. Max segment length set to 5
#102=[#512+0.76086*#505-0.76086*#512]
#101=[#513+0.76086*#506-0.76086*#513]
#100=[#102+0.04141*#101-0.04141*#102]
G01 X37.7440 Y3.1375Z[#100+-0.1306]
#102=[#512+0.76367*#505-0.76367*#512]
#101=[#513+0.76367*#506-0.76367*#513]
#100=[#102+0.04162*#101-0.04162*#102]
G01 X37.7455 Y3.1136Z[#100+-0.1306]
#102=[#512+0.76589*#505-0.76589*#512]
#101=[#513+0.76589*#506-0.76589*#513]
#100=[#102+0.04207*#101-0.04207*#102]
G01 X37.7488 Y3.0948Z[#100+-0.1306]
#102=[#512+0.76861*#505-0.76861*#512]
#101=[#513+0.76861*#506-0.76861*#513]
#100=[#102+0.04294*#101-0.04294*#102]
G01 X37.7551 Y3.0717Z[#100+-0.1306]
#102=[#512+0.76966*#505-0.76966*#512]
#101=[#513+0.76966*#506-0.76966*#513]
#100=[#102+0.04338*#101-0.04338*#102]
G01 X37.7583 Y3.0627Z[#100+-0.1306]
#102=[#512+0.77172*#505-0.77172*#512]
#101=[#513+0.77172*#506-0.77172*#513]
#100=[#102+0.04442*#101-0.04442*#102]
G01 X37.7659 Y3.0452Z[#100+-0.1306]
#102=[#512+0.77417*#505-0.77417*#512]
#101=[#513+0.77417*#506-0.77417*#513]
#100=[#102+0.04604*#101-0.04604*#102]
G01 X37.7777 Y3.0244Z[#100+-0.1306]
#102=[#512+0.77688*#505-0.77688*#512]
#101=[#513+0.77688*#506-0.77688*#513]
#100=[#102+0.04840*#101-0.04840*#102]
G01 X37.7949 Y3.0014Z[#100+-0.1306]
#102=[#512+0.77853*#505-0.77853*#512]
#101=[#513+0.77853*#506-0.77853*#513]
