(G-CODE GENERATED BY FLATCAM v8.905 - www.flatcam.org - Version Date: 2019/01/29)

(Name: Rectifier-Edge.Cuts.gbr_cutout_cnc)
(Type: G-code from Geometry)
(Units: MM)

(Created on Sunday, 10 February 2019 at 20:53)

(TOOL DIAMETER: 0.8 mm)
(Feedrate: 400.0 mm/min)
(Feedrate_Z: 350.0 mm/min)
(Feedrate rapids 800.0 mm/min)

(Z_Cut: -2.1 mm)
(Z_Move: 2.0 mm)
(Z Toolchange: 50.0 mm)
(X,Y Toolchange: 0.0000, 0.0000 mm)
(Z Start: 1.0 mm)
(Z End: 20.0 mm)
(Steps per circle: 64)
(Postprocessor Geometry: default)
(Spindle Speed: 18000 RPM)
G94 ( Millimeters per minute feed rate. )
G21 ( Units == Millimeters. )
G90 ( Absolute coordinates. )
G64 P0.01000 ( set maximum deviation from commanded toolpath )
G21
G90
G94
G21
G90
G94

G01 F400.00
G00 Z2.0000
G00 Z1.0000
M03 S18000
G00 X-0.6201 Y17.6100
G01 F350.00
G01 Z-2.1000
G01 F400.00
G01 X-0.6201 Y-0.5401
G01 X22.4050 Y-0.5401
G00 Z2.0000
G00 X23.3550 Y-0.5401
G01 F350.00
G01 Z-2.1000
G01 F400.00
G01 X46.3801 Y-0.5401
G01 X46.3801 Y17.6100
G00 Z2.0000
G00 X46.3801 Y18.5600
G01 F350.00
G01 Z-2.1000
G01 F400.00
G01 X46.3801 Y36.7101
G01 X23.3550 Y36.7101
G00 Z2.0000
G00 X22.4050 Y36.7101
G01 F350.00
G01 Z-2.1000
G01 F400.00
G01 X-0.6201 Y36.7101
G01 X-0.6201 Y18.5600
G00 Z2.0000
M05
G00 Z2.0000
G00 Z20.00
G00 X0.0Y0.0

G04 P0 ( dwell for no time -- G64 should not smooth over this point )
G00 Z10.000 ( retract )

M5 ( Spindle off. )
M9 ( Coolant off. )
M2 ( Program end. )