(G-CODE GENERATED BY FLATCAM v8.905 - www.flatcam.org - Version Date: 2019/01/29)

(Name: Rectifier.drl_mill_cnc)
(Type: G-code from Geometry)
(Units: MM)

(Created on Sunday, 10 February 2019 at 20:53)

(TOOL DIAMETER: 0.8 mm)
(Feedrate: 400.0 mm/min)
(Feedrate_Z: 350.0 mm/min)
(Feedrate rapids 800.0 mm/min)

(Z_Cut: -2.1 mm)
(Z_Move: 2.0 mm)
(Z Toolchange: 50.0 mm)
(X,Y Toolchange: 0.0000, 0.0000 mm)
(Z Start: 1.0 mm)
(Z End: 20.0 mm)
(Steps per circle: 64)
(Postprocessor Geometry: default)
(Spindle Speed: 18000 RPM)
G94 ( Millimeters per minute feed rate. )
G21 ( Units == Millimeters. )
G90 ( Absolute coordinates. )
G64 P0.01000 ( set maximum deviation from commanded toolpath )
G21
G90
G94
G21
G90
G94

G01 F400.00
G00 Z2.0000
G00 Z1.0000
M03 S18000
G00 X4.9332 Y3.1100
G01 F350.00
G01 Z-2.1000
G01 F400.00
G01 X4.9322 Y3.0901
G01 X4.9292 Y3.0704
G01 X4.9244 Y3.0510
G01 X4.9177 Y3.0323
G01 X4.9092 Y3.0142
G01 X4.8989 Y2.9971
G01 X4.8870 Y2.9811
G01 X4.8736 Y2.9664
G01 X4.8589 Y2.9530
G01 X4.8429 Y2.9411
G01 X4.8258 Y2.9308
G01 X4.8077 Y2.9223
G01 X4.7890 Y2.9156
G01 X4.7696 Y2.9108
G01 X4.7499 Y2.9078
G01 X4.7300 Y2.9068
G01 X4.7101 Y2.9078
G01 X4.6904 Y2.9108
G01 X4.6710 Y2.9156
G01 X4.6523 Y2.9223
G01 X4.6342 Y2.9308
G01 X4.6171 Y2.9411
G01 X4.6011 Y2.9530
G01 X4.5864 Y2.9664
G01 X4.5730 Y2.9811
G01 X4.5611 Y2.9971
G01 X4.5508 Y3.0142
G01 X4.5423 Y3.0323
G01 X4.5356 Y3.0510
G01 X4.5308 Y3.0704
G01 X4.5278 Y3.0901
G01 X4.5269 Y3.1100
G01 X4.5278 Y3.1299
G01 X4.5308 Y3.1496
G01 X4.5356 Y3.1690
G01 X4.5423 Y3.1877
G01 X4.5508 Y3.2058
G01 X4.5611 Y3.2229
G01 X4.5730 Y3.2389
G01 X4.5864 Y3.2536
G01 X4.6011 Y3.2670
G01 X4.6171 Y3.2789
G01 X4.6342 Y3.2892
G01 X4.6523 Y3.2977
G01 X4.6710 Y3.3044
G01 X4.6904 Y3.3092
G01 X4.7101 Y3.3122
G01 X4.7300 Y3.3131
G01 X4.7499 Y3.3122
G01 X4.7696 Y3.3092
G01 X4.7890 Y3.3044
G01 X4.8077 Y3.2977
G01 X4.8258 Y3.2892
G01 X4.8429 Y3.2789
G01 X4.8589 Y3.2670
G01 X4.8736 Y3.2536
G01 X4.8870 Y3.2389
G01 X4.8989 Y3.2229
G01 X4.9092 Y3.2058
G01 X4.9177 Y3.1877
G01 X4.9244 Y3.1690
G01 X4.9292 Y3.1496
G01 X4.9322 Y3.1299
G01 X4.9332 Y3.1100
G00 Z2.0000
G00 X4.9332 Y6.6100
G01 F350.00
G01 Z-2.1000
G01 F400.00
G01 X4.9322 Y6.5901
G01 X4.9292 Y6.5704
G01 X4.9244 Y6.5510
G01 X4.9177 Y6.5323
G01 X4.9092 Y6.5142
G01 X4.8989 Y6.4971
G01 X4.8870 Y6.4811
G01 X4.8736 Y6.4664
G01 X4.8589 Y6.4530
G01 X4.8429 Y6.4411
G01 X4.8258 Y6.4308
G01 X4.8077 Y6.4223
G01 X4.7890 Y6.4156
G01 X4.7696 Y6.4108
G01 X4.7499 Y6.4078
G01 X4.7300 Y6.4069
G01 X4.7101 Y6.4078
G01 X4.6904 Y6.4108
G01 X4.6710 Y6.4156
G01 X4.6523 Y6.4223
G01 X4.6342 Y6.4308
G01 X4.6171 Y6.4411
G01 X4.6011 Y6.4530
G01 X4.5864 Y6.4664
G01 X4.5730 Y6.4811
G01 X4.5611 Y6.4971
G01 X4.5508 Y6.5142
G01 X4.5423 Y6.5323
G01 X4.5356 Y6.5510
G01 X4.5308 Y6.5704
G01 X4.5278 Y6.5901
G01 X4.5269 Y6.6100
G01 X4.5278 Y6.6299
G01 X4.5308 Y6.6496
G01 X4.5356 Y6.6690
G01 X4.5423 Y6.6877
G01 X4.5508 Y6.7058
G01 X4.5611 Y6.7229
G01 X4.5730 Y6.7389
G01 X4.5864 Y6.7536
G01 X4.6011 Y6.7670
G01 X4.6171 Y6.7789
G01 X4.6342 Y6.7892
G01 X4.6523 Y6.7977
G01 X4.6710 Y6.8044
G01 X4.6904 Y6.8092
G01 X4.7101 Y6.8122
G01 X4.7300 Y6.8132
G01 X4.7499 Y6.8122
G01 X4.7696 Y6.8092
G01 X4.7890 Y6.8044
G01 X4.8077 Y6.7977
G01 X4.8258 Y6.7892
G01 X4.8429 Y6.7789
G01 X4.8589 Y6.7670
G01 X4.8736 Y6.7536
G01 X4.8870 Y6.7389
G01 X4.8989 Y6.7229
G01 X4.9092 Y6.7058
G01 X4.9177 Y6.6877
G01 X4.9244 Y6.6690
G01 X4.9292 Y6.6496
G01 X4.9322 Y6.6299
G01 X4.9332 Y6.6100
G00 Z2.0000
G00 X4.8331 Y12.0600
G01 F350.00
G01 Z-2.1000
G01 F400.00
G01 X4.8322 Y12.0401
G01 X4.8292 Y12.0204
G01 X4.8244 Y12.0010
G01 X4.8177 Y11.9823
G01 X4.8092 Y11.9642
G01 X4.7989 Y11.9471
G01 X4.7870 Y11.9311
G01 X4.7736 Y11.9164
G01 X4.7589 Y11.9030
G01 X4.7429 Y11.8911
G01 X4.7258 Y11.8808
G01 X4.7077 Y11.8723
G01 X4.6890 Y11.8656
G01 X4.6696 Y11.8608
G01 X4.6499 Y11.8578
G01 X4.6300 Y11.8568
G01 X4.6101 Y11.8578
G01 X4.5904 Y11.8608
G01 X4.5710 Y11.8656
G01 X4.5523 Y11.8723
G01 X4.5342 Y11.8808
G01 X4.5171 Y11.8911
G01 X4.5011 Y11.9030
G01 X4.4864 Y11.9164
G01 X4.4730 Y11.9311
G01 X4.4611 Y11.9471
G01 X4.4508 Y11.9642
G01 X4.4423 Y11.9823
G01 X4.4356 Y12.0010
G01 X4.4308 Y12.0204
G01 X4.4278 Y12.0401
G01 X4.4268 Y12.0600
G01 X4.4278 Y12.0799
G01 X4.4308 Y12.0996
G01 X4.4356 Y12.1190
G01 X4.4423 Y12.1377
G01 X4.4508 Y12.1558
G01 X4.4611 Y12.1729
G01 X4.4730 Y12.1889
G01 X4.4864 Y12.2036
G01 X4.5011 Y12.2170
G01 X4.5171 Y12.2289
G01 X4.5342 Y12.2392
G01 X4.5523 Y12.2477
G01 X4.5710 Y12.2544
G01 X4.5904 Y12.2592
G01 X4.6101 Y12.2622
G01 X4.6300 Y12.2632
G01 X4.6499 Y12.2622
G01 X4.6696 Y12.2592
G01 X4.6890 Y12.2544
G01 X4.7077 Y12.2477
G01 X4.7258 Y12.2392
G01 X4.7429 Y12.2289
G01 X4.7589 Y12.2170
G01 X4.7736 Y12.2036
G01 X4.7870 Y12.1889
G01 X4.7989 Y12.1729
G01 X4.8092 Y12.1558
G01 X4.8177 Y12.1377
G01 X4.8244 Y12.1190
G01 X4.8292 Y12.0996
G01 X4.8322 Y12.0799
G01 X4.8331 Y12.0600
G00 Z2.0000
G00 X4.8331 Y15.5600
G01 F350.00
G01 Z-2.1000
G01 F400.00
G01 X4.8322 Y15.5401
G01 X4.8292 Y15.5204
G01 X4.8244 Y15.5010
G01 X4.8177 Y15.4823
G01 X4.8092 Y15.4642
G01 X4.7989 Y15.4471
G01 X4.7870 Y15.4311
G01 X4.7736 Y15.4164
G01 X4.7589 Y15.4030
G01 X4.7429 Y15.3911
G01 X4.7258 Y15.3808
G01 X4.7077 Y15.3723
G01 X4.6890 Y15.3656
G01 X4.6696 Y15.3608
G01 X4.6499 Y15.3578
G01 X4.6300 Y15.3568
G01 X4.6101 Y15.3578
G01 X4.5904 Y15.3608
G01 X4.5710 Y15.3656
G01 X4.5523 Y15.3723
G01 X4.5342 Y15.3808
G01 X4.5171 Y15.3911
G01 X4.5011 Y15.4030
G01 X4.4864 Y15.4164
G01 X4.4730 Y15.4311
G01 X4.4611 Y15.4471
G01 X4.4508 Y15.4642
G01 X4.4423 Y15.4823
G01 X4.4356 Y15.5010
G01 X4.4308 Y15.5204
G01 X4.4278 Y15.5401
G01 X4.4268 Y15.5600
G01 X4.4278 Y15.5799
G01 X4.4308 Y15.5996
G01 X4.4356 Y15.6190
G01 X4.4423 Y15.6377
G01 X4.4508 Y15.6558
G01 X4.4611 Y15.6729
G01 X4.4730 Y15.6889
G01 X4.4864 Y15.7036
G01 X4.5011 Y15.7170
G01 X4.5171 Y15.7289
G01 X4.5342 Y15.7392
G01 X4.5523 Y15.7477
G01 X4.5710 Y15.7544
G01 X4.5904 Y15.7592
G01 X4.6101 Y15.7622
G01 X4.6300 Y15.7632
G01 X4.6499 Y15.7622
G01 X4.6696 Y15.7592
G01 X4.6890 Y15.7544
G01 X4.7077 Y15.7477
G01 X4.7258 Y15.7392
G01 X4.7429 Y15.7289
G01 X4.7589 Y15.7170
G01 X4.7736 Y15.7036
G01 X4.7870 Y15.6889
G01 X4.7989 Y15.6729
G01 X4.8092 Y15.6558
G01 X4.8177 Y15.6377
G01 X4.8244 Y15.6190
G01 X4.8292 Y15.5996
G01 X4.8322 Y15.5799
G01 X4.8331 Y15.5600
G00 Z2.0000
G00 X5.0332 Y20.8600
G01 F350.00
G01 Z-2.1000
G01 F400.00
G01 X5.0322 Y20.8401
G01 X5.0292 Y20.8204
G01 X5.0244 Y20.8010
G01 X5.0177 Y20.7823
G01 X5.0092 Y20.7642
G01 X4.9989 Y20.7471
G01 X4.9870 Y20.7311
G01 X4.9736 Y20.7164
G01 X4.9589 Y20.7030
G01 X4.9429 Y20.6911
G01 X4.9258 Y20.6808
G01 X4.9077 Y20.6723
G01 X4.8890 Y20.6656
G01 X4.8696 Y20.6608
G01 X4.8499 Y20.6578
G01 X4.8300 Y20.6568
G01 X4.8101 Y20.6578
G01 X4.7904 Y20.6608
G01 X4.7710 Y20.6656
G01 X4.7523 Y20.6723
G01 X4.7342 Y20.6808
G01 X4.7171 Y20.6911
G01 X4.7011 Y20.7030
G01 X4.6864 Y20.7164
G01 X4.6730 Y20.7311
G01 X4.6611 Y20.7471
G01 X4.6508 Y20.7642
G01 X4.6423 Y20.7823
G01 X4.6356 Y20.8010
G01 X4.6308 Y20.8204
G01 X4.6278 Y20.8401
G01 X4.6269 Y20.8600
G01 X4.6278 Y20.8799
G01 X4.6308 Y20.8996
G01 X4.6356 Y20.9190
G01 X4.6423 Y20.9377
G01 X4.6508 Y20.9558
G01 X4.6611 Y20.9729
G01 X4.6730 Y20.9889
G01 X4.6864 Y21.0036
G01 X4.7011 Y21.0170
G01 X4.7171 Y21.0289
G01 X4.7342 Y21.0392
G01 X4.7523 Y21.0477
G01 X4.7710 Y21.0544
G01 X4.7904 Y21.0592
G01 X4.8101 Y21.0622
G01 X4.8300 Y21.0632
G01 X4.8499 Y21.0622
G01 X4.8696 Y21.0592
G01 X4.8890 Y21.0544
G01 X4.9077 Y21.0477
G01 X4.9258 Y21.0392
G01 X4.9429 Y21.0289
G01 X4.9589 Y21.0170
G01 X4.9736 Y21.0036
G01 X4.9870 Y20.9889
G01 X4.9989 Y20.9729
G01 X5.0092 Y20.9558
G01 X5.0177 Y20.9377
G01 X5.0244 Y20.9190
G01 X5.0292 Y20.8996
G01 X5.0322 Y20.8799
G01 X5.0332 Y20.8600
G00 Z2.0000
G00 X5.0332 Y24.3600
G01 F350.00
G01 Z-2.1000
G01 F400.00
G01 X5.0322 Y24.3401
G01 X5.0292 Y24.3204
G01 X5.0244 Y24.3010
G01 X5.0177 Y24.2823
G01 X5.0092 Y24.2642
G01 X4.9989 Y24.2471
G01 X4.9870 Y24.2311
G01 X4.9736 Y24.2164
G01 X4.9589 Y24.2030
G01 X4.9429 Y24.1911
G01 X4.9258 Y24.1808
G01 X4.9077 Y24.1723
G01 X4.8890 Y24.1656
G01 X4.8696 Y24.1608
G01 X4.8499 Y24.1578
G01 X4.8300 Y24.1568
G01 X4.8101 Y24.1578
G01 X4.7904 Y24.1608
G01 X4.7710 Y24.1656
G01 X4.7523 Y24.1723
G01 X4.7342 Y24.1808
G01 X4.7171 Y24.1911
G01 X4.7011 Y24.2030
G01 X4.6864 Y24.2164
G01 X4.6730 Y24.2311
G01 X4.6611 Y24.2471
G01 X4.6508 Y24.2642
G01 X4.6423 Y24.2823
G01 X4.6356 Y24.3010
G01 X4.6308 Y24.3204
G01 X4.6278 Y24.3401
G01 X4.6269 Y24.3600
G01 X4.6278 Y24.3799
G01 X4.6308 Y24.3996
G01 X4.6356 Y24.4190
G01 X4.6423 Y24.4377
G01 X4.6508 Y24.4558
G01 X4.6611 Y24.4729
G01 X4.6730 Y24.4889
G01 X4.6864 Y24.5036
G01 X4.7011 Y24.5170
G01 X4.7171 Y24.5289
G01 X4.7342 Y24.5392
G01 X4.7523 Y24.5477
G01 X4.7710 Y24.5544
G01 X4.7904 Y24.5592
G01 X4.8101 Y24.5622
G01 X4.8300 Y24.5632
G01 X4.8499 Y24.5622
G01 X4.8696 Y24.5592
G01 X4.8890 Y24.5544
G01 X4.9077 Y24.5477
G01 X4.9258 Y24.5392
G01 X4.9429 Y24.5289
G01 X4.9589 Y24.5170
G01 X4.9736 Y24.5036
G01 X4.9870 Y24.4889
G01 X4.9989 Y24.4729
G01 X5.0092 Y24.4558
G01 X5.0177 Y24.4377
G01 X5.0244 Y24.4190
G01 X5.0292 Y24.3996
G01 X5.0322 Y24.3799
G01 X5.0332 Y24.3600
G00 Z2.0000
G00 X12.4081 Y21.9550
G01 F350.00
G01 Z-2.1000
G01 F400.00
G01 X12.4051 Y21.8934
G01 X12.3961 Y21.8325
G01 X12.3811 Y21.7727
G01 X12.3603 Y21.7146
G01 X12.3340 Y21.6589
G01 X12.3023 Y21.6060
G01 X12.2656 Y21.5565
G01 X12.2242 Y21.5108
G01 X12.1785 Y21.4694
G01 X12.1290 Y21.4327
G01 X12.0761 Y21.4010
G01 X12.0204 Y21.3747
G01 X11.9623 Y21.3539
G01 X11.9025 Y21.3389
G01 X11.8416 Y21.3299
G01 X11.7800 Y21.3268
G01 X11.7184 Y21.3299
G01 X11.6575 Y21.3389
G01 X11.5977 Y21.3539
G01 X11.5396 Y21.3747
G01 X11.4839 Y21.4010
G01 X11.4310 Y21.4327
G01 X11.3815 Y21.4694
G01 X11.3358 Y21.5108
G01 X11.2944 Y21.5565
G01 X11.2577 Y21.6060
G01 X11.2260 Y21.6589
G01 X11.1997 Y21.7146
G01 X11.1789 Y21.7727
G01 X11.1639 Y21.8325
G01 X11.1549 Y21.8934
G01 X11.1518 Y21.9550
G01 X11.1549 Y22.0166
G01 X11.1639 Y22.0775
G01 X11.1789 Y22.1373
G01 X11.1997 Y22.1954
G01 X11.2260 Y22.2511
G01 X11.2577 Y22.3040
G01 X11.2944 Y22.3535
G01 X11.3358 Y22.3992
G01 X11.3815 Y22.4406
G01 X11.4310 Y22.4773
G01 X11.4839 Y22.5090
G01 X11.5396 Y22.5353
G01 X11.5977 Y22.5561
G01 X11.6575 Y22.5711
G01 X11.7184 Y22.5801
G01 X11.7800 Y22.5831
G01 X11.8416 Y22.5801
G01 X11.9025 Y22.5711
G01 X11.9623 Y22.5561
G01 X12.0204 Y22.5353
G01 X12.0761 Y22.5090
G01 X12.1290 Y22.4773
G01 X12.1785 Y22.4406
G01 X12.2242 Y22.3992
G01 X12.2656 Y22.3535
G01 X12.3023 Y22.3040
G01 X12.3340 Y22.2511
G01 X12.3603 Y22.1954
G01 X12.3811 Y22.1373
G01 X12.3961 Y22.0775
G01 X12.4051 Y22.0166
G01 X12.4081 Y21.9550
G00 Z2.0000
G00 X12.4081 Y16.6250
G01 F350.00
G01 Z-2.1000
G01 F400.00
G01 X12.4051 Y16.5634
G01 X12.3961 Y16.5025
G01 X12.3811 Y16.4427
G01 X12.3603 Y16.3846
G01 X12.3340 Y16.3289
G01 X12.3023 Y16.2760
G01 X12.2656 Y16.2265
G01 X12.2242 Y16.1808
G01 X12.1785 Y16.1394
G01 X12.1290 Y16.1027
G01 X12.0761 Y16.0710
G01 X12.0204 Y16.0447
G01 X11.9623 Y16.0239
G01 X11.9025 Y16.0089
G01 X11.8416 Y15.9999
G01 X11.7800 Y15.9969
G01 X11.7184 Y15.9999
G01 X11.6575 Y16.0089
G01 X11.5977 Y16.0239
G01 X11.5396 Y16.0447
G01 X11.4839 Y16.0710
G01 X11.4310 Y16.1027
G01 X11.3815 Y16.1394
G01 X11.3358 Y16.1808
G01 X11.2944 Y16.2265
G01 X11.2577 Y16.2760
G01 X11.2260 Y16.3289
G01 X11.1997 Y16.3846
G01 X11.1789 Y16.4427
G01 X11.1639 Y16.5025
G01 X11.1549 Y16.5634
G01 X11.1518 Y16.6250
G01 X11.1549 Y16.6866
G01 X11.1639 Y16.7475
G01 X11.1789 Y16.8073
G01 X11.1997 Y16.8654
G01 X11.2260 Y16.9211
G01 X11.2577 Y16.9740
G01 X11.2944 Y17.0235
G01 X11.3358 Y17.0692
G01 X11.3815 Y17.1106
G01 X11.4310 Y17.1473
G01 X11.4839 Y17.1790
G01 X11.5396 Y17.2053
G01 X11.5977 Y17.2261
G01 X11.6575 Y17.2411
G01 X11.7184 Y17.2501
G01 X11.7800 Y17.2532
G01 X11.8416 Y17.2501
G01 X11.9025 Y17.2411
G01 X11.9623 Y17.2261
G01 X12.0204 Y17.2053
G01 X12.0761 Y17.1790
G01 X12.1290 Y17.1473
G01 X12.1785 Y17.1106
G01 X12.2242 Y17.0692
G01 X12.2656 Y17.0235
G01 X12.3023 Y16.9740
G01 X12.3340 Y16.9211
G01 X12.3603 Y16.8654
G01 X12.3811 Y16.8073
G01 X12.3961 Y16.7475
G01 X12.4051 Y16.6866
G01 X12.4081 Y16.6250
G00 Z2.0000
G00 X12.4081 Y11.2950
G01 F350.00
G01 Z-2.1000
G01 F400.00
G01 X12.4051 Y11.2334
G01 X12.3961 Y11.1725
G01 X12.3811 Y11.1127
G01 X12.3603 Y11.0546
G01 X12.3340 Y10.9989
G01 X12.3023 Y10.9460
G01 X12.2656 Y10.8965
G01 X12.2242 Y10.8508
G01 X12.1785 Y10.8094
G01 X12.1290 Y10.7727
G01 X12.0761 Y10.7410
G01 X12.0204 Y10.7147
G01 X11.9623 Y10.6939
G01 X11.9025 Y10.6789
G01 X11.8416 Y10.6699
G01 X11.7800 Y10.6669
G01 X11.7184 Y10.6699
G01 X11.6575 Y10.6789
G01 X11.5977 Y10.6939
G01 X11.5396 Y10.7147
G01 X11.4839 Y10.7410
G01 X11.4310 Y10.7727
G01 X11.3815 Y10.8094
G01 X11.3358 Y10.8508
G01 X11.2944 Y10.8965
G01 X11.2577 Y10.9460
G01 X11.2260 Y10.9989
G01 X11.1997 Y11.0546
G01 X11.1789 Y11.1127
G01 X11.1639 Y11.1725
G01 X11.1549 Y11.2334
G01 X11.1518 Y11.2950
G01 X11.1549 Y11.3566
G01 X11.1639 Y11.4175
G01 X11.1789 Y11.4773
G01 X11.1997 Y11.5354
G01 X11.2260 Y11.5911
G01 X11.2577 Y11.6440
G01 X11.2944 Y11.6935
G01 X11.3358 Y11.7392
G01 X11.3815 Y11.7806
G01 X11.4310 Y11.8173
G01 X11.4839 Y11.8490
G01 X11.5396 Y11.8753
G01 X11.5977 Y11.8961
G01 X11.6575 Y11.9111
G01 X11.7184 Y11.9201
G01 X11.7800 Y11.9231
G01 X11.8416 Y11.9201
G01 X11.9025 Y11.9111
G01 X11.9623 Y11.8961
G01 X12.0204 Y11.8753
G01 X12.0761 Y11.8490
G01 X12.1290 Y11.8173
G01 X12.1785 Y11.7806
G01 X12.2242 Y11.7392
G01 X12.2656 Y11.6935
G01 X12.3023 Y11.6440
G01 X12.3340 Y11.5911
G01 X12.3603 Y11.5354
G01 X12.3811 Y11.4773
G01 X12.3961 Y11.4175
G01 X12.4051 Y11.3566
G01 X12.4081 Y11.2950
G00 Z2.0000
G00 X12.4081 Y5.9650
G01 F350.00
G01 Z-2.1000
G01 F400.00
G01 X12.4051 Y5.9034
G01 X12.3961 Y5.8425
G01 X12.3811 Y5.7827
G01 X12.3603 Y5.7246
G01 X12.3340 Y5.6689
G01 X12.3023 Y5.6160
G01 X12.2656 Y5.5665
G01 X12.2242 Y5.5208
G01 X12.1785 Y5.4794
G01 X12.1290 Y5.4427
G01 X12.0761 Y5.4110
G01 X12.0204 Y5.3847
G01 X11.9623 Y5.3639
G01 X11.9025 Y5.3489
G01 X11.8416 Y5.3399
G01 X11.7800 Y5.3369
G01 X11.7184 Y5.3399
G01 X11.6575 Y5.3489
G01 X11.5977 Y5.3639
G01 X11.5396 Y5.3847
G01 X11.4839 Y5.4110
G01 X11.4310 Y5.4427
G01 X11.3815 Y5.4794
G01 X11.3358 Y5.5208
G01 X11.2944 Y5.5665
G01 X11.2577 Y5.6160
G01 X11.2260 Y5.6689
G01 X11.1997 Y5.7246
G01 X11.1789 Y5.7827
G01 X11.1639 Y5.8425
G01 X11.1549 Y5.9034
G01 X11.1518 Y5.9650
G01 X11.1549 Y6.0266
G01 X11.1639 Y6.0875
G01 X11.1789 Y6.1473
G01 X11.1997 Y6.2054
G01 X11.2260 Y6.2611
G01 X11.2577 Y6.3140
G01 X11.2944 Y6.3635
G01 X11.3358 Y6.4092
G01 X11.3815 Y6.4506
G01 X11.4310 Y6.4873
G01 X11.4839 Y6.5190
G01 X11.5396 Y6.5453
G01 X11.5977 Y6.5661
G01 X11.6575 Y6.5811
G01 X11.7184 Y6.5901
G01 X11.7800 Y6.5931
G01 X11.8416 Y6.5901
G01 X11.9025 Y6.5811
G01 X11.9623 Y6.5661
G01 X12.0204 Y6.5453
G01 X12.0761 Y6.5190
G01 X12.1290 Y6.4873
G01 X12.1785 Y6.4506
G01 X12.2242 Y6.4092
G01 X12.2656 Y6.3635
G01 X12.3023 Y6.3140
G01 X12.3340 Y6.2611
G01 X12.3603 Y6.2054
G01 X12.3811 Y6.1473
G01 X12.3961 Y6.0875
G01 X12.4051 Y6.0266
G01 X12.4081 Y5.9650
G00 Z2.0000
G00 X18.7631 Y18.4300
G01 F350.00
G01 Z-2.1000
G01 F400.00
G01 X18.7622 Y18.4101
G01 X18.7592 Y18.3904
G01 X18.7544 Y18.3710
G01 X18.7477 Y18.3523
G01 X18.7392 Y18.3342
G01 X18.7289 Y18.3171
G01 X18.7170 Y18.3011
G01 X18.7036 Y18.2864
G01 X18.6889 Y18.2730
G01 X18.6729 Y18.2611
G01 X18.6558 Y18.2508
G01 X18.6377 Y18.2423
G01 X18.6190 Y18.2356
G01 X18.5996 Y18.2308
G01 X18.5799 Y18.2278
G01 X18.5600 Y18.2268
G01 X18.5401 Y18.2278
G01 X18.5204 Y18.2308
G01 X18.5010 Y18.2356
G01 X18.4823 Y18.2423
G01 X18.4642 Y18.2508
G01 X18.4471 Y18.2611
G01 X18.4311 Y18.2730
G01 X18.4164 Y18.2864
G01 X18.4030 Y18.3011
G01 X18.3911 Y18.3171
G01 X18.3808 Y18.3342
G01 X18.3723 Y18.3523
G01 X18.3656 Y18.3710
G01 X18.3608 Y18.3904
G01 X18.3578 Y18.4101
G01 X18.3568 Y18.4300
G01 X18.3578 Y18.4499
G01 X18.3608 Y18.4696
G01 X18.3656 Y18.4890
G01 X18.3723 Y18.5077
G01 X18.3808 Y18.5258
G01 X18.3911 Y18.5429
G01 X18.4030 Y18.5589
G01 X18.4164 Y18.5736
G01 X18.4311 Y18.5870
G01 X18.4471 Y18.5989
G01 X18.4642 Y18.6092
G01 X18.4823 Y18.6177
G01 X18.5010 Y18.6244
G01 X18.5204 Y18.6292
G01 X18.5401 Y18.6322
G01 X18.5600 Y18.6332
G01 X18.5799 Y18.6322
G01 X18.5996 Y18.6292
G01 X18.6190 Y18.6244
G01 X18.6377 Y18.6177
G01 X18.6558 Y18.6092
G01 X18.6729 Y18.5989
G01 X18.6889 Y18.5870
G01 X18.7036 Y18.5736
G01 X18.7170 Y18.5589
G01 X18.7289 Y18.5429
G01 X18.7392 Y18.5258
G01 X18.7477 Y18.5077
G01 X18.7544 Y18.4890
G01 X18.7592 Y18.4696
G01 X18.7622 Y18.4499
G01 X18.7631 Y18.4300
G00 Z2.0000
G00 X26.2631 Y18.4300
G01 F350.00
G01 Z-2.1000
G01 F400.00
G01 X26.2622 Y18.4101
G01 X26.2592 Y18.3904
G01 X26.2544 Y18.3710
G01 X26.2477 Y18.3523
G01 X26.2392 Y18.3342
G01 X26.2289 Y18.3171
G01 X26.2170 Y18.3011
G01 X26.2036 Y18.2864
G01 X26.1889 Y18.2730
G01 X26.1729 Y18.2611
G01 X26.1558 Y18.2508
G01 X26.1377 Y18.2423
G01 X26.1190 Y18.2356
G01 X26.0996 Y18.2308
G01 X26.0799 Y18.2278
G01 X26.0600 Y18.2268
G01 X26.0401 Y18.2278
G01 X26.0204 Y18.2308
G01 X26.0010 Y18.2356
G01 X25.9823 Y18.2423
G01 X25.9642 Y18.2508
G01 X25.9471 Y18.2611
G01 X25.9311 Y18.2730
G01 X25.9164 Y18.2864
G01 X25.9030 Y18.3011
G01 X25.8911 Y18.3171
G01 X25.8808 Y18.3342
G01 X25.8723 Y18.3523
G01 X25.8656 Y18.3710
G01 X25.8608 Y18.3904
G01 X25.8578 Y18.4101
G01 X25.8568 Y18.4300
G01 X25.8578 Y18.4499
G01 X25.8608 Y18.4696
G01 X25.8656 Y18.4890
G01 X25.8723 Y18.5077
G01 X25.8808 Y18.5258
G01 X25.8911 Y18.5429
G01 X25.9030 Y18.5589
G01 X25.9164 Y18.5736
G01 X25.9311 Y18.5870
G01 X25.9471 Y18.5989
G01 X25.9642 Y18.6092
G01 X25.9823 Y18.6177
G01 X26.0010 Y18.6244
G01 X26.0204 Y18.6292
G01 X26.0401 Y18.6322
G01 X26.0600 Y18.6332
G01 X26.0799 Y18.6322
G01 X26.0996 Y18.6292
G01 X26.1190 Y18.6244
G01 X26.1377 Y18.6177
G01 X26.1558 Y18.6092
G01 X26.1729 Y18.5989
G01 X26.1889 Y18.5870
G01 X26.2036 Y18.5736
G01 X26.2170 Y18.5589
G01 X26.2289 Y18.5429
G01 X26.2392 Y18.5258
G01 X26.2477 Y18.5077
G01 X26.2544 Y18.4890
G01 X26.2592 Y18.4696
G01 X26.2622 Y18.4499
G01 X26.2631 Y18.4300
G00 Z2.0000
G00 X32.9831 Y17.6100
G01 F350.00
G01 Z-2.1000
G01 F400.00
G01 X32.9824 Y17.5950
G01 X32.9802 Y17.5801
G01 X32.9766 Y17.5655
G01 X32.9715 Y17.5514
G01 X32.9651 Y17.5378
G01 X32.9573 Y17.5249
G01 X32.9484 Y17.5128
G01 X32.9383 Y17.5017
G01 X32.9272 Y17.4916
G01 X32.9151 Y17.4827
G01 X32.9022 Y17.4749
G01 X32.8886 Y17.4685
G01 X32.8745 Y17.4634
G01 X32.8599 Y17.4598
G01 X32.8450 Y17.4576
G01 X32.8300 Y17.4568
G01 X32.8150 Y17.4576
G01 X32.8001 Y17.4598
G01 X32.7855 Y17.4634
G01 X32.7714 Y17.4685
G01 X32.7578 Y17.4749
G01 X32.7449 Y17.4827
G01 X32.7328 Y17.4916
G01 X32.7217 Y17.5017
G01 X32.7116 Y17.5128
G01 X32.7027 Y17.5249
G01 X32.6949 Y17.5378
G01 X32.6885 Y17.5514
G01 X32.6834 Y17.5655
G01 X32.6798 Y17.5801
G01 X32.6776 Y17.5950
G01 X32.6769 Y17.6100
G01 X32.6776 Y17.6250
G01 X32.6798 Y17.6399
G01 X32.6834 Y17.6545
G01 X32.6885 Y17.6686
G01 X32.6949 Y17.6822
G01 X32.7027 Y17.6951
G01 X32.7116 Y17.7072
G01 X32.7217 Y17.7183
G01 X32.7328 Y17.7284
G01 X32.7449 Y17.7373
G01 X32.7578 Y17.7451
G01 X32.7714 Y17.7515
G01 X32.7855 Y17.7566
G01 X32.8001 Y17.7602
G01 X32.8150 Y17.7624
G01 X32.8300 Y17.7631
G01 X32.8450 Y17.7624
G01 X32.8599 Y17.7602
G01 X32.8745 Y17.7566
G01 X32.8886 Y17.7515
G01 X32.9022 Y17.7451
G01 X32.9151 Y17.7373
G01 X32.9272 Y17.7284
G01 X32.9383 Y17.7183
G01 X32.9484 Y17.7072
G01 X32.9573 Y17.6951
G01 X32.9651 Y17.6822
G01 X32.9715 Y17.6686
G01 X32.9766 Y17.6545
G01 X32.9802 Y17.6399
G01 X32.9824 Y17.6250
G01 X32.9831 Y17.6100
G00 Z2.0000
G00 X42.8831 Y19.3600
G01 F350.00
G01 Z-2.1000
G01 F400.00
G01 X42.8824 Y19.3450
G01 X42.8802 Y19.3301
G01 X42.8766 Y19.3155
G01 X42.8715 Y19.3014
G01 X42.8651 Y19.2878
G01 X42.8573 Y19.2749
G01 X42.8484 Y19.2628
G01 X42.8383 Y19.2517
G01 X42.8272 Y19.2416
G01 X42.8151 Y19.2327
G01 X42.8022 Y19.2249
G01 X42.7886 Y19.2185
G01 X42.7745 Y19.2134
G01 X42.7599 Y19.2098
G01 X42.7450 Y19.2076
G01 X42.7300 Y19.2068
G01 X42.7150 Y19.2076
G01 X42.7001 Y19.2098
G01 X42.6855 Y19.2134
G01 X42.6714 Y19.2185
G01 X42.6578 Y19.2249
G01 X42.6449 Y19.2327
G01 X42.6328 Y19.2416
G01 X42.6217 Y19.2517
G01 X42.6116 Y19.2628
G01 X42.6027 Y19.2749
G01 X42.5949 Y19.2878
G01 X42.5885 Y19.3014
G01 X42.5834 Y19.3155
G01 X42.5798 Y19.3301
G01 X42.5776 Y19.3450
G01 X42.5769 Y19.3600
G01 X42.5776 Y19.3750
G01 X42.5798 Y19.3899
G01 X42.5834 Y19.4045
G01 X42.5885 Y19.4186
G01 X42.5949 Y19.4322
G01 X42.6027 Y19.4451
G01 X42.6116 Y19.4572
G01 X42.6217 Y19.4683
G01 X42.6328 Y19.4784
G01 X42.6449 Y19.4873
G01 X42.6578 Y19.4951
G01 X42.6714 Y19.5015
G01 X42.6855 Y19.5066
G01 X42.7001 Y19.5102
G01 X42.7150 Y19.5124
G01 X42.7300 Y19.5131
G01 X42.7450 Y19.5124
G01 X42.7599 Y19.5102
G01 X42.7745 Y19.5066
G01 X42.7886 Y19.5015
G01 X42.8022 Y19.4951
G01 X42.8151 Y19.4873
G01 X42.8272 Y19.4784
G01 X42.8383 Y19.4683
G01 X42.8484 Y19.4572
G01 X42.8573 Y19.4451
G01 X42.8651 Y19.4322
G01 X42.8715 Y19.4186
G01 X42.8766 Y19.4045
G01 X42.8802 Y19.3899
G01 X42.8824 Y19.3750
G01 X42.8831 Y19.3600
G00 Z2.0000
G00 X43.2732 Y32.5400
G01 F350.00
G01 Z-2.1000
G01 F400.00
G01 X43.2678 Y32.4319
G01 X43.2520 Y32.3248
G01 X43.2256 Y32.2198
G01 X43.1892 Y32.1178
G01 X43.1429 Y32.0200
G01 X43.0872 Y31.9271
G01 X43.0227 Y31.8402
G01 X42.9500 Y31.7600
G01 X42.8698 Y31.6873
G01 X42.7829 Y31.6228
G01 X42.6900 Y31.5671
G01 X42.5922 Y31.5208
G01 X42.4902 Y31.4844
G01 X42.3852 Y31.4580
G01 X42.2781 Y31.4422
G01 X42.1700 Y31.4368
G01 X42.0619 Y31.4422
G01 X41.9548 Y31.4580
G01 X41.8498 Y31.4844
G01 X41.7478 Y31.5208
G01 X41.6500 Y31.5671
G01 X41.5571 Y31.6228
G01 X41.4702 Y31.6873
G01 X41.3900 Y31.7600
G01 X41.3173 Y31.8402
G01 X41.2528 Y31.9271
G01 X41.1971 Y32.0200
G01 X41.1508 Y32.1178
G01 X41.1144 Y32.2198
G01 X41.0880 Y32.3248
G01 X41.0722 Y32.4319
G01 X41.0669 Y32.5400
G01 X41.0722 Y32.6481
G01 X41.0880 Y32.7552
G01 X41.1144 Y32.8602
G01 X41.1508 Y32.9622
G01 X41.1971 Y33.0600
G01 X41.2528 Y33.1529
G01 X41.3173 Y33.2398
G01 X41.3900 Y33.3200
G01 X41.4702 Y33.3927
G01 X41.5571 Y33.4572
G01 X41.6500 Y33.5129
G01 X41.7478 Y33.5592
G01 X41.8498 Y33.5956
G01 X41.9548 Y33.6220
G01 X42.0619 Y33.6378
G01 X42.1700 Y33.6431
G01 X42.2781 Y33.6378
G01 X42.3852 Y33.6220
G01 X42.4902 Y33.5956
G01 X42.5922 Y33.5592
G01 X42.6900 Y33.5129
G01 X42.7829 Y33.4572
G01 X42.8698 Y33.3927
G01 X42.9500 Y33.3200
G01 X43.0227 Y33.2398
G01 X43.0872 Y33.1529
G01 X43.1429 Y33.0600
G01 X43.1892 Y32.9622
G01 X43.2256 Y32.8602
G01 X43.2520 Y32.7552
G01 X43.2678 Y32.6481
G01 X43.2732 Y32.5400
G00 Z2.0000
G00 X30.3832 Y28.6100
G01 F350.00
G01 Z-2.1000
G01 F400.00
G01 X30.3824 Y28.5950
G01 X30.3802 Y28.5801
G01 X30.3766 Y28.5655
G01 X30.3715 Y28.5514
G01 X30.3651 Y28.5378
G01 X30.3573 Y28.5249
G01 X30.3484 Y28.5128
G01 X30.3383 Y28.5017
G01 X30.3272 Y28.4916
G01 X30.3151 Y28.4827
G01 X30.3022 Y28.4749
G01 X30.2886 Y28.4685
G01 X30.2745 Y28.4634
G01 X30.2599 Y28.4598
G01 X30.2450 Y28.4576
G01 X30.2300 Y28.4568
G01 X30.2150 Y28.4576
G01 X30.2001 Y28.4598
G01 X30.1855 Y28.4634
G01 X30.1714 Y28.4685
G01 X30.1578 Y28.4749
G01 X30.1449 Y28.4827
G01 X30.1328 Y28.4916
G01 X30.1217 Y28.5017
G01 X30.1116 Y28.5128
G01 X30.1027 Y28.5249
G01 X30.0949 Y28.5378
G01 X30.0885 Y28.5514
G01 X30.0834 Y28.5655
G01 X30.0798 Y28.5801
G01 X30.0776 Y28.5950
G01 X30.0769 Y28.6100
G01 X30.0776 Y28.6250
G01 X30.0798 Y28.6399
G01 X30.0834 Y28.6545
G01 X30.0885 Y28.6686
G01 X30.0949 Y28.6822
G01 X30.1027 Y28.6951
G01 X30.1116 Y28.7072
G01 X30.1217 Y28.7183
G01 X30.1328 Y28.7284
G01 X30.1449 Y28.7373
G01 X30.1578 Y28.7451
G01 X30.1714 Y28.7515
G01 X30.1855 Y28.7566
G01 X30.2001 Y28.7602
G01 X30.2150 Y28.7624
G01 X30.2300 Y28.7631
G01 X30.2450 Y28.7624
G01 X30.2599 Y28.7602
G01 X30.2745 Y28.7566
G01 X30.2886 Y28.7515
G01 X30.3022 Y28.7451
G01 X30.3151 Y28.7373
G01 X30.3272 Y28.7284
G01 X30.3383 Y28.7183
G01 X30.3484 Y28.7072
G01 X30.3573 Y28.6951
G01 X30.3651 Y28.6822
G01 X30.3715 Y28.6686
G01 X30.3766 Y28.6545
G01 X30.3802 Y28.6399
G01 X30.3824 Y28.6250
G01 X30.3832 Y28.6100
G00 Z2.0000
G00 X27.2732 Y32.3600
G01 F350.00
G01 Z-2.1000
G01 F400.00
G01 X27.2712 Y32.3399
G01 X27.2653 Y32.3205
G01 X27.2558 Y32.3027
G01 X27.2429 Y32.2871
G01 X27.2273 Y32.2742
G01 X27.2095 Y32.2647
G01 X27.1901 Y32.2588
G01 X27.1700 Y32.2569
G01 X27.1499 Y32.2588
G01 X27.1305 Y32.2647
G01 X27.1127 Y32.2742
G01 X27.0971 Y32.2871
G01 X27.0842 Y32.3027
G01 X27.0747 Y32.3205
G01 X27.0688 Y32.3399
G01 X27.0669 Y32.3600
G01 X27.0688 Y32.3801
G01 X27.0747 Y32.3995
G01 X27.0842 Y32.4173
G01 X27.0971 Y32.4329
G01 X27.1127 Y32.4458
G01 X27.1305 Y32.4553
G01 X27.1499 Y32.4612
G01 X27.1700 Y32.4631
G01 X27.1901 Y32.4612
G01 X27.2095 Y32.4553
G01 X27.2273 Y32.4458
G01 X27.2429 Y32.4329
G01 X27.2558 Y32.4173
G01 X27.2653 Y32.3995
G01 X27.2712 Y32.3801
G01 X27.2732 Y32.3600
G00 Z2.0000
G00 X24.7331 Y32.3600
G01 F350.00
G01 Z-2.1000
G01 F400.00
G01 X24.7312 Y32.3399
G01 X24.7253 Y32.3205
G01 X24.7158 Y32.3027
G01 X24.7029 Y32.2871
G01 X24.6873 Y32.2742
G01 X24.6695 Y32.2647
G01 X24.6501 Y32.2588
G01 X24.6300 Y32.2569
G01 X24.6099 Y32.2588
G01 X24.5905 Y32.2647
G01 X24.5727 Y32.2742
G01 X24.5571 Y32.2871
G01 X24.5442 Y32.3027
G01 X24.5347 Y32.3205
G01 X24.5288 Y32.3399
G01 X24.5268 Y32.3600
G01 X24.5288 Y32.3801
G01 X24.5347 Y32.3995
G01 X24.5442 Y32.4173
G01 X24.5571 Y32.4329
G01 X24.5727 Y32.4458
G01 X24.5905 Y32.4553
G01 X24.6099 Y32.4612
G01 X24.6300 Y32.4631
G01 X24.6501 Y32.4612
G01 X24.6695 Y32.4553
G01 X24.6873 Y32.4458
G01 X24.7029 Y32.4329
G01 X24.7158 Y32.4173
G01 X24.7253 Y32.3995
G01 X24.7312 Y32.3801
G01 X24.7331 Y32.3600
G00 Z2.0000
G00 X22.1931 Y32.3600
G01 F350.00
G01 Z-2.1000
G01 F400.00
G01 X22.1912 Y32.3399
G01 X22.1853 Y32.3205
G01 X22.1758 Y32.3027
G01 X22.1629 Y32.2871
G01 X22.1473 Y32.2742
G01 X22.1295 Y32.2647
G01 X22.1101 Y32.2588
G01 X22.0900 Y32.2569
G01 X22.0699 Y32.2588
G01 X22.0505 Y32.2647
G01 X22.0327 Y32.2742
G01 X22.0171 Y32.2871
G01 X22.0042 Y32.3027
G01 X21.9947 Y32.3205
G01 X21.9888 Y32.3399
G01 X21.9869 Y32.3600
G01 X21.9888 Y32.3801
G01 X21.9947 Y32.3995
G01 X22.0042 Y32.4173
G01 X22.0171 Y32.4329
G01 X22.0327 Y32.4458
G01 X22.0505 Y32.4553
G01 X22.0699 Y32.4612
G01 X22.0900 Y32.4631
G01 X22.1101 Y32.4612
G01 X22.1295 Y32.4553
G01 X22.1473 Y32.4458
G01 X22.1629 Y32.4329
G01 X22.1758 Y32.4173
G01 X22.1853 Y32.3995
G01 X22.1912 Y32.3801
G01 X22.1931 Y32.3600
G00 Z2.0000
G00 X19.6532 Y32.3600
G01 F350.00
G01 Z-2.1000
G01 F400.00
G01 X19.6512 Y32.3399
G01 X19.6453 Y32.3205
G01 X19.6358 Y32.3027
G01 X19.6229 Y32.2871
G01 X19.6073 Y32.2742
G01 X19.5895 Y32.2647
G01 X19.5701 Y32.2588
G01 X19.5500 Y32.2569
G01 X19.5299 Y32.2588
G01 X19.5105 Y32.2647
G01 X19.4927 Y32.2742
G01 X19.4771 Y32.2871
G01 X19.4642 Y32.3027
G01 X19.4547 Y32.3205
G01 X19.4488 Y32.3399
G01 X19.4469 Y32.3600
G01 X19.4488 Y32.3801
G01 X19.4547 Y32.3995
G01 X19.4642 Y32.4173
G01 X19.4771 Y32.4329
G01 X19.4927 Y32.4458
G01 X19.5105 Y32.4553
G01 X19.5299 Y32.4612
G01 X19.5500 Y32.4631
G01 X19.5701 Y32.4612
G01 X19.5895 Y32.4553
G01 X19.6073 Y32.4458
G01 X19.6229 Y32.4329
G01 X19.6358 Y32.4173
G01 X19.6453 Y32.3995
G01 X19.6512 Y32.3801
G01 X19.6532 Y32.3600
G00 Z2.0000
G00 X14.3331 Y31.2100
G01 F350.00
G01 Z-2.1000
G01 F400.00
G01 X14.3324 Y31.1950
G01 X14.3302 Y31.1801
G01 X14.3266 Y31.1655
G01 X14.3215 Y31.1514
G01 X14.3151 Y31.1378
G01 X14.3073 Y31.1249
G01 X14.2984 Y31.1128
G01 X14.2883 Y31.1017
G01 X14.2772 Y31.0916
G01 X14.2651 Y31.0827
G01 X14.2522 Y31.0749
G01 X14.2386 Y31.0685
G01 X14.2245 Y31.0634
G01 X14.2099 Y31.0598
G01 X14.1950 Y31.0576
G01 X14.1800 Y31.0569
G01 X14.1650 Y31.0576
G01 X14.1501 Y31.0598
G01 X14.1355 Y31.0634
G01 X14.1214 Y31.0685
G01 X14.1078 Y31.0749
G01 X14.0949 Y31.0827
G01 X14.0828 Y31.0916
G01 X14.0717 Y31.1017
G01 X14.0616 Y31.1128
G01 X14.0527 Y31.1249
G01 X14.0449 Y31.1378
G01 X14.0385 Y31.1514
G01 X14.0334 Y31.1655
G01 X14.0298 Y31.1801
G01 X14.0276 Y31.1950
G01 X14.0268 Y31.2100
G01 X14.0276 Y31.2250
G01 X14.0298 Y31.2399
G01 X14.0334 Y31.2545
G01 X14.0385 Y31.2686
G01 X14.0449 Y31.2822
G01 X14.0527 Y31.2951
G01 X14.0616 Y31.3072
G01 X14.0717 Y31.3183
G01 X14.0828 Y31.3284
G01 X14.0949 Y31.3373
G01 X14.1078 Y31.3451
G01 X14.1214 Y31.3515
G01 X14.1355 Y31.3566
G01 X14.1501 Y31.3602
G01 X14.1650 Y31.3624
G01 X14.1800 Y31.3632
G01 X14.1950 Y31.3624
G01 X14.2099 Y31.3602
G01 X14.2245 Y31.3566
G01 X14.2386 Y31.3515
G01 X14.2522 Y31.3451
G01 X14.2651 Y31.3373
G01 X14.2772 Y31.3284
G01 X14.2883 Y31.3183
G01 X14.2984 Y31.3072
G01 X14.3073 Y31.2951
G01 X14.3151 Y31.2822
G01 X14.3215 Y31.2686
G01 X14.3266 Y31.2545
G01 X14.3302 Y31.2399
G01 X14.3324 Y31.2250
G01 X14.3331 Y31.2100
G00 Z2.0000
G00 X5.0431 Y32.5400
G01 F350.00
G01 Z-2.1000
G01 F400.00
G01 X5.0378 Y32.4319
G01 X5.0220 Y32.3248
G01 X4.9956 Y32.2198
G01 X4.9592 Y32.1178
G01 X4.9129 Y32.0200
G01 X4.8572 Y31.9271
G01 X4.7927 Y31.8402
G01 X4.7200 Y31.7600
G01 X4.6398 Y31.6873
G01 X4.5529 Y31.6228
G01 X4.4600 Y31.5671
G01 X4.3622 Y31.5208
G01 X4.2602 Y31.4844
G01 X4.1552 Y31.4580
G01 X4.0481 Y31.4422
G01 X3.9400 Y31.4368
G01 X3.8319 Y31.4422
G01 X3.7248 Y31.4580
G01 X3.6198 Y31.4844
G01 X3.5178 Y31.5208
G01 X3.4200 Y31.5671
G01 X3.3271 Y31.6228
G01 X3.2402 Y31.6873
G01 X3.1600 Y31.7600
G01 X3.0873 Y31.8402
G01 X3.0228 Y31.9271
G01 X2.9671 Y32.0200
G01 X2.9208 Y32.1178
G01 X2.8844 Y32.2198
G01 X2.8580 Y32.3248
G01 X2.8422 Y32.4319
G01 X2.8369 Y32.5400
G01 X2.8422 Y32.6481
G01 X2.8580 Y32.7552
G01 X2.8844 Y32.8602
G01 X2.9208 Y32.9622
G01 X2.9671 Y33.0600
G01 X3.0228 Y33.1529
G01 X3.0873 Y33.2398
G01 X3.1600 Y33.3200
G01 X3.2402 Y33.3927
G01 X3.3271 Y33.4572
G01 X3.4200 Y33.5129
G01 X3.5178 Y33.5592
G01 X3.6198 Y33.5956
G01 X3.7248 Y33.6220
G01 X3.8319 Y33.6378
G01 X3.9400 Y33.6431
G01 X4.0481 Y33.6378
G01 X4.1552 Y33.6220
G01 X4.2602 Y33.5956
G01 X4.3622 Y33.5592
G01 X4.4600 Y33.5129
G01 X4.5529 Y33.4572
G01 X4.6398 Y33.3927
G01 X4.7200 Y33.3200
G01 X4.7927 Y33.2398
G01 X4.8572 Y33.1529
G01 X4.9129 Y33.0600
G01 X4.9592 Y32.9622
G01 X4.9956 Y32.8602
G01 X5.0220 Y32.7552
G01 X5.0378 Y32.6481
G01 X5.0431 Y32.5400
G00 Z2.0000
M05
G00 Z2.0000
G00 Z20.00
G00 X0.0Y0.0

G04 P0 ( dwell for no time -- G64 should not smooth over this point )
G00 Z10.000 ( retract )

M5 ( Spindle off. )
M9 ( Coolant off. )
M2 ( Program end. )