(G-CODE GENERATED BY FLATCAM v8.905 - www.flatcam.org - Version Date: 2019/01/29)

(Name: Rectifier-B.Cu.gbr_iso_cnc)
(Type: G-code from Geometry)
(Units: MM)

(Created on Sunday, 10 February 2019 at 20:53)

(TOOL DIAMETER: 0.17 mm)
(Feedrate: 400.0 mm/min)
(Feedrate_Z: 350.0 mm/min)
(Feedrate rapids 800.0 mm/min)

(Z_Cut: -0.1306 mm)
(Z_Move: 2.0 mm)
(Z Toolchange: 50.0 mm)
(X,Y Toolchange: 0.0000, 0.0000 mm)
(Z Start: 1.0 mm)
(Z End: 20.0 mm)
(Steps per circle: 64)
(Postprocessor Geometry: default)
(Spindle Speed: 18000 RPM)
G94 ( Millimeters per minute feed rate. )
G21 ( Units == Millimeters. )
G90 ( Absolute coordinates. )
G64 P0.01000 ( set maximum deviation from commanded toolpath )
G21
G90
G94
G21
G90
G94

G01 F400.00
G00 Z2.0000
G00 Z1.0000
M03 S18000
G00 X3.5182 Y1.6689
G01 F350.00
G01 Z-0.1306
G01 F400.00
G01 X5.9300 Y1.6686
G01 X5.9418 Y1.6689
G01 X5.9690 Y1.6718
G01 X5.9957 Y1.6777
G01 X6.0215 Y1.6866
G01 X6.0462 Y1.6984
G01 X6.0694 Y1.7129
G01 X6.0908 Y1.7299
G01 X6.1101 Y1.7492
G01 X6.1271 Y1.7706
G01 X6.1416 Y1.7938
G01 X6.1534 Y1.8185
G01 X6.1623 Y1.8443
G01 X6.1682 Y1.8710
G01 X6.1711 Y1.8982
G01 X6.1714 Y1.9100
G01 X6.1714 Y2.3683
G01 X6.6228 Y2.3683
G01 X8.3556 Y0.6356
G01 X8.4072 Y0.5889
G01 X8.4284 Y0.5720
G01 X8.4742 Y0.5395
G01 X8.4971 Y0.5251
G01 X8.5582 Y0.4918
G01 X8.6350 Y0.4600
G01 X8.7019 Y0.4403
G01 X8.7282 Y0.4343
G01 X8.7970 Y0.4230
G01 X8.8732 Y0.4184
G01 X39.1800 Y0.4183
G01 X39.2630 Y0.4230
G01 X39.3450 Y0.4369
G01 X39.4250 Y0.4600
G01 X39.5018 Y0.4918
G01 X39.5629 Y0.5251
G01 X39.5858 Y0.5395
G01 X39.6424 Y0.5802
G01 X39.6996 Y0.6309
G01 X41.4591 Y2.3904
G01 X41.5098 Y2.4476
G01 X41.5505 Y2.5042
G01 X41.5649 Y2.5271
G01 X41.5982 Y2.5882
G01 X41.6300 Y2.6650
G01 X41.6497 Y2.7319
G01 X41.6557 Y2.7582
G01 X41.6672 Y2.8294
G01 X44.0088 Y2.8666
G01 X44.0496 Y2.8695
G01 X44.0768 Y2.8741
G01 X44.1028 Y2.8804
G01 X44.1290 Y2.8888
G01 X44.1545 Y2.8992
G01 X44.1785 Y2.9111
G01 X44.2022 Y2.9250
G01 X44.2247 Y2.9409
G01 X44.2455 Y2.9578
G01 X44.2656 Y2.9765
G01 X44.2841 Y2.9969
G01 X44.3006 Y3.0180
G01 X44.3161 Y3.0407
G01 X44.3296 Y3.0647
G01 X44.3411 Y3.0889
G01 X44.3512 Y3.1145
G01 X44.3624 Y3.1538
G01 X44.3692 Y3.1942
G01 X44.3715 Y3.2350
G01 X44.3715 Y4.3050
G01 X44.3703 Y4.3328
G01 X44.3691 Y4.3463
G01 X44.3649 Y4.3737
G01 X44.3588 Y4.4001
G01 X44.3508 Y4.4267
G01 X44.3350 Y4.4649
G01 X44.3150 Y4.5010
G01 X44.2911 Y4.5347
G01 X44.2635 Y4.5655
G01 X44.2431 Y4.5843
G01 X44.2219 Y4.6012
G01 X44.1990 Y4.6170
G01 X44.1629 Y4.6370
G01 X44.1373 Y4.6480
G01 X44.1118 Y4.6569
G01 X44.0850 Y4.6642
G01 X44.0443 Y4.6711
G01 X44.0165 Y4.6731
G01 X42.6555 Y4.6735
G01 X42.6555 Y4.6986
G01 X44.1100 Y4.6986
G01 X44.1218 Y4.6989
G01 X44.1490 Y4.7018
G01 X44.1757 Y4.7077
G01 X44.2015 Y4.7166
G01 X44.2262 Y4.7284
G01 X44.2494 Y4.7429
G01 X44.2708 Y4.7599
G01 X44.2901 Y4.7792
G01 X44.3071 Y4.8006
G01 X44.3216 Y4.8238
G01 X44.3334 Y4.8485
G01 X44.3423 Y4.8743
G01 X44.3482 Y4.9010
G01 X44.3511 Y4.9281
G01 X44.3514 Y4.9400
G01 X44.3514 Y10.3400
G01 X44.3511 Y10.3518
G01 X44.3482 Y10.3790
G01 X44.3423 Y10.4057
G01 X44.3334 Y10.4315
G01 X44.3216 Y10.4562
G01 X44.3071 Y10.4794
G01 X44.2901 Y10.5008
G01 X44.2708 Y10.5201
G01 X44.2494 Y10.5371
G01 X44.2262 Y10.5516
G01 X44.2015 Y10.5634
G01 X44.1757 Y10.5723
G01 X44.1490 Y10.5782
G01 X44.1218 Y10.5811
G01 X44.1100 Y10.5814
G01 X42.6555 Y10.5814
G01 X42.6555 Y10.6065
G01 X44.0030 Y10.6065
G01 X44.0308 Y10.6077
G01 X44.0577 Y10.6107
G01 X44.0850 Y10.6158
G01 X44.1118 Y10.6231
G01 X44.1373 Y10.6320
G01 X44.1629 Y10.6430
G01 X44.1874 Y10.6561
G01 X44.2103 Y10.6705
G01 X44.2327 Y10.6869
G01 X44.2537 Y10.7052
G01 X44.2728 Y10.7243
G01 X44.2911 Y10.7453
G01 X44.3150 Y10.7790
G01 X44.3288 Y10.8031
G01 X44.3405 Y10.8275
G01 X44.3508 Y10.8533
G01 X44.3588 Y10.8799
G01 X44.3649 Y10.9063
G01 X44.3691 Y10.9337
G01 X44.3715 Y10.9750
G01 X44.3715 Y17.0310
G01 X44.3691 Y17.0727
G01 X44.3620 Y17.1138
G01 X44.3546 Y17.1408
G01 X44.3455 Y17.1666
G01 X44.3343 Y17.1924
G01 X44.3209 Y17.2170
G01 X44.3062 Y17.2401
G01 X44.2895 Y17.2627
G01 X44.2710 Y17.2837
G01 X44.2515 Y17.3029
G01 X44.2302 Y17.3211
G01 X44.2073 Y17.3375
G01 X44.1840 Y17.3518
G01 X44.1592 Y17.3647
G01 X44.1204 Y17.3803
G01 X44.0935 Y17.3881
G01 X44.0667 Y17.3938
G01 X44.0389 Y17.3977
G01 X43.9972 Y17.3994
G01 X41.4716 Y17.3600
G01 X41.4716 Y18.3697
G01 X41.5840 Y18.4072
G01 X41.6754 Y18.3054
G01 X41.7898 Y18.2027
G01 X41.8109 Y18.1858
G01 X41.9253 Y18.1047
G01 X41.9482 Y18.0903
G01 X42.0829 Y18.0163
G01 X42.2248 Y17.9571
G01 X42.2503 Y17.9482
G01 X42.3850 Y17.9094
G01 X42.4114 Y17.9034
G01 X42.5630 Y17.8780
G01 X42.7300 Y17.8686
G01 X42.8970 Y17.8780
G01 X43.0619 Y17.9060
G01 X43.2226 Y17.9523
G01 X43.3647 Y18.0108
G01 X43.3891 Y18.0225
G01 X43.5118 Y18.0903
G01 X43.5347 Y18.1047
G01 X43.6599 Y18.1940
G01 X43.7846 Y18.3054
G01 X43.8873 Y18.4198
G01 X43.9042 Y18.4409
G01 X43.9928 Y18.5665
G01 X44.0675 Y18.7009
G01 X44.0792 Y18.7253
G01 X44.1377 Y18.8674
G01 X44.1806 Y19.0150
G01 X44.1866 Y19.0414
G01 X44.2120 Y19.1930
G01 X44.2210 Y19.3465
G01 X44.2210 Y19.3735
G01 X44.2120 Y19.5270
G01 X44.1840 Y19.6919
G01 X44.1418 Y19.8397
G01 X44.1329 Y19.8652
G01 X44.0737 Y20.0071
G01 X43.9928 Y20.1535
G01 X43.8960 Y20.2899
G01 X43.7846 Y20.4146
G01 X43.6702 Y20.5173
G01 X43.6491 Y20.5342
G01 X43.5347 Y20.6153
G01 X43.5118 Y20.6297
G01 X43.3771 Y20.7037
G01 X43.2226 Y20.7677
G01 X43.0619 Y20.8140
G01 X42.8970 Y20.8420
G01 X42.7300 Y20.8514
G01 X42.5765 Y20.8432
G01 X42.5496 Y20.8401
G01 X42.4114 Y20.8166
G01 X42.3850 Y20.8106
G01 X42.2374 Y20.7677
G01 X42.0829 Y20.7037
G01 X41.9482 Y20.6297
G01 X41.9253 Y20.6153
G01 X41.8001 Y20.5260
G01 X41.6853 Y20.4239
G01 X41.6661 Y20.4047
G01 X41.5640 Y20.2899
G01 X41.4672 Y20.1535
G01 X41.3863 Y20.0071
G01 X41.3271 Y19.8652
G01 X41.3182 Y19.8397
G01 X41.2794 Y19.7050
G01 X41.2734 Y19.6786
G01 X41.2480 Y19.5270
G01 X41.2424 Y19.4350
G01 X40.7511 Y19.2712
G01 X40.7023 Y19.2514
G01 X40.6605 Y19.2295
G01 X40.6419 Y19.2185
G01 X40.5973 Y19.1873
G01 X40.5628 Y19.1577
G01 X40.5378 Y19.1331
G01 X40.5105 Y19.1025
G01 X40.4835 Y19.0660
G01 X40.4715 Y19.0481
G01 X40.4456 Y19.0022
G01 X40.4365 Y18.9826
G01 X40.4216 Y18.9464
G01 X40.4147 Y18.9260
G01 X40.4039 Y18.8883
G01 X40.3994 Y18.8672
G01 X40.3928 Y18.8286
G01 X40.3907 Y18.8071
G01 X40.3885 Y18.7680
G01 X40.3884 Y17.3430
G01 X37.8521 Y17.3034
G01 X37.8111 Y17.3005
G01 X37.7839 Y17.2958
G01 X37.7577 Y17.2894
G01 X37.7314 Y17.2811
G01 X37.7059 Y17.2705
G01 X37.6818 Y17.2585
G01 X37.6579 Y17.2445
G01 X37.6247 Y17.2203
G01 X37.6041 Y17.2019
G01 X37.5853 Y17.1827
G01 X37.5674 Y17.1616
G01 X37.5513 Y17.1391
G01 X37.5372 Y17.1162
G01 X37.5244 Y17.0917
G01 X37.5137 Y17.0662
G01 X37.5051 Y17.0407
G01 X37.4980 Y17.0140
G01 X37.4932 Y16.9868
G01 X37.4904 Y16.9600
G01 X37.4894 Y16.9324
G01 X37.5876 Y3.1364
G01 X37.5890 Y3.1085
G01 X37.5923 Y3.0815
G01 X37.5976 Y3.0540
G01 X37.6094 Y3.0142
G01 X37.6200 Y2.9883
G01 X37.6320 Y2.9639
G01 X37.6461 Y2.9398
G01 X37.6705 Y2.9062
G01 X37.6891 Y2.8853
G01 X37.7086 Y2.8663
G01 X37.7299 Y2.8482
G01 X37.7640 Y2.8246
G01 X37.7885 Y2.8110
G01 X37.8132 Y2.7995
G01 X37.8393 Y2.7896
G01 X37.8794 Y2.7786
G01 X37.9069 Y2.7740
G01 X37.9340 Y2.7713
G01 X37.9619 Y2.7706
G01 X39.7705 Y2.7993
G01 X38.8728 Y1.9017
G01 X9.1872 Y1.9017
G01 X7.4544 Y3.6344
G01 X7.3924 Y3.6898
G01 X7.3246 Y3.7380
G01 X7.2518 Y3.7782
G01 X7.1750 Y3.8100
G01 X7.0950 Y3.8331
G01 X7.0130 Y3.8470
G01 X6.9300 Y3.8517
G01 X6.1714 Y3.8517
G01 X6.1714 Y4.3100
G01 X6.1711 Y4.3218
G01 X6.1682 Y4.3490
G01 X6.1623 Y4.3757
G01 X6.1534 Y4.4015
G01 X6.1416 Y4.4262
G01 X6.1271 Y4.4494
G01 X6.1101 Y4.4708
G01 X6.0908 Y4.4901
G01 X6.0694 Y4.5071
G01 X6.0462 Y4.5216
G01 X6.0215 Y4.5334
G01 X5.9957 Y4.5423
G01 X5.9690 Y4.5482
G01 X5.9418 Y4.5511
G01 X5.9300 Y4.5514
G01 X3.5300 Y4.5514
G01 X3.5182 Y4.5511
G01 X3.4910 Y4.5482
G01 X3.4643 Y4.5423
G01 X3.4385 Y4.5334
G01 X3.4138 Y4.5216
G01 X3.3906 Y4.5071
G01 X3.3692 Y4.4901
G01 X3.3499 Y4.4708
G01 X3.3329 Y4.4494
G01 X3.3184 Y4.4262
G01 X3.3066 Y4.4015
G01 X3.2977 Y4.3757
G01 X3.2918 Y4.3490
G01 X3.2889 Y4.3218
G01 X3.2886 Y4.3100
G01 X3.2889 Y1.8982
G01 X3.2918 Y1.8710
G01 X3.2977 Y1.8443
G01 X3.3066 Y1.8185
G01 X3.3184 Y1.7938
G01 X3.3329 Y1.7706
G01 X3.3499 Y1.7492
G01 X3.3692 Y1.7299
G01 X3.3906 Y1.7129
G01 X3.4138 Y1.6984
G01 X3.4385 Y1.6866
G01 X3.4643 Y1.6777
G01 X3.4910 Y1.6718
G01 X3.5182 Y1.6689
G01 X5.9300 Y1.6686
G00 Z2.0000
G00 X3.5258 Y1.8251
G01 F350.00
G01 Z-0.1306
G01 F400.00
G01 X5.9300 Y1.8250
G01 X5.9437 Y1.8261
G01 X5.9531 Y1.8282
G01 X5.9622 Y1.8313
G01 X5.9709 Y1.8355
G01 X5.9791 Y1.8406
G01 X5.9866 Y1.8466
G01 X5.9934 Y1.8534
G01 X5.9994 Y1.8609
G01 X6.0045 Y1.8691
G01 X6.0087 Y1.8778
G01 X6.0118 Y1.8869
G01 X6.0139 Y1.8963
G01 X6.0149 Y1.9058
G01 X6.0150 Y2.5247
G01 X6.6876 Y2.5247
G01 X8.4662 Y0.7462
G01 X8.5115 Y0.7055
G01 X8.5647 Y0.6671
G01 X8.5727 Y0.6620
G01 X8.6261 Y0.6327
G01 X8.6867 Y0.6076
G01 X8.7544 Y0.5885
G01 X8.8145 Y0.5784
G01 X8.8776 Y0.5748
G01 X39.1800 Y0.5747
G01 X39.2455 Y0.5784
G01 X39.3102 Y0.5894
G01 X39.3733 Y0.6076
G01 X39.4339 Y0.6327
G01 X39.4914 Y0.6645
G01 X39.5411 Y0.6996
G01 X39.5938 Y0.7462
G01 X41.3438 Y2.4962
G01 X41.3845 Y2.5415
G01 X41.4255 Y2.5986
G01 X41.4551 Y2.6518
G01 X41.4807 Y2.7122
G01 X41.4839 Y2.7212
G01 X41.5006 Y2.7798
G01 X41.5116 Y2.8445
G01 X41.5152 Y2.9076
G01 X41.5153 Y2.9834
G01 X44.0064 Y3.0230
G01 X44.0252 Y3.0242
G01 X44.0484 Y3.0279
G01 X44.0576 Y3.0302
G01 X44.0755 Y3.0357
G01 X44.0929 Y3.0430
G01 X44.1177 Y3.0566
G01 X44.1403 Y3.0735
G01 X44.1541 Y3.0862
G01 X44.1667 Y3.1003
G01 X44.1832 Y3.1232
G01 X44.1964 Y3.1482
G01 X44.2034 Y3.1656
G01 X44.2099 Y3.1883
G01 X44.2138 Y3.2115
G01 X44.2151 Y3.2350
G01 X44.2151 Y4.3050
G01 X44.2141 Y4.3240
G01 X44.2097 Y4.3522
G01 X44.2046 Y4.3705
G01 X44.1960 Y4.3927
G01 X44.1919 Y4.4012
G01 X44.1826 Y4.4178
G01 X44.1688 Y4.4372
G01 X44.1530 Y4.4550
G01 X44.1352 Y4.4708
G01 X44.1117 Y4.4870
G01 X44.0950 Y4.4961
G01 X44.0730 Y4.5052
G01 X44.0455 Y4.5127
G01 X44.0267 Y4.5157
G01 X44.0078 Y4.5169
G01 X42.5336 Y4.5171
G01 X42.4991 Y4.5516
G01 X42.4991 Y4.8550
G01 X44.1142 Y4.8551
G01 X44.1237 Y4.8561
G01 X44.1331 Y4.8582
G01 X44.1422 Y4.8613
G01 X44.1509 Y4.8655
G01 X44.1591 Y4.8706
G01 X44.1666 Y4.8766
G01 X44.1734 Y4.8834
G01 X44.1794 Y4.8909
G01 X44.1845 Y4.8991
G01 X44.1887 Y4.9078
G01 X44.1918 Y4.9169
G01 X44.1939 Y4.9263
G01 X44.1950 Y4.9400
G01 X44.1950 Y10.3400
G01 X44.1939 Y10.3537
G01 X44.1918 Y10.3631
G01 X44.1887 Y10.3722
G01 X44.1845 Y10.3809
G01 X44.1794 Y10.3891
G01 X44.1734 Y10.3966
G01 X44.1666 Y10.4034
G01 X44.1591 Y10.4094
G01 X44.1509 Y10.4145
G01 X44.1422 Y10.4187
G01 X44.1331 Y10.4218
G01 X44.1237 Y10.4239
G01 X44.1142 Y10.4249
G01 X42.4991 Y10.4250
G01 X42.4991 Y10.7284
G01 X42.5336 Y10.7629
G01 X44.0030 Y10.7629
G01 X44.0267 Y10.7643
G01 X44.0548 Y10.7694
G01 X44.0730 Y10.7748
G01 X44.0907 Y10.7820
G01 X44.1158 Y10.7954
G01 X44.1389 Y10.8123
G01 X44.1530 Y10.8250
G01 X44.1657 Y10.8391
G01 X44.1826 Y10.8622
G01 X44.1960 Y10.8873
G01 X44.2032 Y10.9050
G01 X44.2086 Y10.9232
G01 X44.2137 Y10.9513
G01 X44.2151 Y10.9750
G01 X44.2151 Y17.0310
G01 X44.2137 Y17.0550
G01 X44.2096 Y17.0787
G01 X44.2012 Y17.1062
G01 X44.1937 Y17.1239
G01 X44.1819 Y17.1448
G01 X44.1648 Y17.1680
G01 X44.1518 Y17.1821
G01 X44.1374 Y17.1949
G01 X44.1140 Y17.2117
G01 X44.0885 Y17.2250
G01 X44.0706 Y17.2320
G01 X44.0521 Y17.2372
G01 X44.0285 Y17.2414
G01 X44.0189 Y17.2424
G01 X43.9997 Y17.2430
G01 X41.3152 Y17.2011
G01 X41.3152 Y18.4824
G01 X41.6411 Y18.5910
G01 X41.6863 Y18.5276
G01 X41.7860 Y18.4160
G01 X41.8976 Y18.3163
G01 X42.0197 Y18.2296
G01 X42.1508 Y18.1572
G01 X42.2891 Y18.0999
G01 X42.4329 Y18.0585
G01 X42.5805 Y18.0334
G01 X42.7252 Y18.0251
G01 X42.7348 Y18.0251
G01 X42.8795 Y18.0334
G01 X43.0271 Y18.0585
G01 X43.1664 Y18.0985
G01 X43.1754 Y18.1016
G01 X43.3092 Y18.1572
G01 X43.4362 Y18.2272
G01 X43.4442 Y18.2323
G01 X43.5585 Y18.3134
G01 X43.5660 Y18.3193
G01 X43.6740 Y18.4160
G01 X43.7737 Y18.5276
G01 X43.8604 Y18.6497
G01 X43.9306 Y18.7765
G01 X43.9347 Y18.7851
G01 X43.9884 Y18.9146
G01 X43.9915 Y18.9236
G01 X44.0315 Y19.0629
G01 X44.0566 Y19.2105
G01 X44.0650 Y19.3600
G01 X44.0570 Y19.5047
G01 X44.0559 Y19.5142
G01 X44.0325 Y19.6524
G01 X44.0303 Y19.6617
G01 X43.9901 Y19.8009
G01 X43.9328 Y19.9392
G01 X43.8604 Y20.0703
G01 X43.7737 Y20.1924
G01 X43.6740 Y20.3040
G01 X43.5660 Y20.4007
G01 X43.5585 Y20.4066
G01 X43.4442 Y20.4877
G01 X43.4362 Y20.4928
G01 X43.3092 Y20.5628
G01 X43.1709 Y20.6201
G01 X43.0271 Y20.6615
G01 X42.8795 Y20.6866
G01 X42.7300 Y20.6950
G01 X42.5853 Y20.6870
G01 X42.5758 Y20.6859
G01 X42.4376 Y20.6625
G01 X42.4283 Y20.6603
G01 X42.2891 Y20.6201
G01 X42.1508 Y20.5628
G01 X42.0238 Y20.4928
G01 X42.0158 Y20.4877
G01 X41.8976 Y20.4037
G01 X41.7895 Y20.3073
G01 X41.7827 Y20.3005
G01 X41.6863 Y20.1924
G01 X41.5996 Y20.0703
G01 X41.5294 Y19.9435
G01 X41.5253 Y19.9349
G01 X41.4699 Y19.8009
G01 X41.4297 Y19.6617
G01 X41.4275 Y19.6524
G01 X41.4034 Y19.5095
G01 X41.3951 Y19.3648
G01 X41.3970 Y19.3217
G01 X40.8082 Y19.1254
G01 X40.7629 Y19.1070
G01 X40.7300 Y19.0891
G01 X40.6982 Y19.0675
G01 X40.6862 Y19.0580
G01 X40.6577 Y19.0323
G01 X40.6325 Y19.0046
G01 X40.6097 Y18.9737
G01 X40.6015 Y18.9608
G01 X40.5830 Y18.9271
G01 X40.5665 Y18.8872
G01 X40.5545 Y18.8457
G01 X40.5473 Y18.8031
G01 X40.5449 Y18.7657
G01 X40.5448 Y17.1891
G01 X37.8498 Y17.1468
G01 X37.8310 Y17.1453
G01 X37.8124 Y17.1420
G01 X37.7851 Y17.1342
G01 X37.7592 Y17.1226
G01 X37.7428 Y17.1131
G01 X37.7237 Y17.0992
G01 X37.7062 Y17.0832
G01 X37.6937 Y17.0691
G01 X37.6772 Y17.0460
G01 X37.6641 Y17.0208
G01 X37.6571 Y17.0032
G01 X37.6519 Y16.9850
G01 X37.6470 Y16.9571
G01 X37.6458 Y16.9335
G01 X37.7440 Y3.1375
G01 X37.7455 Y3.1136
G01 X37.7488 Y3.0948
G01 X37.7551 Y3.0717
G01 X37.7583 Y3.0627
G01 X37.7659 Y3.0452
G01 X37.7777 Y3.0244
G01 X37.7949 Y3.0014
G01 X37.8079 Y2.9874
G01 X37.8222 Y2.9747
G01 X37.8456 Y2.9580
G01 X37.8710 Y2.9448
G01 X37.8889 Y2.9379
G01 X37.9073 Y2.9327
G01 X37.9166 Y2.9307
G01 X37.9403 Y2.9276
G01 X37.9595 Y2.9270
G01 X40.1541 Y2.9618
G01 X38.9376 Y1.7453
G01 X9.1224 Y1.7453
G01 X7.3438 Y3.5238
G01 X7.2949 Y3.5676
G01 X7.2414 Y3.6055
G01 X7.1839 Y3.6373
G01 X7.1233 Y3.6624
G01 X7.0602 Y3.6806
G01 X6.9908 Y3.6920
G01 X6.9300 Y3.6953
G01 X6.0150 Y3.6953
G01 X6.0150 Y4.3100
G01 X6.0139 Y4.3237
G01 X6.0118 Y4.3331
G01 X6.0087 Y4.3422
G01 X6.0045 Y4.3509
G01 X5.9994 Y4.3591
G01 X5.9934 Y4.3666
G01 X5.9866 Y4.3734
G01 X5.9791 Y4.3794
G01 X5.9709 Y4.3845
G01 X5.9622 Y4.3887
G01 X5.9531 Y4.3918
G01 X5.9437 Y4.3939
G01 X5.9300 Y4.3950
G01 X3.5300 Y4.3950
G01 X3.5163 Y4.3939
G01 X3.5069 Y4.3918
G01 X3.4978 Y4.3887
G01 X3.4891 Y4.3845
G01 X3.4809 Y4.3794
G01 X3.4734 Y4.3734
G01 X3.4666 Y4.3666
G01 X3.4606 Y4.3591
G01 X3.4555 Y4.3509
G01 X3.4513 Y4.3422
G01 X3.4482 Y4.3331
G01 X3.4461 Y4.3237
G01 X3.4450 Y4.3100
G01 X3.4450 Y1.9100
G01 X3.4461 Y1.8963
G01 X3.4482 Y1.8869
G01 X3.4513 Y1.8778
G01 X3.4555 Y1.8691
G01 X3.4606 Y1.8609
G01 X3.4666 Y1.8534
G01 X3.4734 Y1.8466
G01 X3.4809 Y1.8406
G01 X3.4891 Y1.8355
G01 X3.4978 Y1.8313
G01 X3.5069 Y1.8282
G01 X3.5163 Y1.8261
G01 X3.5258 Y1.8251
G01 X5.9300 Y1.8250
G00 Z2.0000
G00 X5.0993 Y4.7078
G01 F350.00
G01 Z-0.1306
G01 F400.00
G01 X5.0827 Y4.7408
G01 X5.0739 Y4.7618
G01 X5.0611 Y4.7969
G01 X5.0511 Y4.8328
G01 X5.0460 Y4.8550
G01 X5.0422 Y4.8775
G01 X5.0377 Y4.9145
G01 X5.0365 Y4.9373
G01 X5.0362 Y4.9746
G01 X5.0389 Y5.0118
G01 X5.0434 Y5.0445
G01 X4.9310 Y5.0254
G01 X4.9089 Y5.0222
G01 X4.8867 Y5.0204
G01 X4.7523 Y5.0128
G01 X4.7300 Y5.0122
G01 X4.7077 Y5.0128
G01 X4.5733 Y5.0204
G01 X4.5511 Y5.0222
G01 X4.5290 Y5.0254
G01 X4.4313 Y5.0420
G01 X4.4359 Y5.0076
G01 X4.4380 Y4.9715
G01 X4.4382 Y4.9494
G01 X4.4363 Y4.9132
G01 X4.4341 Y4.8912
G01 X4.4307 Y4.8694
G01 X4.4236 Y4.8339
G01 X4.4137 Y4.7991
G01 X4.4067 Y4.7781
G01 X4.3930 Y4.7446
G01 X4.3838 Y4.7245
G01 X4.3749 Y4.7078
G01 X5.0993 Y4.7078
G01 X5.0827 Y4.7408
G00 Z2.0000
G00 X3.3949 Y5.9756
G01 F350.00
G01 Z-0.1306
G01 F400.00
G01 X3.4230 Y6.0037
G01 X3.3695 Y6.1339
G01 X3.3247 Y6.2893
G01 X3.2977 Y6.4486
G01 X3.2886 Y6.6100
G01 X3.2977 Y6.7714
G01 X3.3247 Y6.9307
G01 X3.3695 Y7.0861
G01 X3.4230 Y7.2163
G01 X3.4003 Y7.2390
G01 X3.2557 Y6.8596
G01 X3.2726 Y6.2709
G01 X3.3949 Y5.9756
G01 X3.4230 Y6.0037
G00 Z2.0000
G00 X3.6151 Y7.2454
G01 F350.00
G01 Z-0.1306
G01 F400.00
G01 X3.3844 Y7.4761
G01 X3.3114 Y7.4449
G01 X3.0985 Y6.8862
G01 X3.1171 Y6.2376
G01 X3.3081 Y5.7765
G01 X3.3844 Y5.7439
G01 X3.6151 Y5.9746
G01 X3.5723 Y6.0525
G01 X3.5188 Y6.1811
G01 X3.4784 Y6.3194
G01 X3.4763 Y6.3287
G01 X3.4531 Y6.4661
G01 X3.4450 Y6.6100
G01 X3.4531 Y6.7539
G01 X3.4763 Y6.8913
G01 X3.4784 Y6.9006
G01 X3.5188 Y7.0389
G01 X3.5723 Y7.1675
G01 X3.6151 Y7.2454
G01 X3.3844 Y7.4761
G00 Z2.0000
G00 X4.0946 Y7.7249
G01 F350.00
G01 Z-0.1306
G01 F400.00
G01 X4.1725 Y7.7677
G01 X4.3011 Y7.8212
G01 X4.4394 Y7.8616
G01 X4.4487 Y7.8637
G01 X4.5861 Y7.8869
G01 X4.7300 Y7.8950
G01 X4.8739 Y7.8869
G01 X5.0113 Y7.8637
G01 X5.0206 Y7.8616
G01 X5.1589 Y7.8212
G01 X5.2875 Y7.7677
G01 X5.3654 Y7.7249
G01 X5.5961 Y7.9556
G01 X5.5649 Y8.0286
G01 X5.0062 Y8.2415
G01 X4.3576 Y8.2229
G01 X3.8965 Y8.0319
G01 X3.8639 Y7.9556
G01 X4.0946 Y7.7249
G01 X4.1725 Y7.7677
G00 Z2.0000
G00 X4.0956 Y7.9451
G01 F350.00
G01 Z-0.1306
G01 F400.00
G01 X4.1237 Y7.9170
G01 X4.2539 Y7.9705
G01 X4.4093 Y8.0153
G01 X4.5686 Y8.0423
G01 X4.7300 Y8.0514
G01 X4.8914 Y8.0423
G01 X5.0507 Y8.0153
G01 X5.2061 Y7.9705
G01 X5.3363 Y7.9170
G01 X5.3590 Y7.9397
G01 X4.9796 Y8.0843
G01 X4.3909 Y8.0674
G01 X4.0956 Y7.9451
G01 X4.1237 Y7.9170
G00 Z2.0000
G00 X5.8449 Y7.2454
G01 F350.00
G01 Z-0.1306
G01 F400.00
G01 X5.8877 Y7.1675
G01 X5.9412 Y7.0389
G01 X5.9816 Y6.9006
G01 X5.9837 Y6.8913
G01 X6.0069 Y6.7539
G01 X6.0150 Y6.6100
G01 X6.0069 Y6.4661
G01 X5.9837 Y6.3287
G01 X5.9816 Y6.3194
G01 X5.9412 Y6.1811
G01 X5.8877 Y6.0525
G01 X5.8449 Y5.9746
G01 X6.0756 Y5.7439
G01 X6.1486 Y5.7751
G01 X6.3615 Y6.3338
G01 X6.3429 Y6.9824
G01 X6.1519 Y7.4435
G01 X6.0756 Y7.4761
G01 X5.8449 Y7.2454
G01 X5.8877 Y7.1675
G00 Z2.0000
G00 X6.0370 Y7.2163
G01 F350.00
G01 Z-0.1306
G01 F400.00
G01 X6.0905 Y7.0861
G01 X6.1353 Y6.9307
G01 X6.1623 Y6.7714
G01 X6.1714 Y6.6100
G01 X6.1623 Y6.4486
G01 X6.1353 Y6.2893
G01 X6.0905 Y6.1339
G01 X6.0370 Y6.0037
G01 X6.0597 Y5.9810
G01 X6.2043 Y6.3604
G01 X6.1874 Y6.9491
G01 X6.0651 Y7.2444
G01 X6.0370 Y7.2163
G01 X6.0905 Y7.0861
G00 Z2.0000
G00 X10.3742 Y6.8913
G01 F350.00
G01 Z-0.1306
G01 F400.00
G01 X10.1540 Y7.1115
G01 X10.0329 Y7.0482
G01 X9.7507 Y6.3340
G01 X9.7640 Y5.5275
G01 X10.0311 Y4.8827
G01 X10.1540 Y4.8185
G01 X10.3742 Y5.0387
G01 X10.3508 Y5.0726
G01 X10.2619 Y5.2339
G01 X10.1913 Y5.4040
G01 X10.1881 Y5.4130
G01 X10.1372 Y5.5901
G01 X10.1063 Y5.7716
G01 X10.1052 Y5.7811
G01 X10.0950 Y5.9650
G01 X10.1052 Y6.1489
G01 X10.1063 Y6.1584
G01 X10.1372 Y6.3399
G01 X10.1881 Y6.5170
G01 X10.1913 Y6.5260
G01 X10.2619 Y6.6961
G01 X10.3508 Y6.8574
G01 X10.3742 Y6.8913
G01 X10.1540 Y7.1115
G00 Z2.0000
G00 X10.8537 Y7.3708
G01 F350.00
G01 Z-0.1306
G01 F400.00
G01 X10.8876 Y7.3942
G01 X11.0489 Y7.4831
G01 X11.2190 Y7.5537
G01 X11.2280 Y7.5569
G01 X11.4051 Y7.6078
G01 X11.5866 Y7.6387
G01 X11.5961 Y7.6398
G01 X11.7800 Y7.6500
G01 X11.9639 Y7.6398
G01 X11.9734 Y7.6387
G01 X12.1549 Y7.6078
G01 X12.3320 Y7.5569
G01 X12.3410 Y7.5537
G01 X12.5111 Y7.4831
G01 X12.6724 Y7.3942
G01 X12.7063 Y7.3708
G01 X12.9265 Y7.5910
G01 X12.8632 Y7.7121
G01 X12.1490 Y7.9943
G01 X11.3425 Y7.9810
G01 X10.6977 Y7.7139
G01 X10.6335 Y7.5910
G01 X10.8537 Y7.3708
G01 X10.8876 Y7.3942
G00 Z2.0000
G00 X10.8415 Y7.6042
G01 F350.00
G01 Z-0.1306
G01 F400.00
G01 X10.8781 Y7.5676
G01 X10.9810 Y7.6240
G01 X11.1592 Y7.6982
G01 X11.1847 Y7.7072
G01 X11.3571 Y7.7569
G01 X11.3835 Y7.7629
G01 X11.5738 Y7.7948
G01 X11.7800 Y7.8064
G01 X11.9862 Y7.7948
G01 X12.1898 Y7.7602
G01 X12.3753 Y7.7072
G01 X12.4008 Y7.6982
G01 X12.5790 Y7.6240
G01 X12.6819 Y7.5676
G01 X12.7163 Y7.6020
G01 X12.1204 Y7.8374
G01 X11.3748 Y7.8251
G01 X10.8415 Y7.6042
G01 X10.8781 Y7.5676
G00 Z2.0000
G00 X13.1858 Y6.8913
G01 F350.00
G01 Z-0.1306
G01 F400.00
G01 X13.2092 Y6.8574
G01 X13.2981 Y6.6961
G01 X13.3687 Y6.5260
G01 X13.3719 Y6.5170
G01 X13.4228 Y6.3399
G01 X13.4537 Y6.1584
G01 X13.4548 Y6.1489
G01 X13.4650 Y5.9650
G01 X13.4548 Y5.7811
G01 X13.4537 Y5.7716
G01 X13.4228 Y5.5901
G01 X13.3719 Y5.4130
G01 X13.3687 Y5.4040
G01 X13.2981 Y5.2339
G01 X13.2092 Y5.0726
G01 X13.1858 Y5.0387
G01 X13.4060 Y4.8185
G01 X13.5271 Y4.8818
G01 X13.8093 Y5.5960
G01 X13.7960 Y6.4025
G01 X13.5289 Y7.0473
G01 X13.4060 Y7.1115
G01 X13.1858 Y6.8913
G01 X13.2092 Y6.8574
G00 Z2.0000
G00 X13.3826 Y6.8669
G01 F350.00
G01 Z-0.1306
G01 F400.00
G01 X13.4390 Y6.7640
G01 X13.5132 Y6.5858
G01 X13.5222 Y6.5603
G01 X13.5719 Y6.3879
G01 X13.5779 Y6.3615
G01 X13.6098 Y6.1712
G01 X13.6214 Y5.9650
G01 X13.6098 Y5.7588
G01 X13.5752 Y5.5553
G01 X13.5222 Y5.3697
G01 X13.5132 Y5.3442
G01 X13.4390 Y5.1660
G01 X13.3826 Y5.0631
G01 X13.4170 Y5.0287
G01 X13.6524 Y5.6246
G01 X13.6401 Y6.3702
G01 X13.4192 Y6.9035
G01 X13.3826 Y6.8669
G01 X13.4390 Y6.7640
G00 Z2.0000
G00 X10.8537 Y4.5592
G01 F350.00
G01 Z-0.1306
G01 F400.00
G01 X10.6335 Y4.3390
G01 X10.6968 Y4.2179
G01 X11.4110 Y3.9357
G01 X12.2175 Y3.9490
G01 X12.8623 Y4.2161
G01 X12.9265 Y4.3390
G01 X12.7063 Y4.5592
G01 X12.6724 Y4.5358
G01 X12.5111 Y4.4469
G01 X12.3410 Y4.3763
G01 X12.3320 Y4.3731
G01 X12.1549 Y4.3222
G01 X11.9734 Y4.2913
G01 X11.9639 Y4.2902
G01 X11.7800 Y4.2800
G01 X11.5961 Y4.2902
G01 X11.5866 Y4.2913
G01 X11.4051 Y4.3222
G01 X11.2280 Y4.3731
G01 X11.2190 Y4.3763
G01 X11.0489 Y4.4469
G01 X10.8876 Y4.5358
G01 X10.8537 Y4.5592
G01 X10.6335 Y4.3390
G00 Z2.0000
G00 X10.8781 Y4.3624
G01 F350.00
G01 Z-0.1306
G01 F400.00
G01 X10.8437 Y4.3280
G01 X11.4396 Y4.0926
G01 X12.1852 Y4.1049
G01 X12.7185 Y4.3258
G01 X12.6819 Y4.3624
G01 X12.5790 Y4.3060
G01 X12.4008 Y4.2318
G01 X12.3753 Y4.2228
G01 X12.2029 Y4.1731
G01 X12.1765 Y4.1671
G01 X11.9862 Y4.1352
G01 X11.7800 Y4.1236
G01 X11.5738 Y4.1352
G01 X11.3835 Y4.1671
G01 X11.3571 Y4.1731
G01 X11.1847 Y4.2228
G01 X11.1592 Y4.2318
G01 X10.9810 Y4.3060
G01 X10.8781 Y4.3624
G01 X10.8437 Y4.3280
G00 Z2.0000
G00 X10.1408 Y5.0265
G01 F350.00
G01 Z-0.1306
G01 F400.00
G01 X10.1774 Y5.0631
G01 X10.1210 Y5.1660
G01 X10.0468 Y5.3442
G01 X10.0378 Y5.3697
G01 X9.9881 Y5.5421
G01 X9.9821 Y5.5685
G01 X9.9502 Y5.7588
G01 X9.9386 Y5.9650
G01 X9.9502 Y6.1712
G01 X9.9848 Y6.3747
G01 X10.0378 Y6.5603
G01 X10.0468 Y6.5858
G01 X10.1210 Y6.7640
G01 X10.1774 Y6.8669
G01 X10.1430 Y6.9013
G01 X9.9076 Y6.3054
G01 X9.9199 Y5.5598
G01 X10.1408 Y5.0265
G01 X10.1774 Y5.0631
G00 Z2.0000
G00 X9.9135 Y11.6663
G01 F350.00
G01 Z-0.1306
G01 F400.00
G01 X9.9135 Y10.9237
G01 X10.1976 Y10.2377
G01 X10.7227 Y9.7126
G01 X11.4087 Y9.4285
G01 X12.1513 Y9.4285
G01 X12.8373 Y9.7126
G01 X13.3624 Y10.2377
G01 X13.6465 Y10.9237
G01 X13.6465 Y11.6663
G01 X13.3624 Y12.3523
G01 X12.8373 Y12.8774
G01 X12.1513 Y13.1615
G01 X11.4087 Y13.1615
G01 X10.7227 Y12.8774
G01 X10.1976 Y12.3523
G01 X9.9135 Y11.6663
G01 X9.9135 Y10.9237
G00 Z2.0000
G00 X9.7571 Y11.6974
G01 F350.00
G01 Z-0.1306
G01 F400.00
G01 X9.7571 Y10.8926
G01 X10.0650 Y10.1491
G01 X10.6341 Y9.5800
G01 X11.3776 Y9.2721
G01 X12.1824 Y9.2721
G01 X12.9259 Y9.5800
G01 X13.4950 Y10.1491
G01 X13.8029 Y10.8926
G01 X13.8029 Y11.6974
G01 X13.4950 Y12.4409
G01 X12.9259 Y13.0100
G01 X12.1824 Y13.3179
G01 X11.3776 Y13.3179
G01 X10.6341 Y13.0100
G01 X10.0650 Y12.4409
G01 X9.7571 Y11.6974
G01 X9.7571 Y10.8926
G00 Z2.0000
G00 X6.0710 Y12.0735
G01 F350.00
G01 Z-0.1306
G01 F400.00
G01 X6.0623 Y12.2214
G01 X6.0353 Y12.3807
G01 X5.9905 Y12.5361
G01 X5.9342 Y12.6730
G01 X5.9224 Y12.6974
G01 X5.8573 Y12.8152
G01 X5.8429 Y12.8381
G01 X5.7569 Y12.9587
G01 X5.6492 Y13.0792
G01 X5.5287 Y13.1869
G01 X5.3969 Y13.2805
G01 X5.2554 Y13.3587
G01 X5.1187 Y13.4157
G01 X5.0932 Y13.4246
G01 X4.9639 Y13.4619
G01 X4.9375 Y13.4679
G01 X4.7914 Y13.4923
G01 X4.6300 Y13.5014
G01 X4.4686 Y13.4923
G01 X4.3225 Y13.4679
G01 X4.2961 Y13.4619
G01 X4.1668 Y13.4246
G01 X4.1413 Y13.4157
G01 X4.0046 Y13.3587
G01 X3.8631 Y13.2805
G01 X3.7313 Y13.1869
G01 X3.6108 Y13.0792
G01 X3.5031 Y12.9587
G01 X3.4171 Y12.8381
G01 X3.4027 Y12.8152
G01 X3.3376 Y12.6974
G01 X3.3258 Y12.6730
G01 X3.2695 Y12.5361
G01 X3.2247 Y12.3807
G01 X3.1977 Y12.2214
G01 X3.1886 Y12.0600
G01 X3.1977 Y11.8986
G01 X3.2247 Y11.7393
G01 X3.2695 Y11.5839
G01 X3.3258 Y11.4470
G01 X3.3376 Y11.4226
G01 X3.4027 Y11.3048
G01 X3.4171 Y11.2819
G01 X3.5031 Y11.1613
G01 X3.6108 Y11.0408
G01 X3.7313 Y10.9331
G01 X3.8631 Y10.8395
G01 X4.0046 Y10.7613
G01 X4.1413 Y10.7043
G01 X4.1668 Y10.6954
G01 X4.2961 Y10.6581
G01 X4.3225 Y10.6521
G01 X4.4686 Y10.6277
G01 X4.6300 Y10.6186
G01 X4.7914 Y10.6277
G01 X4.9375 Y10.6521
G01 X4.9639 Y10.6581
G01 X5.0932 Y10.6954
G01 X5.1187 Y10.7043
G01 X5.2554 Y10.7613
G01 X5.3969 Y10.8395
G01 X5.5287 Y10.9331
G01 X5.6492 Y11.0408
G01 X5.7569 Y11.1613
G01 X5.8505 Y11.2931
G01 X5.9287 Y11.4346
G01 X5.9857 Y11.5713
G01 X5.9946 Y11.5968
G01 X6.0319 Y11.7261
G01 X6.0379 Y11.7525
G01 X6.0623 Y11.8986
G01 X6.0710 Y12.0465
G01 X6.0710 Y12.0735
G01 X6.0623 Y12.2214
G00 Z2.0000
G00 X5.9149 Y12.0648
G01 F350.00
G01 Z-0.1306
G01 F400.00
G01 X5.9069 Y12.2039
G01 X5.8828 Y12.3459
G01 X5.8429 Y12.4844
G01 X5.7897 Y12.6132
G01 X5.7205 Y12.7396
G01 X5.7154 Y12.7476
G01 X5.6347 Y12.8612
G01 X5.5386 Y12.9686
G01 X5.4312 Y13.0647
G01 X5.3137 Y13.1480
G01 X5.1875 Y13.2177
G01 X5.0589 Y13.2712
G01 X4.9206 Y13.3116
G01 X4.9113 Y13.3137
G01 X4.7739 Y13.3369
G01 X4.6300 Y13.3450
G01 X4.4861 Y13.3369
G01 X4.3487 Y13.3137
G01 X4.3394 Y13.3116
G01 X4.2011 Y13.2712
G01 X4.0725 Y13.2177
G01 X3.9463 Y13.1480
G01 X3.8288 Y13.0647
G01 X3.7214 Y12.9686
G01 X3.6253 Y12.8612
G01 X3.5446 Y12.7476
G01 X3.5395 Y12.7396
G01 X3.4703 Y12.6132
G01 X3.4171 Y12.4844
G01 X3.3772 Y12.3459
G01 X3.3531 Y12.2039
G01 X3.3450 Y12.0600
G01 X3.3531 Y11.9161
G01 X3.3772 Y11.7741
G01 X3.4171 Y11.6356
G01 X3.4703 Y11.5068
G01 X3.5395 Y11.3804
G01 X3.5446 Y11.3724
G01 X3.6253 Y11.2588
G01 X3.7214 Y11.1514
G01 X3.8288 Y11.0553
G01 X3.9463 Y10.9720
G01 X4.0725 Y10.9023
G01 X4.2011 Y10.8488
G01 X4.3394 Y10.8084
G01 X4.3487 Y10.8063
G01 X4.4861 Y10.7831
G01 X4.6300 Y10.7750
G01 X4.7739 Y10.7831
G01 X4.9113 Y10.8063
G01 X4.9206 Y10.8084
G01 X5.0589 Y10.8488
G01 X5.1875 Y10.9023
G01 X5.3137 Y10.9720
G01 X5.4312 Y11.0553
G01 X5.5386 Y11.1514
G01 X5.6347 Y11.2588
G01 X5.7180 Y11.3763
G01 X5.7877 Y11.5025
G01 X5.8412 Y11.6311
G01 X5.8816 Y11.7694
G01 X5.8837 Y11.7787
G01 X5.9069 Y11.9161
G01 X5.9149 Y12.0552
G01 X5.9149 Y12.0648
G01 X5.9069 Y12.2039
G00 Z2.0000
G00 X4.2860 Y13.9622
G01 F350.00
G01 Z-0.1306
G01 F400.00
G01 X4.3016 Y13.9311
G01 X4.3155 Y13.8981
G01 X4.3227 Y13.8774
G01 X4.3329 Y13.8431
G01 X4.3405 Y13.8081
G01 X4.3442 Y13.7865
G01 X4.3467 Y13.7648
G01 X4.3492 Y13.7290
G01 X4.3492 Y13.7072
G01 X4.3478 Y13.6714
G01 X4.3427 Y13.6300
G01 X4.4511 Y13.6478
G01 X4.4733 Y13.6496
G01 X4.6077 Y13.6572
G01 X4.6300 Y13.6578
G01 X4.6523 Y13.6572
G01 X4.7867 Y13.6496
G01 X4.8089 Y13.6478
G01 X4.9173 Y13.6300
G01 X4.9122 Y13.6714
G01 X4.9108 Y13.7072
G01 X4.9108 Y13.7290
G01 X4.9133 Y13.7648
G01 X4.9158 Y13.7865
G01 X4.9195 Y13.8081
G01 X4.9271 Y13.8431
G01 X4.9331 Y13.8641
G01 X4.9445 Y13.8981
G01 X4.9584 Y13.9311
G01 X4.9740 Y13.9622
G01 X4.2860 Y13.9622
G01 X4.3016 Y13.9311
G00 Z2.0000
G00 X3.4182 Y14.1189
G01 F350.00
G01 Z-0.1306
G01 F400.00
G01 X5.8418 Y14.1189
G01 X5.8690 Y14.1218
G01 X5.8957 Y14.1277
G01 X5.9215 Y14.1366
G01 X5.9462 Y14.1484
G01 X5.9694 Y14.1629
G01 X5.9908 Y14.1799
G01 X6.0101 Y14.1992
G01 X6.0271 Y14.2206
G01 X6.0416 Y14.2438
G01 X6.0534 Y14.2685
G01 X6.0623 Y14.2943
G01 X6.0682 Y14.3210
G01 X6.0711 Y14.3482
G01 X6.0714 Y14.3600
G01 X6.0714 Y16.7600
G01 X6.0711 Y16.7718
G01 X6.0682 Y16.7990
G01 X6.0623 Y16.8257
G01 X6.0534 Y16.8515
G01 X6.0416 Y16.8762
G01 X6.0271 Y16.8994
G01 X6.0101 Y16.9208
G01 X5.9908 Y16.9401
G01 X5.9694 Y16.9571
G01 X5.9462 Y16.9716
G01 X5.9215 Y16.9834
G01 X5.8957 Y16.9923
G01 X5.8690 Y16.9982
G01 X5.8418 Y17.0011
G01 X5.8300 Y17.0014
G01 X3.4300 Y17.0014
G01 X3.4182 Y17.0011
G01 X3.3910 Y16.9982
G01 X3.3643 Y16.9923
G01 X3.3385 Y16.9834
G01 X3.3138 Y16.9716
G01 X3.2906 Y16.9571
G01 X3.2692 Y16.9401
G01 X3.2499 Y16.9208
G01 X3.2329 Y16.8994
G01 X3.2184 Y16.8762
G01 X3.2066 Y16.8515
G01 X3.1977 Y16.8257
G01 X3.1918 Y16.7990
G01 X3.1889 Y16.7718
G01 X3.1886 Y16.7600
G01 X3.1889 Y14.3482
G01 X3.1918 Y14.3210
G01 X3.1977 Y14.2943
G01 X3.2066 Y14.2685
G01 X3.2184 Y14.2438
G01 X3.2329 Y14.2206
G01 X3.2499 Y14.1992
G01 X3.2692 Y14.1799
G01 X3.2906 Y14.1629
G01 X3.3138 Y14.1484
G01 X3.3385 Y14.1366
G01 X3.3643 Y14.1277
G01 X3.3910 Y14.1218
G01 X3.4182 Y14.1189
G01 X5.8418 Y14.1189
G00 Z2.0000
G00 X3.4258 Y14.2751
G01 F350.00
G01 Z-0.1306
G01 F400.00
G01 X5.8300 Y14.2750
G01 X5.8437 Y14.2761
G01 X5.8531 Y14.2782
G01 X5.8622 Y14.2813
G01 X5.8709 Y14.2855
G01 X5.8791 Y14.2906
G01 X5.8866 Y14.2966
G01 X5.8934 Y14.3034
G01 X5.8994 Y14.3109
G01 X5.9045 Y14.3191
G01 X5.9087 Y14.3278
G01 X5.9118 Y14.3369
G01 X5.9139 Y14.3463
G01 X5.9150 Y14.3600
G01 X5.9150 Y16.7600
G01 X5.9139 Y16.7737
G01 X5.9118 Y16.7831
G01 X5.9087 Y16.7922
G01 X5.9045 Y16.8009
G01 X5.8994 Y16.8091
G01 X5.8934 Y16.8166
G01 X5.8866 Y16.8234
G01 X5.8791 Y16.8294
G01 X5.8709 Y16.8345
G01 X5.8622 Y16.8387
G01 X5.8531 Y16.8418
G01 X5.8437 Y16.8439
G01 X5.8300 Y16.8450
G01 X3.4300 Y16.8450
G01 X3.4163 Y16.8439
G01 X3.4069 Y16.8418
G01 X3.3978 Y16.8387
G01 X3.3891 Y16.8345
G01 X3.3809 Y16.8294
G01 X3.3734 Y16.8234
G01 X3.3666 Y16.8166
G01 X3.3606 Y16.8091
G01 X3.3555 Y16.8009
G01 X3.3513 Y16.7922
G01 X3.3482 Y16.7831
G01 X3.3461 Y16.7737
G01 X3.3450 Y16.7600
G01 X3.3450 Y14.3600
G01 X3.3461 Y14.3463
G01 X3.3482 Y14.3369
G01 X3.3513 Y14.3278
G01 X3.3555 Y14.3191
G01 X3.3606 Y14.3109
G01 X3.3666 Y14.3034
G01 X3.3734 Y14.2966
G01 X3.3809 Y14.2906
G01 X3.3891 Y14.2855
G01 X3.3978 Y14.2813
G01 X3.4069 Y14.2782
G01 X3.4163 Y14.2761
G01 X3.4258 Y14.2751
G01 X5.8300 Y14.2750
G00 Z2.0000
G00 X6.0805 Y16.8649
G01 F350.00
G01 Z-0.1306
G01 F400.00
G01 X6.0222 Y16.9522
G01 X5.9340 Y17.0111
G01 X5.7937 Y17.0390
G01 X3.4663 Y17.0390
G01 X3.3260 Y17.0111
G01 X3.2378 Y16.9522
G01 X3.1789 Y16.8640
G01 X3.1510 Y16.7237
G01 X3.1510 Y14.3963
G01 X3.1789 Y14.2560
G01 X3.2378 Y14.1678
G01 X3.3260 Y14.1089
G01 X3.4663 Y14.0810
G01 X3.8245 Y14.0810
G01 X3.8650 Y14.0788
G01 X3.9049 Y14.0721
G01 X3.9312 Y14.0651
G01 X3.9439 Y14.0612
G01 X3.9693 Y14.0513
G01 X3.9933 Y14.0400
G01 X4.0171 Y14.0267
G01 X4.0397 Y14.0115
G01 X4.0606 Y13.9953
G01 X4.0810 Y13.9772
G01 X4.1085 Y13.9474
G01 X4.1249 Y13.9257
G01 X4.1395 Y13.9036
G01 X4.1529 Y13.8798
G01 X4.1642 Y13.8551
G01 X4.1736 Y13.8303
G01 X4.1814 Y13.8042
G01 X4.1893 Y13.7645
G01 X4.1920 Y13.7374
G01 X4.1929 Y13.7109
G01 X4.1919 Y13.6837
G01 X4.1865 Y13.6435
G01 X4.1767 Y13.6042
G01 X4.1627 Y13.5662
G01 X4.1446 Y13.5300
G01 X4.1301 Y13.5069
G01 X4.1145 Y13.4855
G01 X4.0971 Y13.4646
G01 X4.0879 Y13.4550
G01 X4.0682 Y13.4362
G01 X4.0471 Y13.4190
G01 X4.0254 Y13.4038
G01 X4.0021 Y13.3897
G01 X3.9656 Y13.3721
G01 X3.7993 Y13.3033
G01 X3.3867 Y12.8907
G01 X3.1635 Y12.3517
G01 X3.1635 Y11.7683
G01 X3.3867 Y11.2293
G01 X3.7993 Y10.8167
G01 X4.3383 Y10.5935
G01 X4.9217 Y10.5935
G01 X5.4607 Y10.8167
G01 X5.8733 Y11.2293
G01 X6.0965 Y11.7683
G01 X6.0965 Y12.3517
G01 X5.8733 Y12.8907
G01 X5.4607 Y13.3033
G01 X5.2944 Y13.3721
G01 X5.2579 Y13.3897
G01 X5.2346 Y13.4038
G01 X5.2129 Y13.4190
G01 X5.1918 Y13.4362
G01 X5.1721 Y13.4550
G01 X5.1629 Y13.4646
G01 X5.1455 Y13.4855
G01 X5.1299 Y13.5069
G01 X5.1154 Y13.5300
G01 X5.0973 Y13.5662
G01 X5.0833 Y13.6042
G01 X5.0735 Y13.6435
G01 X5.0681 Y13.6837
G01 X5.0671 Y13.7109
G01 X5.0680 Y13.7374
G01 X5.0707 Y13.7645
G01 X5.0786 Y13.8042
G01 X5.0864 Y13.8303
G01 X5.0958 Y13.8551
G01 X5.1071 Y13.8798
G01 X5.1205 Y13.9036
G01 X5.1351 Y13.9257
G01 X5.1515 Y13.9474
G01 X5.1790 Y13.9772
G01 X5.1994 Y13.9953
G01 X5.2203 Y14.0115
G01 X5.2429 Y14.0267
G01 X5.2667 Y14.0400
G01 X5.2907 Y14.0513
G01 X5.3161 Y14.0612
G01 X5.3288 Y14.0651
G01 X5.3551 Y14.0721
G01 X5.3950 Y14.0788
G01 X5.4355 Y14.0810
G01 X5.7937 Y14.0810
G01 X5.9340 Y14.1089
G01 X6.0222 Y14.1678
G01 X6.0811 Y14.2560
G01 X6.1090 Y14.3963
G01 X6.1090 Y16.7237
G01 X6.0805 Y16.8649
G01 X6.0222 Y16.9522
G00 Z2.0000
G00 X6.2105 Y16.9518
G01 F350.00
G01 Z-0.1306
G01 F400.00
G01 X6.1349 Y17.0649
G01 X5.9950 Y17.1584
G01 X5.8091 Y17.1954
G01 X3.4509 Y17.1954
G01 X3.2650 Y17.1584
G01 X3.1251 Y17.0649
G01 X3.0316 Y16.9250
G01 X2.9946 Y16.7391
G01 X2.9946 Y14.3809
G01 X3.0316 Y14.1950
G01 X3.1251 Y14.0551
G01 X3.2650 Y13.9616
G01 X3.4509 Y13.9246
G01 X3.8292 Y13.9245
G01 X3.8478 Y13.9233
G01 X3.8708 Y13.9195
G01 X3.8932 Y13.9132
G01 X3.9148 Y13.9044
G01 X3.9393 Y13.8908
G01 X3.9545 Y13.8801
G01 X3.9687 Y13.8680
G01 X3.9879 Y13.8477
G01 X4.0018 Y13.8290
G01 X4.0155 Y13.8046
G01 X4.0229 Y13.7875
G01 X4.0287 Y13.7698
G01 X4.0345 Y13.7424
G01 X4.0365 Y13.7145
G01 X4.0360 Y13.6959
G01 X4.0329 Y13.6728
G01 X4.0272 Y13.6502
G01 X4.0192 Y13.6283
G01 X4.0088 Y13.6075
G01 X3.9961 Y13.5879
G01 X3.9814 Y13.5698
G01 X3.9682 Y13.5567
G01 X3.9612 Y13.5505
G01 X3.9426 Y13.5365
G01 X3.9267 Y13.5267
G01 X3.9100 Y13.5185
G01 X3.7107 Y13.4359
G01 X3.2541 Y12.9793
G01 X3.0071 Y12.3828
G01 X3.0071 Y11.7372
G01 X3.2541 Y11.1407
G01 X3.7107 Y10.6841
G01 X4.3072 Y10.4371
G01 X4.9528 Y10.4371
G01 X5.5493 Y10.6841
G01 X6.0059 Y11.1407
G01 X6.2529 Y11.7372
G01 X6.2529 Y12.3828
G01 X6.0059 Y12.9793
G01 X5.5493 Y13.4359
G01 X5.3500 Y13.5185
G01 X5.3333 Y13.5267
G01 X5.3174 Y13.5365
G01 X5.2988 Y13.5505
G01 X5.2918 Y13.5567
G01 X5.2786 Y13.5698
G01 X5.2639 Y13.5879
G01 X5.2512 Y13.6075
G01 X5.2408 Y13.6283
G01 X5.2328 Y13.6502
G01 X5.2271 Y13.6728
G01 X5.2240 Y13.6959
G01 X5.2235 Y13.7145
G01 X5.2255 Y13.7424
G01 X5.2313 Y13.7698
G01 X5.2371 Y13.7875
G01 X5.2445 Y13.8046
G01 X5.2582 Y13.8290
G01 X5.2721 Y13.8477
G01 X5.2913 Y13.8680
G01 X5.3055 Y13.8801
G01 X5.3207 Y13.8908
G01 X5.3452 Y13.9044
G01 X5.3668 Y13.9132
G01 X5.3892 Y13.9195
G01 X5.4122 Y13.9233
G01 X5.4308 Y13.9245
G01 X5.8091 Y13.9246
G01 X5.9950 Y13.9616
G01 X6.1349 Y14.0551
G01 X6.2284 Y14.1950
G01 X6.2654 Y14.3809
G01 X6.2654 Y16.7391
G01 X6.2284 Y16.9250
G01 X6.2105 Y16.9518
G01 X6.1349 Y17.0649
G00 Z2.0000
G00 X4.2237 Y19.5530
G01 F350.00
G01 Z-0.1306
G01 F400.00
G01 X4.2010 Y19.5303
G01 X4.5804 Y19.3857
G01 X5.1691 Y19.4026
G01 X5.4644 Y19.5249
G01 X5.4363 Y19.5530
G01 X5.3061 Y19.4995
G01 X5.1507 Y19.4547
G01 X4.9914 Y19.4277
G01 X4.8300 Y19.4186
G01 X4.6686 Y19.4277
G01 X4.5093 Y19.4547
G01 X4.3539 Y19.4995
G01 X4.2237 Y19.5530
G01 X4.2010 Y19.5303
G00 Z2.0000
G00 X4.1946 Y19.7451
G01 F350.00
G01 Z-0.1306
G01 F400.00
G01 X3.9639 Y19.5144
G01 X3.9951 Y19.4414
G01 X4.5538 Y19.2285
G01 X5.2024 Y19.2471
G01 X5.6635 Y19.4381
G01 X5.6961 Y19.5144
G01 X5.4654 Y19.7451
G01 X5.3875 Y19.7023
G01 X5.2589 Y19.6488
G01 X5.1206 Y19.6084
G01 X5.1113 Y19.6063
G01 X4.9739 Y19.5831
G01 X4.8300 Y19.5750
G01 X4.6861 Y19.5831
G01 X4.5487 Y19.6063
G01 X4.5394 Y19.6084
G01 X4.4011 Y19.6488
G01 X4.2725 Y19.7023
G01 X4.1946 Y19.7451
G01 X3.9639 Y19.5144
G00 Z2.0000
G00 X3.4949 Y20.2256
G01 F350.00
G01 Z-0.1306
G01 F400.00
G01 X3.5230 Y20.2537
G01 X3.4695 Y20.3839
G01 X3.4247 Y20.5393
G01 X3.3977 Y20.6986
G01 X3.3886 Y20.8600
G01 X3.3977 Y21.0214
G01 X3.4247 Y21.1807
G01 X3.4695 Y21.3361
G01 X3.5230 Y21.4663
G01 X3.5003 Y21.4890
G01 X3.3557 Y21.1096
G01 X3.3726 Y20.5209
G01 X3.4949 Y20.2256
G01 X3.5230 Y20.2537
G00 Z2.0000
G00 X3.7151 Y21.4954
G01 F350.00
G01 Z-0.1306
G01 F400.00
G01 X3.4844 Y21.7261
G01 X3.4114 Y21.6949
G01 X3.1985 Y21.1362
G01 X3.2171 Y20.4876
G01 X3.4081 Y20.0265
G01 X3.4844 Y19.9939
G01 X3.7151 Y20.2246
G01 X3.6723 Y20.3025
G01 X3.6188 Y20.4311
G01 X3.5784 Y20.5694
G01 X3.5763 Y20.5787
G01 X3.5531 Y20.7161
G01 X3.5450 Y20.8600
G01 X3.5531 Y21.0039
G01 X3.5763 Y21.1413
G01 X3.5784 Y21.1506
G01 X3.6188 Y21.2889
G01 X3.6723 Y21.4175
G01 X3.7151 Y21.4954
G01 X3.4844 Y21.7261
G00 Z2.0000
G00 X4.1946 Y21.9749
G01 F350.00
G01 Z-0.1306
G01 F400.00
G01 X4.2725 Y22.0177
G01 X4.4011 Y22.0712
G01 X4.5394 Y22.1116
G01 X4.5487 Y22.1137
G01 X4.6861 Y22.1369
G01 X4.8300 Y22.1450
G01 X4.9739 Y22.1369
G01 X5.1113 Y22.1137
G01 X5.1206 Y22.1116
G01 X5.2589 Y22.0712
G01 X5.3875 Y22.0177
G01 X5.4654 Y21.9749
G01 X5.6961 Y22.2056
G01 X5.6649 Y22.2786
G01 X5.5689 Y22.3153
G01 X5.5496 Y22.3240
G01 X5.5292 Y22.3359
G01 X5.5104 Y22.3500
G01 X5.4900 Y22.3696
G01 X5.4779 Y22.3840
G01 X5.4672 Y22.3995
G01 X5.4537 Y22.4243
G01 X5.4438 Y22.4508
G01 X5.4390 Y22.4690
G01 X5.4361 Y22.4876
G01 X5.4345 Y22.5158
G01 X5.4369 Y22.5440
G01 X5.4405 Y22.5625
G01 X5.4458 Y22.5805
G01 X5.4565 Y22.6067
G01 X5.4708 Y22.6311
G01 X5.4819 Y22.6462
G01 X5.4945 Y22.6603
G01 X5.5118 Y22.6762
G01 X5.5192 Y22.6820
G01 X5.5347 Y22.6927
G01 X5.5554 Y22.7040
G01 X5.5817 Y22.7144
G01 X5.5998 Y22.7194
G01 X5.6184 Y22.7227
G01 X5.6466 Y22.7246
G01 X6.0091 Y22.7246
G01 X6.1950 Y22.7616
G01 X6.3349 Y22.8551
G01 X6.4284 Y22.9950
G01 X6.4654 Y23.1809
G01 X6.4654 Y25.5391
G01 X6.4284 Y25.7250
G01 X6.3349 Y25.8649
G01 X6.1950 Y25.9584
G01 X6.0091 Y25.9954
G01 X3.6509 Y25.9954
G01 X3.4650 Y25.9584
G01 X3.3251 Y25.8649
G01 X3.2316 Y25.7250
G01 X3.1946 Y25.5391
G01 X3.1946 Y23.1809
G01 X3.2316 Y22.9950
G01 X3.3251 Y22.8551
G01 X3.4650 Y22.7616
G01 X3.6509 Y22.7246
G01 X3.9992 Y22.7246
G01 X4.0282 Y22.7225
G01 X4.0473 Y22.7191
G01 X4.0660 Y22.7137
G01 X4.0930 Y22.7028
G01 X4.1141 Y22.6908
G01 X4.1299 Y22.6795
G01 X4.1516 Y22.6600
G01 X4.1703 Y22.6377
G01 X4.1811 Y22.6216
G01 X4.1902 Y22.6045
G01 X4.2011 Y22.5774
G01 X4.2072 Y22.5539
G01 X4.2108 Y22.5250
G01 X4.2111 Y22.5056
G01 X4.2095 Y22.4863
G01 X4.2040 Y22.4577
G01 X4.1964 Y22.4346
G01 X4.1862 Y22.4126
G01 X4.1707 Y22.3880
G01 X4.1553 Y22.3692
G01 X4.1416 Y22.3554
G01 X4.1266 Y22.3431
G01 X4.1022 Y22.3272
G01 X4.0848 Y22.3186
G01 X3.9965 Y22.2819
G01 X3.9639 Y22.2056
G01 X4.1946 Y21.9749
G01 X4.2725 Y22.0177
G00 Z2.0000
G00 X4.1919 Y22.1987
G01 F350.00
G01 Z-0.1306
G01 F400.00
G01 X4.2237 Y22.1670
G01 X4.3539 Y22.2205
G01 X4.5093 Y22.2653
G01 X4.6686 Y22.2923
G01 X4.8300 Y22.3014
G01 X4.9914 Y22.2923
G01 X5.1507 Y22.2653
G01 X5.3061 Y22.2205
G01 X5.4363 Y22.1670
G01 X5.4627 Y22.1934
G01 X5.4427 Y22.2056
G01 X5.4205 Y22.2218
G01 X5.4099 Y22.2301
G01 X5.3896 Y22.2487
G01 X5.3801 Y22.2581
G01 X5.3619 Y22.2788
G01 X5.3535 Y22.2892
G01 X5.3378 Y22.3118
G01 X5.3240 Y22.3348
G01 X5.3115 Y22.3593
G01 X5.2966 Y22.3974
G01 X5.2860 Y22.4369
G01 X5.2798 Y22.4773
G01 X5.2781 Y22.5182
G01 X5.2810 Y22.5590
G01 X5.2884 Y22.5993
G01 X5.3003 Y22.6384
G01 X5.3164 Y22.6761
G01 X5.3365 Y22.7117
G01 X5.3605 Y22.7448
G01 X5.3787 Y22.7654
G01 X5.3978 Y22.7842
G01 X5.4187 Y22.8021
G01 X5.4411 Y22.8182
G01 X5.4638 Y22.8324
G01 X5.4882 Y22.8452
G01 X5.5260 Y22.8607
G01 X5.5524 Y22.8686
G01 X5.5785 Y22.8746
G01 X5.6057 Y22.8788
G01 X5.6399 Y22.8809
G01 X5.9937 Y22.8810
G01 X6.1340 Y22.9089
G01 X6.2222 Y22.9678
G01 X6.2811 Y23.0560
G01 X6.3090 Y23.1963
G01 X6.3090 Y25.5237
G01 X6.2811 Y25.6640
G01 X6.2222 Y25.7522
G01 X6.1340 Y25.8111
G01 X5.9937 Y25.8390
G01 X3.6663 Y25.8390
G01 X3.5260 Y25.8111
G01 X3.4378 Y25.7522
G01 X3.3789 Y25.6640
G01 X3.3510 Y25.5237
G01 X3.3510 Y23.1963
G01 X3.3789 Y23.0560
G01 X3.4378 Y22.9678
G01 X3.5260 Y22.9089
G01 X3.6663 Y22.8810
G01 X4.0061 Y22.8809
G01 X4.0413 Y22.8786
G01 X4.0693 Y22.8742
G01 X4.0962 Y22.8679
G01 X4.1233 Y22.8595
G01 X4.1496 Y22.8488
G01 X4.1744 Y22.8366
G01 X4.1988 Y22.8222
G01 X4.2220 Y22.8058
G01 X4.2434 Y22.7883
G01 X4.2640 Y22.7688
G01 X4.2915 Y22.7369
G01 X4.3152 Y22.7020
G01 X4.3348 Y22.6646
G01 X4.3500 Y22.6253
G01 X4.3606 Y22.5844
G01 X4.3664 Y22.5427
G01 X4.3674 Y22.5005
G01 X4.3637 Y22.4585
G01 X4.3551 Y22.4172
G01 X4.3419 Y22.3771
G01 X4.3241 Y22.3389
G01 X4.3022 Y22.3029
G01 X4.2762 Y22.2696
G01 X4.2466 Y22.2395
G01 X4.2138 Y22.2131
G01 X4.1919 Y22.1987
G01 X4.2237 Y22.1670
G00 Z2.0000
G00 X4.4607 Y22.7622
G01 F350.00
G01 Z-0.1306
G01 F400.00
G01 X4.4773 Y22.7292
G01 X4.4861 Y22.7082
G01 X4.4989 Y22.6731
G01 X4.5089 Y22.6372
G01 X4.5140 Y22.6150
G01 X4.5178 Y22.5925
G01 X4.5223 Y22.5555
G01 X4.5235 Y22.5327
G01 X4.5238 Y22.4954
G01 X4.5211 Y22.4582
G01 X4.5166 Y22.4255
G01 X4.6290 Y22.4446
G01 X4.6511 Y22.4478
G01 X4.6733 Y22.4496
G01 X4.8077 Y22.4572
G01 X4.8300 Y22.4578
G01 X4.8523 Y22.4572
G01 X4.9867 Y22.4496
G01 X5.0089 Y22.4478
G01 X5.0310 Y22.4446
G01 X5.1287 Y22.4280
G01 X5.1241 Y22.4624
G01 X5.1220 Y22.4985
G01 X5.1218 Y22.5206
G01 X5.1237 Y22.5568
G01 X5.1259 Y22.5788
G01 X5.1293 Y22.6006
G01 X5.1364 Y22.6361
G01 X5.1463 Y22.6709
G01 X5.1533 Y22.6919
G01 X5.1670 Y22.7254
G01 X5.1762 Y22.7455
G01 X5.1851 Y22.7622
G01 X4.4607 Y22.7622
G01 X4.4773 Y22.7292
G00 Z2.0000
G00 X3.6182 Y22.9189
G01 F350.00
G01 Z-0.1306
G01 F400.00
G01 X6.0418 Y22.9189
G01 X6.0690 Y22.9218
G01 X6.0957 Y22.9277
G01 X6.1215 Y22.9366
G01 X6.1462 Y22.9484
G01 X6.1694 Y22.9629
G01 X6.1908 Y22.9799
G01 X6.2101 Y22.9992
G01 X6.2271 Y23.0206
G01 X6.2416 Y23.0438
G01 X6.2534 Y23.0685
G01 X6.2623 Y23.0943
G01 X6.2682 Y23.1210
G01 X6.2711 Y23.1482
G01 X6.2714 Y23.1600
G01 X6.2714 Y25.5600
G01 X6.2711 Y25.5718
G01 X6.2682 Y25.5990
G01 X6.2623 Y25.6257
G01 X6.2534 Y25.6515
G01 X6.2416 Y25.6762
G01 X6.2271 Y25.6994
G01 X6.2101 Y25.7208
G01 X6.1908 Y25.7401
G01 X6.1694 Y25.7571
G01 X6.1462 Y25.7716
G01 X6.1215 Y25.7834
G01 X6.0957 Y25.7923
G01 X6.0690 Y25.7982
G01 X6.0418 Y25.8011
G01 X6.0300 Y25.8014
G01 X3.6300 Y25.8014
G01 X3.6182 Y25.8011
G01 X3.5910 Y25.7982
G01 X3.5643 Y25.7923
G01 X3.5385 Y25.7834
G01 X3.5138 Y25.7716
G01 X3.4906 Y25.7571
G01 X3.4692 Y25.7401
G01 X3.4499 Y25.7208
G01 X3.4329 Y25.6994
G01 X3.4184 Y25.6762
G01 X3.4066 Y25.6515
G01 X3.3977 Y25.6257
G01 X3.3918 Y25.5990
G01 X3.3889 Y25.5718
G01 X3.3886 Y25.5600
G01 X3.3889 Y23.1482
G01 X3.3918 Y23.1210
G01 X3.3977 Y23.0943
G01 X3.4066 Y23.0685
G01 X3.4184 Y23.0438
G01 X3.4329 Y23.0206
G01 X3.4499 Y22.9992
G01 X3.4692 Y22.9799
G01 X3.4906 Y22.9629
G01 X3.5138 Y22.9484
G01 X3.5385 Y22.9366
G01 X3.5643 Y22.9277
G01 X3.5910 Y22.9218
G01 X3.6182 Y22.9189
G01 X6.0418 Y22.9189
G00 Z2.0000
G00 X3.6258 Y23.0751
G01 F350.00
G01 Z-0.1306
G01 F400.00
G01 X6.0300 Y23.0750
G01 X6.0437 Y23.0761
G01 X6.0531 Y23.0782
G01 X6.0622 Y23.0813
G01 X6.0709 Y23.0855
G01 X6.0791 Y23.0906
G01 X6.0866 Y23.0966
G01 X6.0934 Y23.1034
G01 X6.0994 Y23.1109
G01 X6.1045 Y23.1191
G01 X6.1087 Y23.1278
G01 X6.1118 Y23.1369
G01 X6.1139 Y23.1463
G01 X6.1150 Y23.1600
G01 X6.1150 Y25.5600
G01 X6.1139 Y25.5737
G01 X6.1118 Y25.5831
G01 X6.1087 Y25.5922
G01 X6.1045 Y25.6009
G01 X6.0994 Y25.6091
G01 X6.0934 Y25.6166
G01 X6.0866 Y25.6234
G01 X6.0791 Y25.6294
G01 X6.0709 Y25.6345
G01 X6.0622 Y25.6387
G01 X6.0531 Y25.6418
G01 X6.0437 Y25.6439
G01 X6.0300 Y25.6450
G01 X3.6300 Y25.6450
G01 X3.6163 Y25.6439
G01 X3.6069 Y25.6418
G01 X3.5978 Y25.6387
G01 X3.5891 Y25.6345
G01 X3.5809 Y25.6294
G01 X3.5734 Y25.6234
G01 X3.5666 Y25.6166
G01 X3.5606 Y25.6091
G01 X3.5555 Y25.6009
G01 X3.5513 Y25.5922
G01 X3.5482 Y25.5831
G01 X3.5461 Y25.5737
G01 X3.5450 Y25.5600
G01 X3.5450 Y23.1600
G01 X3.5461 Y23.1463
G01 X3.5482 Y23.1369
G01 X3.5513 Y23.1278
G01 X3.5555 Y23.1191
G01 X3.5606 Y23.1109
G01 X3.5666 Y23.1034
G01 X3.5734 Y23.0966
G01 X3.5809 Y23.0906
G01 X3.5891 Y23.0855
G01 X3.5978 Y23.0813
G01 X3.6069 Y23.0782
G01 X3.6163 Y23.0761
G01 X3.6258 Y23.0751
G01 X6.0300 Y23.0750
G00 Z2.0000
G00 X5.9449 Y21.4954
G01 F350.00
G01 Z-0.1306
G01 F400.00
G01 X5.9877 Y21.4175
G01 X6.0412 Y21.2889
G01 X6.0816 Y21.1506
G01 X6.0837 Y21.1413
G01 X6.1069 Y21.0039
G01 X6.1150 Y20.8600
G01 X6.1069 Y20.7161
G01 X6.0837 Y20.5787
G01 X6.0816 Y20.5694
G01 X6.0412 Y20.4311
G01 X5.9877 Y20.3025
G01 X5.9449 Y20.2246
G01 X6.1756 Y19.9939
G01 X6.2486 Y20.0251
G01 X6.4615 Y20.5838
G01 X6.4429 Y21.2324
G01 X6.2519 Y21.6935
G01 X6.1756 Y21.7261
G01 X5.9449 Y21.4954
G01 X5.9877 Y21.4175
G00 Z2.0000
G00 X6.1370 Y21.4663
G01 F350.00
G01 Z-0.1306
G01 F400.00
G01 X6.1905 Y21.3361
G01 X6.2353 Y21.1807
G01 X6.2623 Y21.0214
G01 X6.2714 Y20.8600
G01 X6.2623 Y20.6986
G01 X6.2353 Y20.5393
G01 X6.1905 Y20.3839
G01 X6.1370 Y20.2537
G01 X6.1597 Y20.2310
G01 X6.3043 Y20.6104
G01 X6.2874 Y21.1991
G01 X6.1651 Y21.4944
G01 X6.1370 Y21.4663
G01 X6.1905 Y21.3361
G00 Z2.0000
G00 X9.7571 Y22.3574
G01 F350.00
G01 Z-0.1306
G01 F400.00
G01 X9.7571 Y21.5526
G01 X10.0650 Y20.8091
G01 X10.6341 Y20.2400
G01 X11.3776 Y19.9321
G01 X12.1824 Y19.9321
G01 X12.9259 Y20.2400
G01 X13.4950 Y20.8091
G01 X13.8029 Y21.5526
G01 X13.8029 Y22.3574
G01 X13.4950 Y23.1009
G01 X12.9259 Y23.6700
G01 X12.1824 Y23.9779
G01 X11.3776 Y23.9779
G01 X10.6341 Y23.6700
G01 X10.0650 Y23.1009
G01 X9.7571 Y22.3574
G01 X9.7571 Y21.5526
G00 Z2.0000
G00 X9.9135 Y22.3263
G01 F350.00
G01 Z-0.1306
G01 F400.00
G01 X9.9135 Y21.5837
G01 X10.1976 Y20.8977
G01 X10.7227 Y20.3726
G01 X11.4087 Y20.0885
G01 X12.1513 Y20.0885
G01 X12.8373 Y20.3726
G01 X13.3624 Y20.8977
G01 X13.6465 Y21.5837
G01 X13.6465 Y22.3263
G01 X13.3624 Y23.0123
G01 X12.8373 Y23.5374
G01 X12.1513 Y23.8215
G01 X11.4087 Y23.8215
G01 X10.7227 Y23.5374
G01 X10.1976 Y23.0123
G01 X9.9135 Y22.3263
G01 X9.9135 Y21.5837
G00 Z2.0000
G00 X13.4649 Y21.9598
G01 F350.00
G01 Z-0.1306
G01 F400.00
G01 X13.4544 Y22.1437
G01 X13.4228 Y22.3299
G01 X13.3704 Y22.5115
G01 X13.3001 Y22.6817
G01 X13.2959 Y22.6903
G01 X13.2092 Y22.8474
G01 X13.2041 Y22.8554
G01 X13.0974 Y23.0056
G01 X12.9715 Y23.1465
G01 X12.8306 Y23.2724
G01 X12.6765 Y23.3817
G01 X12.5111 Y23.4731
G01 X12.3410 Y23.5437
G01 X12.3320 Y23.5469
G01 X12.1596 Y23.5966
G01 X12.1503 Y23.5987
G01 X11.9687 Y23.6294
G01 X11.7800 Y23.6400
G01 X11.5913 Y23.6294
G01 X11.4097 Y23.5987
G01 X11.4004 Y23.5966
G01 X11.2280 Y23.5469
G01 X11.2190 Y23.5437
G01 X11.0489 Y23.4731
G01 X10.8835 Y23.3817
G01 X10.7294 Y23.2724
G01 X10.5885 Y23.1465
G01 X10.4626 Y23.0056
G01 X10.3559 Y22.8554
G01 X10.3508 Y22.8474
G01 X10.2641 Y22.6903
G01 X10.2599 Y22.6817
G01 X10.1896 Y22.5115
G01 X10.1372 Y22.3299
G01 X10.1056 Y22.1437
G01 X10.0950 Y21.9550
G01 X10.1056 Y21.7663
G01 X10.1372 Y21.5801
G01 X10.1896 Y21.3985
G01 X10.2599 Y21.2283
G01 X10.2641 Y21.2197
G01 X10.3508 Y21.0626
G01 X10.3559 Y21.0546
G01 X10.4626 Y20.9044
G01 X10.5885 Y20.7635
G01 X10.7294 Y20.6376
G01 X10.8835 Y20.5283
G01 X11.0489 Y20.4369
G01 X11.2190 Y20.3663
G01 X11.2280 Y20.3631
G01 X11.4004 Y20.3134
G01 X11.4097 Y20.3113
G01 X11.5913 Y20.2806
G01 X11.7800 Y20.2700
G01 X11.9687 Y20.2806
G01 X12.1503 Y20.3113
G01 X12.1596 Y20.3134
G01 X12.3320 Y20.3631
G01 X12.3410 Y20.3663
G01 X12.5111 Y20.4369
G01 X12.6765 Y20.5283
G01 X12.8306 Y20.6376
G01 X12.9715 Y20.7635
G01 X13.0974 Y20.9044
G01 X13.2067 Y21.0585
G01 X13.2981 Y21.2239
G01 X13.3687 Y21.3940
G01 X13.3719 Y21.4030
G01 X13.4228 Y21.5801
G01 X13.4537 Y21.7616
G01 X13.4548 Y21.7711
G01 X13.4649 Y21.9502
G01 X13.4649 Y21.9598
G01 X13.4544 Y22.1437
G00 Z2.0000
G00 X13.6210 Y21.9685
G01 F350.00
G01 Z-0.1306
G01 F400.00
G01 X13.6098 Y22.1612
G01 X13.5752 Y22.3648
G01 X13.5181 Y22.5632
G01 X13.4446 Y22.7416
G01 X13.4328 Y22.7660
G01 X13.3460 Y22.9230
G01 X13.3316 Y22.9459
G01 X13.2197 Y23.1031
G01 X13.0821 Y23.2571
G01 X12.9281 Y23.3947
G01 X12.7597 Y23.5142
G01 X12.5790 Y23.6140
G01 X12.4008 Y23.6882
G01 X12.3753 Y23.6972
G01 X12.2029 Y23.7469
G01 X12.1765 Y23.7529
G01 X11.9862 Y23.7848
G01 X11.7800 Y23.7964
G01 X11.5738 Y23.7848
G01 X11.3835 Y23.7529
G01 X11.3571 Y23.7469
G01 X11.1847 Y23.6972
G01 X11.1592 Y23.6882
G01 X10.9810 Y23.6140
G01 X10.8003 Y23.5142
G01 X10.6319 Y23.3947
G01 X10.4779 Y23.2571
G01 X10.3403 Y23.1031
G01 X10.2284 Y22.9459
G01 X10.2140 Y22.9230
G01 X10.1272 Y22.7660
G01 X10.1154 Y22.7416
G01 X10.0419 Y22.5632
G01 X9.9848 Y22.3648
G01 X9.9502 Y22.1612
G01 X9.9386 Y21.9550
G01 X9.9502 Y21.7488
G01 X9.9848 Y21.5452
G01 X10.0419 Y21.3468
G01 X10.1154 Y21.1684
G01 X10.1272 Y21.1440
G01 X10.2140 Y20.9870
G01 X10.2284 Y20.9641
G01 X10.3403 Y20.8069
G01 X10.4779 Y20.6529
G01 X10.6319 Y20.5153
G01 X10.8003 Y20.3958
G01 X10.9810 Y20.2960
G01 X11.1592 Y20.2218
G01 X11.1847 Y20.2128
G01 X11.3571 Y20.1631
G01 X11.3835 Y20.1571
G01 X11.5738 Y20.1252
G01 X11.7800 Y20.1136
G01 X11.9862 Y20.1252
G01 X12.1765 Y20.1571
G01 X12.2029 Y20.1631
G01 X12.3753 Y20.2128
G01 X12.4008 Y20.2218
G01 X12.5790 Y20.2960
G01 X12.7597 Y20.3958
G01 X12.9281 Y20.5153
G01 X13.0821 Y20.6529
G01 X13.2197 Y20.8069
G01 X13.3392 Y20.9753
G01 X13.4390 Y21.1560
G01 X13.5132 Y21.3342
G01 X13.5222 Y21.3597
G01 X13.5752 Y21.5452
G01 X13.6079 Y21.7354
G01 X13.6110 Y21.7623
G01 X13.6210 Y21.9415
G01 X13.6210 Y21.9685
G01 X13.6098 Y22.1612
G00 Z2.0000
G00 X13.6210 Y16.6385
G01 F350.00
G01 Z-0.1306
G01 F400.00
G01 X13.6098 Y16.8312
G01 X13.5752 Y17.0348
G01 X13.5181 Y17.2332
G01 X13.4446 Y17.4116
G01 X13.4328 Y17.4360
G01 X13.3460 Y17.5930
G01 X13.3316 Y17.6159
G01 X13.2197 Y17.7731
G01 X13.0821 Y17.9271
G01 X12.9281 Y18.0647
G01 X12.7597 Y18.1842
G01 X12.5790 Y18.2840
G01 X12.4008 Y18.3582
G01 X12.3753 Y18.3672
G01 X12.2029 Y18.4169
G01 X12.1765 Y18.4229
G01 X11.9862 Y18.4548
G01 X11.7800 Y18.4664
G01 X11.5738 Y18.4548
G01 X11.3835 Y18.4229
G01 X11.3571 Y18.4169
G01 X11.1847 Y18.3672
G01 X11.1592 Y18.3582
G01 X10.9810 Y18.2840
G01 X10.8003 Y18.1842
G01 X10.6319 Y18.0647
G01 X10.4779 Y17.9271
G01 X10.3403 Y17.7731
G01 X10.2284 Y17.6159
G01 X10.2140 Y17.5930
G01 X10.1272 Y17.4360
G01 X10.1154 Y17.4116
G01 X10.0419 Y17.2332
G01 X9.9848 Y17.0348
G01 X9.9502 Y16.8312
G01 X9.9386 Y16.6250
G01 X9.9502 Y16.4188
G01 X9.9848 Y16.2152
G01 X10.0419 Y16.0168
G01 X10.1154 Y15.8384
G01 X10.1272 Y15.8140
G01 X10.2140 Y15.6570
G01 X10.2284 Y15.6341
G01 X10.3403 Y15.4769
G01 X10.4779 Y15.3229
G01 X10.6319 Y15.1853
G01 X10.8003 Y15.0658
G01 X10.9810 Y14.9660
G01 X11.1592 Y14.8918
G01 X11.1847 Y14.8828
G01 X11.3571 Y14.8331
G01 X11.3835 Y14.8271
G01 X11.5738 Y14.7952
G01 X11.7800 Y14.7836
G01 X11.9862 Y14.7952
G01 X12.1897 Y14.8298
G01 X12.3882 Y14.8869
G01 X12.5666 Y14.9604
G01 X12.5910 Y14.9722
G01 X12.7480 Y15.0590
G01 X12.7709 Y15.0734
G01 X12.9281 Y15.1853
G01 X13.0821 Y15.3229
G01 X13.2197 Y15.4769
G01 X13.3392 Y15.6453
G01 X13.4390 Y15.8260
G01 X13.5132 Y16.0042
G01 X13.5222 Y16.0297
G01 X13.5752 Y16.2152
G01 X13.6079 Y16.4054
G01 X13.6110 Y16.4323
G01 X13.6210 Y16.6115
G01 X13.6210 Y16.6385
G01 X13.6098 Y16.8312
G00 Z2.0000
G00 X13.4649 Y16.6298
G01 F350.00
G01 Z-0.1306
G01 F400.00
G01 X13.4544 Y16.8137
G01 X13.4228 Y16.9999
G01 X13.3704 Y17.1815
G01 X13.3001 Y17.3517
G01 X13.2959 Y17.3603
G01 X13.2092 Y17.5174
G01 X13.2041 Y17.5254
G01 X13.0974 Y17.6756
G01 X12.9715 Y17.8165
G01 X12.8306 Y17.9424
G01 X12.6765 Y18.0517
G01 X12.5111 Y18.1431
G01 X12.3410 Y18.2137
G01 X12.3320 Y18.2169
G01 X12.1596 Y18.2666
G01 X12.1503 Y18.2687
G01 X11.9687 Y18.2994
G01 X11.7800 Y18.3100
G01 X11.5913 Y18.2994
G01 X11.4097 Y18.2687
G01 X11.4004 Y18.2666
G01 X11.2280 Y18.2169
G01 X11.2190 Y18.2137
G01 X11.0489 Y18.1431
G01 X10.8835 Y18.0517
G01 X10.7294 Y17.9424
G01 X10.5885 Y17.8165
G01 X10.4626 Y17.6756
G01 X10.3559 Y17.5254
G01 X10.3508 Y17.5174
G01 X10.2641 Y17.3603
G01 X10.2599 Y17.3517
G01 X10.1896 Y17.1815
G01 X10.1372 Y16.9999
G01 X10.1056 Y16.8137
G01 X10.0950 Y16.6250
G01 X10.1056 Y16.4363
G01 X10.1372 Y16.2501
G01 X10.1896 Y16.0685
G01 X10.2599 Y15.8983
G01 X10.2641 Y15.8897
G01 X10.3508 Y15.7326
G01 X10.3559 Y15.7246
G01 X10.4626 Y15.5744
G01 X10.5885 Y15.4335
G01 X10.7294 Y15.3076
G01 X10.8835 Y15.1983
G01 X11.0489 Y15.1069
G01 X11.2190 Y15.0363
G01 X11.2280 Y15.0331
G01 X11.4004 Y14.9834
G01 X11.4097 Y14.9813
G01 X11.5913 Y14.9506
G01 X11.7800 Y14.9400
G01 X11.9687 Y14.9506
G01 X12.1549 Y14.9822
G01 X12.3365 Y15.0346
G01 X12.5067 Y15.1049
G01 X12.5153 Y15.1091
G01 X12.6724 Y15.1958
G01 X12.6804 Y15.2009
G01 X12.8306 Y15.3076
G01 X12.9715 Y15.4335
G01 X13.0974 Y15.5744
G01 X13.2067 Y15.7285
G01 X13.2981 Y15.8939
G01 X13.3687 Y16.0640
G01 X13.3719 Y16.0730
G01 X13.4228 Y16.2501
G01 X13.4537 Y16.4316
G01 X13.4548 Y16.4411
G01 X13.4649 Y16.6202
G01 X13.4649 Y16.6298
G01 X13.4544 Y16.8137
G00 Z2.0000
G00 X9.9135 Y16.9963
G01 F350.00
G01 Z-0.1306
G01 F400.00
G01 X9.9135 Y16.2537
G01 X10.1976 Y15.5677
G01 X10.7227 Y15.0426
G01 X11.4087 Y14.7585
G01 X12.1513 Y14.7585
G01 X12.8373 Y15.0426
G01 X13.3624 Y15.5677
G01 X13.6465 Y16.2537
G01 X13.6465 Y16.9963
G01 X13.3624 Y17.6823
G01 X12.8373 Y18.2074
G01 X12.1513 Y18.4915
G01 X11.4087 Y18.4915
G01 X10.7227 Y18.2074
G01 X10.1976 Y17.6823
G01 X9.9135 Y16.9963
G01 X9.9135 Y16.2537
G00 Z2.0000
G00 X9.7571 Y17.0274
G01 F350.00
G01 Z-0.1306
G01 F400.00
G01 X9.7571 Y16.2226
G01 X10.0650 Y15.4791
G01 X10.6341 Y14.9100
G01 X11.3776 Y14.6021
G01 X12.1824 Y14.6021
G01 X12.9259 Y14.9100
G01 X13.4950 Y15.4791
G01 X13.8029 Y16.2226
G01 X13.8029 Y17.0274
G01 X13.4950 Y17.7709
G01 X12.9259 Y18.3400
G01 X12.1824 Y18.6479
G01 X11.3776 Y18.6479
G01 X10.6341 Y18.3400
G01 X10.0650 Y17.7709
G01 X9.7571 Y17.0274
G01 X9.7571 Y16.2226
G00 Z2.0000
G00 X13.4649 Y11.2998
G01 F350.00
G01 Z-0.1306
G01 F400.00
G01 X13.4544 Y11.4837
G01 X13.4228 Y11.6699
G01 X13.3704 Y11.8515
G01 X13.3001 Y12.0217
G01 X13.2959 Y12.0303
G01 X13.2092 Y12.1874
G01 X13.2041 Y12.1954
G01 X13.0974 Y12.3456
G01 X12.9715 Y12.4865
G01 X12.8306 Y12.6124
G01 X12.6765 Y12.7217
G01 X12.5111 Y12.8131
G01 X12.3410 Y12.8837
G01 X12.3320 Y12.8869
G01 X12.1596 Y12.9366
G01 X12.1503 Y12.9387
G01 X11.9687 Y12.9694
G01 X11.7800 Y12.9800
G01 X11.5913 Y12.9694
G01 X11.4051 Y12.9378
G01 X11.2235 Y12.8854
G01 X11.0533 Y12.8151
G01 X11.0447 Y12.8109
G01 X10.8876 Y12.7242
G01 X10.8796 Y12.7191
G01 X10.7294 Y12.6124
G01 X10.5885 Y12.4865
G01 X10.4626 Y12.3456
G01 X10.3533 Y12.1915
G01 X10.2619 Y12.0261
G01 X10.1913 Y11.8560
G01 X10.1881 Y11.8470
G01 X10.1384 Y11.6746
G01 X10.1363 Y11.6653
G01 X10.1056 Y11.4837
G01 X10.0950 Y11.2950
G01 X10.1056 Y11.1063
G01 X10.1372 Y10.9201
G01 X10.1896 Y10.7385
G01 X10.2599 Y10.5683
G01 X10.2641 Y10.5597
G01 X10.3508 Y10.4026
G01 X10.3559 Y10.3946
G01 X10.4626 Y10.2444
G01 X10.5885 Y10.1035
G01 X10.7294 Y9.9776
G01 X10.8835 Y9.8683
G01 X11.0489 Y9.7769
G01 X11.2190 Y9.7063
G01 X11.2280 Y9.7031
G01 X11.4004 Y9.6534
G01 X11.4097 Y9.6513
G01 X11.5913 Y9.6206
G01 X11.7800 Y9.6100
G01 X11.9687 Y9.6206
G01 X12.1549 Y9.6522
G01 X12.3365 Y9.7046
G01 X12.5067 Y9.7749
G01 X12.5153 Y9.7791
G01 X12.6724 Y9.8658
G01 X12.6804 Y9.8709
G01 X12.8306 Y9.9776
G01 X12.9715 Y10.1035
G01 X13.0974 Y10.2444
G01 X13.2067 Y10.3985
G01 X13.2981 Y10.5639
G01 X13.3687 Y10.7340
G01 X13.3719 Y10.7430
G01 X13.4228 Y10.9201
G01 X13.4537 Y11.1016
G01 X13.4548 Y11.1111
G01 X13.4649 Y11.2902
G01 X13.4649 Y11.2998
G01 X13.4544 Y11.4837
G00 Z2.0000
G00 X13.6210 Y11.3085
G01 F350.00
G01 Z-0.1306
G01 F400.00
G01 X13.6098 Y11.5012
G01 X13.5752 Y11.7047
G01 X13.5181 Y11.9032
G01 X13.4446 Y12.0816
G01 X13.4328 Y12.1060
G01 X13.3460 Y12.2630
G01 X13.3316 Y12.2859
G01 X13.2197 Y12.4431
G01 X13.0821 Y12.5971
G01 X12.9281 Y12.7347
G01 X12.7597 Y12.8542
G01 X12.5790 Y12.9540
G01 X12.4008 Y13.0282
G01 X12.3753 Y13.0372
G01 X12.2029 Y13.0869
G01 X12.1765 Y13.0929
G01 X11.9862 Y13.1248
G01 X11.7800 Y13.1364
G01 X11.5738 Y13.1248
G01 X11.3703 Y13.0902
G01 X11.1718 Y13.0331
G01 X10.9934 Y12.9596
G01 X10.9690 Y12.9478
G01 X10.8120 Y12.8610
G01 X10.7891 Y12.8466
G01 X10.6319 Y12.7347
G01 X10.4779 Y12.5971
G01 X10.3403 Y12.4431
G01 X10.2208 Y12.2747
G01 X10.1210 Y12.0940
G01 X10.0468 Y11.9158
G01 X10.0378 Y11.8903
G01 X9.9881 Y11.7179
G01 X9.9821 Y11.6915
G01 X9.9502 Y11.5012
G01 X9.9386 Y11.2950
G01 X9.9502 Y11.0888
G01 X9.9848 Y10.8853
G01 X10.0419 Y10.6868
G01 X10.1154 Y10.5084
G01 X10.1272 Y10.4840
G01 X10.2140 Y10.3270
G01 X10.2284 Y10.3041
G01 X10.3403 Y10.1469
G01 X10.4779 Y9.9929
G01 X10.6319 Y9.8553
G01 X10.8003 Y9.7358
G01 X10.9810 Y9.6360
G01 X11.1592 Y9.5618
G01 X11.1847 Y9.5528
G01 X11.3571 Y9.5031
G01 X11.3835 Y9.4971
G01 X11.5738 Y9.4652
G01 X11.7800 Y9.4536
G01 X11.9862 Y9.4652
G01 X12.1897 Y9.4998
G01 X12.3882 Y9.5569
G01 X12.5666 Y9.6304
G01 X12.5910 Y9.6422
G01 X12.7480 Y9.7290
G01 X12.7709 Y9.7434
G01 X12.9281 Y9.8553
G01 X13.0821 Y9.9929
G01 X13.2197 Y10.1469
G01 X13.3392 Y10.3153
G01 X13.4390 Y10.4960
G01 X13.5132 Y10.6742
G01 X13.5222 Y10.6997
G01 X13.5752 Y10.8853
G01 X13.6079 Y11.0754
G01 X13.6110 Y11.1023
G01 X13.6210 Y11.2815
G01 X13.6210 Y11.3085
G01 X13.6098 Y11.5012
G00 Z2.0000
G00 X17.3482 Y16.9889
G01 F350.00
G01 Z-0.1306
G01 F400.00
G01 X19.7718 Y16.9889
G01 X19.7990 Y16.9918
G01 X19.8257 Y16.9977
G01 X19.8515 Y17.0066
G01 X19.8762 Y17.0184
G01 X19.8994 Y17.0329
G01 X19.9208 Y17.0499
G01 X19.9401 Y17.0692
G01 X19.9571 Y17.0906
G01 X19.9716 Y17.1138
G01 X19.9834 Y17.1385
G01 X19.9923 Y17.1643
G01 X19.9982 Y17.1910
G01 X20.0011 Y17.2182
G01 X20.0014 Y17.2300
G01 X20.0014 Y19.6300
G01 X20.0011 Y19.6418
G01 X19.9982 Y19.6690
G01 X19.9923 Y19.6957
G01 X19.9834 Y19.7215
G01 X19.9716 Y19.7462
G01 X19.9571 Y19.7694
G01 X19.9401 Y19.7908
G01 X19.9208 Y19.8101
G01 X19.8994 Y19.8271
G01 X19.8762 Y19.8416
G01 X19.8515 Y19.8534
G01 X19.8257 Y19.8623
G01 X19.7990 Y19.8682
G01 X19.7718 Y19.8711
G01 X19.7600 Y19.8714
G01 X17.3600 Y19.8714
G01 X17.3482 Y19.8711
G01 X17.3210 Y19.8682
G01 X17.2943 Y19.8623
G01 X17.2685 Y19.8534
G01 X17.2438 Y19.8416
G01 X17.2206 Y19.8271
G01 X17.1992 Y19.8101
G01 X17.1799 Y19.7908
G01 X17.1629 Y19.7694
G01 X17.1484 Y19.7462
G01 X17.1366 Y19.7215
G01 X17.1277 Y19.6957
G01 X17.1218 Y19.6690
G01 X17.1189 Y19.6418
G01 X17.1186 Y19.6300
G01 X17.1189 Y17.2182
G01 X17.1218 Y17.1910
G01 X17.1277 Y17.1643
G01 X17.1366 Y17.1385
G01 X17.1484 Y17.1138
G01 X17.1629 Y17.0906
G01 X17.1799 Y17.0692
G01 X17.1992 Y17.0499
G01 X17.2206 Y17.0329
G01 X17.2438 Y17.0184
G01 X17.2685 Y17.0066
G01 X17.2943 Y16.9977
G01 X17.3210 Y16.9918
G01 X17.3482 Y16.9889
G01 X19.7718 Y16.9889
G00 Z2.0000
G00 X17.3558 Y17.1451
G01 F350.00
G01 Z-0.1306
G01 F400.00
G01 X19.7600 Y17.1450
G01 X19.7737 Y17.1461
G01 X19.7831 Y17.1482
G01 X19.7922 Y17.1513
G01 X19.8009 Y17.1555
G01 X19.8091 Y17.1606
G01 X19.8166 Y17.1666
G01 X19.8234 Y17.1734
G01 X19.8294 Y17.1809
G01 X19.8345 Y17.1891
G01 X19.8387 Y17.1978
G01 X19.8418 Y17.2069
G01 X19.8439 Y17.2163
G01 X19.8450 Y17.2300
G01 X19.8450 Y19.6300
G01 X19.8439 Y19.6437
G01 X19.8418 Y19.6531
G01 X19.8387 Y19.6622
G01 X19.8345 Y19.6709
G01 X19.8294 Y19.6791
G01 X19.8234 Y19.6866
G01 X19.8166 Y19.6934
G01 X19.8091 Y19.6994
G01 X19.8009 Y19.7045
G01 X19.7922 Y19.7087
G01 X19.7831 Y19.7118
G01 X19.7737 Y19.7139
G01 X19.7600 Y19.7150
G01 X17.3600 Y19.7150
G01 X17.3463 Y19.7139
G01 X17.3369 Y19.7118
G01 X17.3278 Y19.7087
G01 X17.3191 Y19.7045
G01 X17.3109 Y19.6994
G01 X17.3034 Y19.6934
G01 X17.2966 Y19.6866
G01 X17.2906 Y19.6791
G01 X17.2855 Y19.6709
G01 X17.2813 Y19.6622
G01 X17.2782 Y19.6531
G01 X17.2761 Y19.6437
G01 X17.2750 Y19.6300
G01 X17.2750 Y17.2300
G01 X17.2761 Y17.2163
G01 X17.2782 Y17.2069
G01 X17.2813 Y17.1978
G01 X17.2855 Y17.1891
G01 X17.2906 Y17.1809
G01 X17.2966 Y17.1734
G01 X17.3034 Y17.1666
G01 X17.3109 Y17.1606
G01 X17.3191 Y17.1555
G01 X17.3278 Y17.1513
G01 X17.3369 Y17.1482
G01 X17.3463 Y17.1461
G01 X17.3558 Y17.1451
G01 X19.7600 Y17.1450
G00 Z2.0000
G00 X20.0267 Y17.2047
G01 F350.00
G01 Z-0.1306
G01 F400.00
G01 X20.0390 Y17.2663
G01 X20.0390 Y19.5937
G01 X20.0111 Y19.7340
G01 X19.9522 Y19.8222
G01 X19.8640 Y19.8811
G01 X19.7237 Y19.9090
G01 X17.3963 Y19.9090
G01 X17.2560 Y19.8811
G01 X17.1678 Y19.8222
G01 X17.1089 Y19.7340
G01 X17.0810 Y19.5937
G01 X17.0810 Y17.2663
G01 X17.1089 Y17.1260
G01 X17.1678 Y17.0378
G01 X17.2560 Y16.9789
G01 X17.3963 Y16.9510
G01 X19.7237 Y16.9510
G01 X19.8640 Y16.9789
G01 X19.9522 Y17.0378
G01 X20.0111 Y17.1260
G01 X20.0267 Y17.2047
G01 X20.0390 Y17.2663
G00 Z2.0000
G00 X20.1801 Y17.1742
G01 F350.00
G01 Z-0.1306
G01 F400.00
G01 X20.1954 Y17.2509
G01 X20.1954 Y19.6091
G01 X20.1584 Y19.7950
G01 X20.0649 Y19.9349
G01 X19.9250 Y20.0284
G01 X19.7391 Y20.0654
G01 X17.3809 Y20.0654
G01 X17.1950 Y20.0284
G01 X17.0551 Y19.9349
G01 X16.9616 Y19.7950
G01 X16.9246 Y19.6091
G01 X16.9246 Y17.2509
G01 X16.9616 Y17.0650
G01 X17.0551 Y16.9251
G01 X17.1950 Y16.8316
G01 X17.3809 Y16.7946
G01 X19.7391 Y16.7946
G01 X19.9250 Y16.8316
G01 X20.0649 Y16.9251
G01 X20.1584 Y17.0650
G01 X20.1801 Y17.1742
G01 X20.1954 Y17.2509
G00 Z2.0000
G00 X24.7249 Y17.7956
G01 F350.00
G01 Z-0.1306
G01 F400.00
G01 X24.7530 Y17.8237
G01 X24.6995 Y17.9539
G01 X24.6547 Y18.1093
G01 X24.6277 Y18.2686
G01 X24.6186 Y18.4300
G01 X24.6277 Y18.5914
G01 X24.6547 Y18.7507
G01 X24.6995 Y18.9061
G01 X24.7530 Y19.0363
G01 X24.7303 Y19.0590
G01 X24.5857 Y18.6796
G01 X24.6026 Y18.0909
G01 X24.7249 Y17.7956
G01 X24.7530 Y17.8237
G00 Z2.0000
G00 X25.4246 Y17.3151
G01 F350.00
G01 Z-0.1306
G01 F400.00
G01 X25.1939 Y17.0844
G01 X25.2251 Y17.0114
G01 X25.7838 Y16.7985
G01 X26.4324 Y16.8171
G01 X26.5549 Y16.8678
G01 X26.5775 Y16.8757
G01 X26.6009 Y16.8810
G01 X26.6247 Y16.8837
G01 X26.6487 Y16.8836
G01 X26.6725 Y16.8808
G01 X26.6958 Y16.8754
G01 X26.7139 Y16.8691
G01 X26.7399 Y16.8568
G01 X26.7639 Y16.8410
G01 X26.7787 Y16.8288
G01 X26.7923 Y16.8152
G01 X26.8074 Y16.7967
G01 X26.8129 Y16.7888
G01 X26.8228 Y16.7724
G01 X26.8310 Y16.7551
G01 X26.8406 Y16.7279
G01 X26.8462 Y16.6997
G01 X26.8479 Y16.6806
G01 X26.8478 Y16.6615
G01 X26.8449 Y16.6353
G01 X26.8073 Y16.4343
G01 X26.9569 Y3.2736
G01 X26.9865 Y3.1153
G01 X27.0738 Y2.9743
G01 X27.2065 Y2.8788
G01 X27.3863 Y2.8366
G01 X34.5927 Y2.5881
G01 X34.7918 Y2.6242
G01 X34.9261 Y2.7139
G01 X35.0169 Y2.8497
G01 X35.0529 Y3.0309
G01 X35.0529 Y17.2863
G01 X35.0064 Y17.4923
G01 X34.9104 Y17.6210
G01 X34.7701 Y17.7047
G01 X34.6844 Y17.7171
G01 X34.6662 Y17.7207
G01 X34.6395 Y17.7288
G01 X34.6182 Y17.7383
G01 X34.5982 Y17.7500
G01 X34.5795 Y17.7639
G01 X34.5624 Y17.7797
G01 X34.5472 Y17.7973
G01 X34.5340 Y17.8164
G01 X34.5251 Y17.8327
G01 X34.5159 Y17.8541
G01 X34.5129 Y17.8629
G01 X34.5080 Y17.8808
G01 X34.5042 Y17.9038
G01 X34.5030 Y17.9247
G01 X34.5029 Y17.9428
G01 X34.2482 Y18.5576
G01 X33.7776 Y19.0282
G01 X33.1628 Y19.2829
G01 X32.4972 Y19.2829
G01 X31.8824 Y19.0282
G01 X31.4118 Y18.5576
G01 X31.1571 Y17.9428
G01 X31.1569 Y17.7506
G01 X31.1558 Y17.7323
G01 X31.1530 Y17.7141
G01 X31.1443 Y17.6831
G01 X31.1374 Y17.6661
G01 X31.1266 Y17.6458
G01 X31.1137 Y17.6267
G01 X31.0988 Y17.6092
G01 X31.0821 Y17.5934
G01 X31.0637 Y17.5795
G01 X31.0440 Y17.5677
G01 X31.0231 Y17.5581
G01 X31.0013 Y17.5508
G01 X30.9834 Y17.5468
G01 X30.9560 Y17.5435
G01 X28.8110 Y17.4325
G01 X28.7829 Y17.4303
G01 X27.8623 Y17.3334
G01 X27.7378 Y17.2872
G01 X27.7146 Y17.2801
G01 X27.6907 Y17.2757
G01 X27.6665 Y17.2740
G01 X27.6423 Y17.2751
G01 X27.6183 Y17.2790
G01 X27.5904 Y17.2873
G01 X27.5725 Y17.2948
G01 X27.5512 Y17.3065
G01 X27.5277 Y17.3237
G01 X27.5134 Y17.3368
G01 X27.4973 Y17.3550
G01 X27.4810 Y17.3791
G01 X27.4719 Y17.3962
G01 X27.4629 Y17.4187
G01 X27.4566 Y17.4422
G01 X27.4535 Y17.4613
G01 X27.4520 Y17.4904
G01 X27.4547 Y17.5194
G01 X27.4585 Y17.5384
G01 X27.4650 Y17.5593
G01 X27.6915 Y18.1538
G01 X27.6729 Y18.8024
G01 X27.4819 Y19.2635
G01 X27.4056 Y19.2961
G01 X27.1749 Y19.0654
G01 X27.2177 Y18.9875
G01 X27.2729 Y18.8544
G01 X27.3128 Y18.7159
G01 X27.3363 Y18.5786
G01 X27.3373 Y18.5691
G01 X27.3449 Y18.4252
G01 X27.3369 Y18.2861
G01 X27.3128 Y18.1441
G01 X27.2729 Y18.0056
G01 X27.2197 Y17.8768
G01 X27.2156 Y17.8682
G01 X27.1480 Y17.7463
G01 X27.0675 Y17.6326
G01 X27.0616 Y17.6252
G01 X26.9686 Y17.5214
G01 X26.8612 Y17.4253
G01 X26.7476 Y17.3446
G01 X26.7396 Y17.3395
G01 X26.6175 Y17.2723
G01 X26.4844 Y17.2171
G01 X26.3506 Y17.1784
G01 X26.3413 Y17.1763
G01 X26.2039 Y17.1531
G01 X26.0648 Y17.1451
G01 X26.0552 Y17.1451
G01 X25.9161 Y17.1531
G01 X25.7741 Y17.1772
G01 X25.6401 Y17.2157
G01 X25.6311 Y17.2188
G01 X25.5025 Y17.2723
G01 X25.4246 Y17.3151
G01 X25.1939 Y17.0844
G00 Z2.0000
G00 X25.4537 Y17.1230
G01 F350.00
G01 Z-0.1306
G01 F400.00
G01 X25.4310 Y17.1003
G01 X25.8104 Y16.9557
G01 X26.3991 Y16.9726
G01 X26.5078 Y17.0172
G01 X26.5344 Y17.0261
G01 X26.5750 Y17.0353
G01 X26.6164 Y17.0398
G01 X26.6580 Y17.0397
G01 X26.6994 Y17.0349
G01 X26.7399 Y17.0254
G01 X26.7664 Y17.0164
G01 X26.7916 Y17.0058
G01 X26.8165 Y16.9931
G01 X26.8403 Y16.9784
G01 X26.8625 Y16.9624
G01 X26.8840 Y16.9445
G01 X26.9131 Y16.9148
G01 X26.9307 Y16.8929
G01 X26.9462 Y16.8705
G01 X26.9605 Y16.8464
G01 X26.9727 Y16.8212
G01 X26.9829 Y16.7959
G01 X26.9914 Y16.7692
G01 X26.9977 Y16.7419
G01 X27.0018 Y16.7150
G01 X27.0042 Y16.6871
G01 X27.0044 Y16.6734
G01 X27.0036 Y16.6454
G01 X27.0022 Y16.6319
G01 X26.9982 Y16.6041
G01 X26.9639 Y16.4207
G01 X27.1131 Y3.2890
G01 X27.1348 Y3.1728
G01 X27.1904 Y3.0831
G01 X27.2726 Y3.0240
G01 X27.4071 Y2.9924
G01 X34.5813 Y2.7450
G01 X34.7320 Y2.7723
G01 X34.8134 Y2.8266
G01 X34.8696 Y2.9108
G01 X34.8965 Y3.0463
G01 X34.8965 Y17.2689
G01 X34.8612 Y17.4255
G01 X34.8036 Y17.5026
G01 X34.7167 Y17.5544
G01 X34.6553 Y17.5634
G01 X34.6223 Y17.5704
G01 X34.5838 Y17.5827
G01 X34.5469 Y17.5991
G01 X34.5120 Y17.6195
G01 X34.4796 Y17.6436
G01 X34.4499 Y17.6710
G01 X34.4235 Y17.7016
G01 X34.4078 Y17.7238
G01 X34.3940 Y17.7463
G01 X34.3814 Y17.7704
G01 X34.3709 Y17.7955
G01 X34.3624 Y17.8205
G01 X34.3554 Y17.8468
G01 X34.3488 Y17.8867
G01 X34.3471 Y17.9103
G01 X34.1157 Y18.4690
G01 X33.6890 Y18.8957
G01 X33.1317 Y19.1265
G01 X32.5283 Y19.1265
G01 X31.9710 Y18.8957
G01 X31.5443 Y18.4690
G01 X31.3135 Y17.9117
G01 X31.3135 Y17.7552
G01 X31.3113 Y17.7153
G01 X31.3048 Y17.6759
G01 X31.2980 Y17.6499
G01 X31.2896 Y17.6251
G01 X31.2793 Y17.6003
G01 X31.2606 Y17.5650
G01 X31.2381 Y17.5319
G01 X31.2122 Y17.5015
G01 X31.1929 Y17.4828
G01 X31.1729 Y17.4659
G01 X31.1513 Y17.4499
G01 X31.1402 Y17.4429
G01 X31.1170 Y17.4294
G01 X31.0807 Y17.4127
G01 X31.0428 Y17.4000
G01 X31.0166 Y17.3939
G01 X30.9908 Y17.3898
G01 X30.9640 Y17.3873
G01 X28.8211 Y17.2764
G01 X28.7972 Y17.2746
G01 X27.8982 Y17.1799
G01 X27.7791 Y17.1362
G01 X27.7519 Y17.1282
G01 X27.7104 Y17.1205
G01 X27.6683 Y17.1176
G01 X27.6400 Y17.1185
G01 X27.6125 Y17.1213
G01 X27.5846 Y17.1263
G01 X27.5572 Y17.1336
G01 X27.5311 Y17.1426
G01 X27.5050 Y17.1537
G01 X27.4681 Y17.1740
G01 X27.4447 Y17.1901
G01 X27.4232 Y17.2074
G01 X27.4023 Y17.2267
G01 X27.3833 Y17.2476
G01 X27.3662 Y17.2694
G01 X27.3503 Y17.2928
G01 X27.3365 Y17.3176
G01 X27.3248 Y17.3426
G01 X27.3146 Y17.3691
G01 X27.3068 Y17.3964
G01 X27.3011 Y17.4234
G01 X27.2972 Y17.4515
G01 X27.2956 Y17.4936
G01 X27.2989 Y17.5357
G01 X27.3070 Y17.5770
G01 X27.3152 Y17.6042
G01 X27.5343 Y18.1804
G01 X27.5174 Y18.7691
G01 X27.3951 Y19.0644
G01 X27.3670 Y19.0363
G01 X27.4205 Y18.9061
G01 X27.4619 Y18.7639
G01 X27.4679 Y18.7375
G01 X27.4904 Y18.6048
G01 X27.4935 Y18.5779
G01 X27.5014 Y18.4300
G01 X27.4935 Y18.2821
G01 X27.4904 Y18.2552
G01 X27.4679 Y18.1225
G01 X27.4619 Y18.0961
G01 X27.4205 Y17.9539
G01 X27.3642 Y17.8170
G01 X27.3524 Y17.7926
G01 X27.2805 Y17.6631
G01 X27.1951 Y17.5421
G01 X27.1782 Y17.5210
G01 X27.0792 Y17.4108
G01 X26.9690 Y17.3118
G01 X26.9479 Y17.2949
G01 X26.8269 Y17.2095
G01 X26.6974 Y17.1376
G01 X26.6730 Y17.1258
G01 X26.5361 Y17.0695
G01 X26.3939 Y17.0281
G01 X26.3675 Y17.0221
G01 X26.2214 Y16.9977
G01 X26.0735 Y16.9890
G01 X26.0465 Y16.9890
G01 X25.8986 Y16.9977
G01 X25.7525 Y17.0221
G01 X25.7261 Y17.0281
G01 X25.5839 Y17.0695
G01 X25.4537 Y17.1230
G01 X25.4310 Y17.1003
G00 Z2.0000
G00 X26.9415 Y17.0986
G01 F350.00
G01 Z-0.1306
G01 F400.00
G01 X26.9610 Y17.0839
G01 X26.9892 Y17.0602
G01 X27.0155 Y17.0343
G01 X27.0308 Y17.0179
G01 X27.0451 Y17.0005
G01 X27.0673 Y16.9711
G01 X27.0871 Y16.9400
G01 X27.0983 Y16.9205
G01 X27.1084 Y16.9004
G01 X27.1223 Y16.8693
G01 X27.3779 Y17.0463
G01 X27.3541 Y17.0627
G01 X27.3359 Y17.0764
G01 X27.3077 Y17.1009
G01 X27.2913 Y17.1166
G01 X27.2757 Y17.1332
G01 X27.2515 Y17.1616
G01 X27.2379 Y17.1799
G01 X27.2171 Y17.2108
G01 X27.1988 Y17.2434
G01 X27.1886 Y17.2637
G01 X27.1778 Y17.2889
G01 X27.0733 Y17.1952
G01 X27.0562 Y17.1808
G01 X27.0384 Y17.1674
G01 X26.9415 Y17.0986
G01 X26.9610 Y17.0839
G00 Z2.0000
G00 X24.9451 Y19.0654
G01 F350.00
G01 Z-0.1306
G01 F400.00
G01 X24.7144 Y19.2961
G01 X24.6414 Y19.2649
G01 X24.4285 Y18.7062
G01 X24.4471 Y18.0576
G01 X24.6381 Y17.5965
G01 X24.7144 Y17.5639
G01 X24.9451 Y17.7946
G01 X24.9023 Y17.8725
G01 X24.8488 Y18.0011
G01 X24.8084 Y18.1394
G01 X24.8063 Y18.1487
G01 X24.7831 Y18.2861
G01 X24.7750 Y18.4300
G01 X24.7831 Y18.5739
G01 X24.8063 Y18.7113
G01 X24.8084 Y18.7206
G01 X24.8488 Y18.8589
G01 X24.9023 Y18.9875
G01 X24.9451 Y19.0654
G01 X24.7144 Y19.2961
G00 Z2.0000
G00 X25.4246 Y19.5449
G01 F350.00
G01 Z-0.1306
G01 F400.00
G01 X25.5025 Y19.5877
G01 X25.6311 Y19.6412
G01 X25.7694 Y19.6816
G01 X25.7787 Y19.6837
G01 X25.9161 Y19.7069
G01 X26.0600 Y19.7150
G01 X26.2039 Y19.7069
G01 X26.3413 Y19.6837
G01 X26.3506 Y19.6816
G01 X26.4889 Y19.6412
G01 X26.6175 Y19.5877
G01 X26.6954 Y19.5449
G01 X26.9261 Y19.7756
G01 X26.8949 Y19.8486
G01 X26.3362 Y20.0615
G01 X25.6876 Y20.0429
G01 X25.2265 Y19.8519
G01 X25.1939 Y19.7756
G01 X25.4246 Y19.5449
G01 X25.5025 Y19.5877
G00 Z2.0000
G00 X25.4256 Y19.7651
G01 F350.00
G01 Z-0.1306
G01 F400.00
G01 X25.4537 Y19.7370
G01 X25.5839 Y19.7905
G01 X25.7393 Y19.8353
G01 X25.8986 Y19.8623
G01 X26.0600 Y19.8714
G01 X26.2214 Y19.8623
G01 X26.3807 Y19.8353
G01 X26.5361 Y19.7905
G01 X26.6663 Y19.7370
G01 X26.6890 Y19.7597
G01 X26.3096 Y19.9043
G01 X25.7209 Y19.8874
G01 X25.4256 Y19.7651
G01 X25.4537 Y19.7370
G00 Z2.0000
G00 X27.0567 Y10.4621
G01 F350.00
G01 Z-0.1306
G01 F400.00
G01 X27.1373 Y3.3720
G01 X27.1398 Y3.3385
G01 X27.1468 Y3.2990
G01 X27.1580 Y3.2605
G01 X27.1680 Y3.2355
G01 X27.1794 Y3.2118
G01 X27.1926 Y3.1883
G01 X27.1999 Y3.1773
G01 X27.2156 Y3.1554
G01 X27.2421 Y3.1252
G01 X27.2716 Y3.0981
G01 X27.2932 Y3.0818
G01 X27.3152 Y3.0675
G01 X27.3387 Y3.0543
G01 X27.3506 Y3.0486
G01 X27.3754 Y3.0381
G01 X27.4136 Y3.0259
G01 X27.4530 Y3.0181
G01 X27.4863 Y3.0148
G01 X34.4903 Y2.7732
G01 X34.5316 Y2.7741
G01 X34.5726 Y2.7796
G01 X34.6126 Y2.7897
G01 X34.6373 Y2.7985
G01 X34.6629 Y2.8095
G01 X34.6990 Y2.8295
G01 X34.7327 Y2.8534
G01 X34.7635 Y2.8809
G01 X34.7885 Y2.9085
G01 X34.8103 Y2.9382
G01 X34.8293 Y2.9702
G01 X34.8464 Y3.0078
G01 X34.8592 Y3.0471
G01 X34.8649 Y3.0727
G01 X34.8691 Y3.1002
G01 X34.8715 Y3.1415
G01 X34.8715 Y17.1763
G01 X34.8702 Y17.2049
G01 X34.8670 Y17.2327
G01 X34.8616 Y17.2609
G01 X34.8494 Y17.3018
G01 X34.8326 Y17.3410
G01 X34.8113 Y17.3780
G01 X34.7859 Y17.4123
G01 X34.7567 Y17.4434
G01 X34.7241 Y17.4710
G01 X34.6886 Y17.4946
G01 X34.6505 Y17.5139
G01 X34.6105 Y17.5287
G01 X34.5690 Y17.5388
G01 X34.5406 Y17.5427
G01 X34.5266 Y17.5440
G01 X34.4910 Y17.5445
G01 X34.3176 Y17.5356
G01 X34.3214 Y17.6100
G01 X34.3132 Y17.7635
G01 X34.3101 Y17.7904
G01 X34.2840 Y17.9419
G01 X34.2377 Y18.1026
G01 X34.1737 Y18.2571
G01 X34.0928 Y18.4035
G01 X33.9960 Y18.5399
G01 X33.8846 Y18.6646
G01 X33.7599 Y18.7760
G01 X33.6235 Y18.8728
G01 X33.4771 Y18.9537
G01 X33.3226 Y19.0177
G01 X33.1750 Y19.0606
G01 X33.1486 Y19.0666
G01 X32.9970 Y19.0920
G01 X32.8435 Y19.1010
G01 X32.8165 Y19.1010
G01 X32.6765 Y19.0932
G01 X32.6496 Y19.0901
G01 X32.4981 Y19.0640
G01 X32.3374 Y19.0177
G01 X32.1953 Y18.9592
G01 X32.1709 Y18.9475
G01 X32.0365 Y18.8728
G01 X31.9001 Y18.7760
G01 X31.7853 Y18.6739
G01 X31.7661 Y18.6547
G01 X31.6640 Y18.5399
G01 X31.5672 Y18.4035
G01 X31.4863 Y18.2571
G01 X31.4271 Y18.1152
G01 X31.4182 Y18.0897
G01 X31.3760 Y17.9419
G01 X31.3480 Y17.7770
G01 X31.3390 Y17.6235
G01 X31.3390 Y17.5965
G01 X31.3468 Y17.4565
G01 X31.3499 Y17.4296
G01 X31.3579 Y17.3825
G01 X28.8177 Y17.2511
G01 X27.8870 Y17.1535
G01 X27.8564 Y17.1488
G01 X27.8270 Y17.1420
G01 X27.7974 Y17.1326
G01 X27.7553 Y17.1139
G01 X27.7221 Y17.0942
G01 X27.1427 Y16.6931
G01 X27.1165 Y16.6724
G01 X27.1068 Y16.6636
G01 X27.0877 Y16.6447
G01 X27.0703 Y16.6242
G01 X27.0546 Y16.6032
G01 X27.0401 Y16.5806
G01 X27.0337 Y16.5692
G01 X27.0217 Y16.5451
G01 X27.0073 Y16.5079
G01 X27.0001 Y16.4820
G01 X26.9947 Y16.4563
G01 X26.9910 Y16.4297
G01 X26.9893 Y16.3963
G01 X27.0567 Y10.4621
G01 X27.1373 Y3.3720
G00 Z2.0000
G00 X27.2131 Y10.4639
G01 F350.00
G01 Z-0.1306
G01 F400.00
G01 X27.2936 Y3.3803
G01 X27.2951 Y3.3573
G01 X27.2991 Y3.3346
G01 X27.3056 Y3.3124
G01 X27.3125 Y3.2953
G01 X27.3165 Y3.2869
G01 X27.3280 Y3.2670
G01 X27.3387 Y3.2519
G01 X27.3539 Y3.2345
G01 X27.3710 Y3.2189
G01 X27.3896 Y3.2053
G01 X27.4095 Y3.1937
G01 X27.4264 Y3.1861
G01 X27.4482 Y3.1787
G01 X27.4572 Y3.1764
G01 X27.4753 Y3.1729
G01 X27.4983 Y3.1708
G01 X34.4957 Y2.9295
G01 X34.5195 Y2.9300
G01 X34.5430 Y2.9332
G01 X34.5661 Y2.9390
G01 X34.5775 Y2.9430
G01 X34.5950 Y2.9504
G01 X34.6158 Y2.9619
G01 X34.6352 Y2.9757
G01 X34.6530 Y2.9915
G01 X34.6641 Y3.0036
G01 X34.6786 Y3.0225
G01 X34.6908 Y3.0429
G01 X34.7006 Y3.0646
G01 X34.7080 Y3.0872
G01 X34.7107 Y3.0989
G01 X34.7137 Y3.1177
G01 X34.7151 Y3.1415
G01 X34.7151 Y17.1763
G01 X34.7141 Y17.1959
G01 X34.7094 Y17.2250
G01 X34.7006 Y17.2531
G01 X34.6927 Y17.2711
G01 X34.6830 Y17.2882
G01 X34.6658 Y17.3121
G01 X34.6490 Y17.3300
G01 X34.6262 Y17.3487
G01 X34.6098 Y17.3595
G01 X34.5924 Y17.3685
G01 X34.5649 Y17.3791
G01 X34.5361 Y17.3856
G01 X34.5166 Y17.3879
G01 X34.4945 Y17.3881
G01 X34.1413 Y17.3699
G01 X34.1566 Y17.4605
G01 X34.1649 Y17.6052
G01 X34.1649 Y17.6148
G01 X34.1570 Y17.7547
G01 X34.1559 Y17.7642
G01 X34.1315 Y17.9071
G01 X34.0901 Y18.0509
G01 X34.0328 Y18.1892
G01 X33.9628 Y18.3162
G01 X33.9577 Y18.3242
G01 X33.8737 Y18.4424
G01 X33.7773 Y18.5505
G01 X33.7705 Y18.5573
G01 X33.6624 Y18.6537
G01 X33.5403 Y18.7404
G01 X33.4135 Y18.8106
G01 X33.4049 Y18.8147
G01 X33.2709 Y18.8701
G01 X33.1317 Y18.9103
G01 X33.1224 Y18.9125
G01 X32.9795 Y18.9366
G01 X32.8348 Y18.9449
G01 X32.8252 Y18.9449
G01 X32.6853 Y18.9370
G01 X32.6758 Y18.9359
G01 X32.5329 Y18.9115
G01 X32.3936 Y18.8715
G01 X32.3846 Y18.8684
G01 X32.2508 Y18.8128
G01 X32.1238 Y18.7428
G01 X32.1158 Y18.7377
G01 X31.9976 Y18.6537
G01 X31.8895 Y18.5573
G01 X31.8827 Y18.5505
G01 X31.7863 Y18.4424
G01 X31.7023 Y18.3242
G01 X31.6972 Y18.3162
G01 X31.6272 Y18.1892
G01 X31.5699 Y18.0509
G01 X31.5297 Y17.9117
G01 X31.5275 Y17.9024
G01 X31.5034 Y17.7595
G01 X31.4950 Y17.6100
G01 X31.5030 Y17.4653
G01 X31.5041 Y17.4558
G01 X31.5285 Y17.3129
G01 X31.5505 Y17.2359
G01 X28.8279 Y17.0951
G01 X27.8981 Y16.9973
G01 X27.8772 Y16.9936
G01 X27.8518 Y16.9859
G01 X27.8276 Y16.9752
G01 X27.8071 Y16.9629
G01 X27.2371 Y16.5683
G01 X27.2155 Y16.5511
G01 X27.2023 Y16.5383
G01 X27.1905 Y16.5242
G01 X27.1727 Y16.4974
G01 X27.1644 Y16.4810
G01 X27.1561 Y16.4595
G01 X27.1493 Y16.4328
G01 X27.1467 Y16.4146
G01 X27.1457 Y16.3916
G01 X27.2131 Y10.4639
G01 X27.2936 Y3.3803
G00 Z2.0000
G00 X29.1251 Y10.3442
G01 F350.00
G01 Z-0.1306
G01 F400.00
G01 X29.1261 Y10.3537
G01 X29.1282 Y10.3631
G01 X29.1313 Y10.3722
G01 X29.1355 Y10.3809
G01 X29.1406 Y10.3891
G01 X29.1466 Y10.3966
G01 X29.1534 Y10.4034
G01 X29.1609 Y10.4094
G01 X29.1691 Y10.4145
G01 X29.1778 Y10.4187
G01 X29.1869 Y10.4218
G01 X29.1963 Y10.4239
G01 X29.2058 Y10.4249
G01 X29.3447 Y10.4250
G01 X29.3447 Y10.7629
G01 X29.1259 Y10.7629
G01 X28.9704 Y10.6985
G01 X28.8515 Y10.5796
G01 X28.7871 Y10.4241
G01 X28.7871 Y8.0136
G01 X28.8216 Y7.9791
G01 X29.1250 Y7.9791
G01 X29.1251 Y10.3442
G01 X29.1261 Y10.3537
G00 Z2.0000
G00 X30.5153 Y10.7629
G01 F350.00
G01 Z-0.1306
G01 F400.00
G01 X30.5153 Y10.4250
G01 X30.8209 Y10.4250
G01 X30.8209 Y10.7284
G01 X30.7864 Y10.7629
G01 X30.5153 Y10.7629
G01 X30.5153 Y10.4250
G00 Z2.0000
G00 X31.4991 Y10.4250
G01 F350.00
G01 Z-0.1306
G01 F400.00
G01 X33.1100 Y10.4250
G01 X33.1237 Y10.4239
G01 X33.1331 Y10.4218
G01 X33.1422 Y10.4187
G01 X33.1509 Y10.4145
G01 X33.1591 Y10.4094
G01 X33.1666 Y10.4034
G01 X33.1734 Y10.3966
G01 X33.1794 Y10.3891
G01 X33.1845 Y10.3809
G01 X33.1887 Y10.3722
G01 X33.1918 Y10.3631
G01 X33.1939 Y10.3537
G01 X33.1950 Y10.3400
G01 X33.1950 Y7.9791
G01 X33.4984 Y7.9791
G01 X33.5329 Y8.0136
G01 X33.5329 Y10.4241
G01 X33.4685 Y10.5796
G01 X33.3496 Y10.6985
G01 X33.1941 Y10.7629
G01 X31.5336 Y10.7629
G01 X31.4991 Y10.7284
G01 X31.4991 Y10.4250
G01 X33.1100 Y10.4250
G00 Z2.0000
G00 X31.6555 Y10.5814
G01 F350.00
G01 Z-0.1306
G01 F400.00
G01 X33.1218 Y10.5811
G01 X33.1490 Y10.5782
G01 X33.1757 Y10.5723
G01 X33.2015 Y10.5634
G01 X33.2262 Y10.5516
G01 X33.2494 Y10.5371
G01 X33.2708 Y10.5201
G01 X33.2901 Y10.5008
G01 X33.3071 Y10.4794
G01 X33.3216 Y10.4562
G01 X33.3334 Y10.4315
G01 X33.3423 Y10.4057
G01 X33.3482 Y10.3790
G01 X33.3511 Y10.3518
G01 X33.3514 Y8.1355
G01 X33.3765 Y8.1355
G01 X33.3765 Y10.3930
G01 X33.3360 Y10.4910
G01 X33.2610 Y10.5660
G01 X33.1630 Y10.6065
G01 X31.6555 Y10.6065
G01 X31.6555 Y10.5814
G01 X33.1218 Y10.5811
G00 Z2.0000
G00 X28.9435 Y8.1355
G01 F350.00
G01 Z-0.1306
G01 F400.00
G01 X28.9686 Y8.1355
G01 X28.9689 Y10.3518
G01 X28.9718 Y10.3790
G01 X28.9777 Y10.4057
G01 X28.9866 Y10.4315
G01 X28.9984 Y10.4562
G01 X29.0129 Y10.4794
G01 X29.0299 Y10.5008
G01 X29.0492 Y10.5201
G01 X29.0706 Y10.5371
G01 X29.0938 Y10.5516
G01 X29.1185 Y10.5634
G01 X29.1443 Y10.5723
G01 X29.1710 Y10.5782
G01 X29.1883 Y10.5801
G01 X29.1883 Y10.6065
G01 X29.1570 Y10.6065
G01 X29.0590 Y10.5660
G01 X28.9840 Y10.4910
G01 X28.9435 Y10.3930
G01 X28.9435 Y8.1355
G01 X28.9686 Y8.1355
G00 Z2.0000
G00 X29.1250 Y7.3009
G01 F350.00
G01 Z-0.1306
G01 F400.00
G01 X28.8216 Y7.3009
G01 X28.7871 Y7.2664
G01 X28.7871 Y4.8559
G01 X28.8515 Y4.7004
G01 X28.9704 Y4.5815
G01 X29.1259 Y4.5171
G01 X30.7864 Y4.5171
G01 X30.8209 Y4.5516
G01 X30.8209 Y4.8550
G01 X29.2058 Y4.8551
G01 X29.1963 Y4.8561
G01 X29.1869 Y4.8582
G01 X29.1778 Y4.8613
G01 X29.1691 Y4.8655
G01 X29.1609 Y4.8706
G01 X29.1534 Y4.8766
G01 X29.1466 Y4.8834
G01 X29.1406 Y4.8909
G01 X29.1355 Y4.8991
G01 X29.1313 Y4.9078
G01 X29.1282 Y4.9169
G01 X29.1261 Y4.9263
G01 X29.1250 Y4.9400
G01 X29.1250 Y7.3009
G01 X28.8216 Y7.3009
G00 Z2.0000
G00 X28.9435 Y7.1445
G01 F350.00
G01 Z-0.1306
G01 F400.00
G01 X28.9435 Y4.8870
G01 X28.9840 Y4.7890
G01 X29.0590 Y4.7140
G01 X29.1570 Y4.6735
G01 X30.6645 Y4.6735
G01 X30.6645 Y4.6986
G01 X29.1982 Y4.6989
G01 X29.1710 Y4.7018
G01 X29.1443 Y4.7077
G01 X29.1185 Y4.7166
G01 X29.0938 Y4.7284
G01 X29.0706 Y4.7429
G01 X29.0492 Y4.7599
G01 X29.0299 Y4.7792
G01 X29.0129 Y4.8006
G01 X28.9984 Y4.8238
G01 X28.9866 Y4.8485
G01 X28.9777 Y4.8743
G01 X28.9718 Y4.9010
G01 X28.9689 Y4.9282
G01 X28.9686 Y7.1445
G01 X28.9435 Y7.1445
G01 X28.9435 Y4.8870
G00 Z2.0000
G00 X31.6555 Y4.6735
G01 F350.00
G01 Z-0.1306
G01 F400.00
G01 X33.1630 Y4.6735
G01 X33.2610 Y4.7140
G01 X33.3360 Y4.7890
G01 X33.3765 Y4.8870
G01 X33.3765 Y7.1445
G01 X33.3514 Y7.1445
G01 X33.3511 Y4.9281
G01 X33.3482 Y4.9010
G01 X33.3423 Y4.8743
G01 X33.3334 Y4.8485
G01 X33.3216 Y4.8238
G01 X33.3071 Y4.8006
G01 X33.2901 Y4.7792
G01 X33.2708 Y4.7599
G01 X33.2494 Y4.7429
G01 X33.2262 Y4.7284
G01 X33.2015 Y4.7166
G01 X33.1757 Y4.7077
G01 X33.1490 Y4.7018
G01 X33.1218 Y4.6989
G01 X31.6555 Y4.6986
G01 X31.6555 Y4.6735
G01 X33.1630 Y4.6735
G00 Z2.0000
G00 X33.1949 Y4.9358
G01 F350.00
G01 Z-0.1306
G01 F400.00
G01 X33.1939 Y4.9263
G01 X33.1918 Y4.9169
G01 X33.1887 Y4.9078
G01 X33.1845 Y4.8991
G01 X33.1794 Y4.8909
G01 X33.1734 Y4.8834
G01 X33.1666 Y4.8766
G01 X33.1591 Y4.8706
G01 X33.1509 Y4.8655
G01 X33.1422 Y4.8613
G01 X33.1331 Y4.8582
G01 X33.1237 Y4.8561
G01 X33.1142 Y4.8551
G01 X31.4991 Y4.8550
G01 X31.4991 Y4.5516
G01 X31.5336 Y4.5171
G01 X33.1941 Y4.5171
G01 X33.3496 Y4.5815
G01 X33.4685 Y4.7004
G01 X33.5329 Y4.8559
G01 X33.5329 Y7.2664
G01 X33.4984 Y7.3009
G01 X33.1950 Y7.3009
G01 X33.1949 Y4.9358
G01 X33.1939 Y4.9263
G00 Z2.0000
G00 X39.2695 Y2.6349
G01 F350.00
G01 Z-0.1306
G01 F400.00
G01 X39.2856 Y2.6016
G01 X39.2994 Y2.5675
G01 X39.3038 Y2.5538
G01 X39.3868 Y2.6368
G01 X39.2695 Y2.6349
G01 X39.2856 Y2.6016
G00 Z2.0000
G00 X40.2058 Y4.8551
G01 F350.00
G01 Z-0.1306
G01 F400.00
G01 X40.1963 Y4.8561
G01 X40.1869 Y4.8582
G01 X40.1778 Y4.8613
G01 X40.1691 Y4.8655
G01 X40.1609 Y4.8706
G01 X40.1534 Y4.8766
G01 X40.1466 Y4.8834
G01 X40.1406 Y4.8909
G01 X40.1355 Y4.8991
G01 X40.1313 Y4.9078
G01 X40.1282 Y4.9169
G01 X40.1261 Y4.9263
G01 X40.1251 Y4.9358
G01 X40.1250 Y7.3009
G01 X39.8216 Y7.3009
G01 X39.7871 Y7.2664
G01 X39.7871 Y4.8559
G01 X39.8515 Y4.7004
G01 X39.9704 Y4.5815
G01 X40.1259 Y4.5171
G01 X40.3447 Y4.5171
G01 X40.3447 Y4.8550
G01 X40.2058 Y4.8551
G01 X40.1963 Y4.8561
G00 Z2.0000
G00 X41.5153 Y4.5171
G01 F350.00
G01 Z-0.1306
G01 F400.00
G01 X41.7864 Y4.5171
G01 X41.8209 Y4.5516
G01 X41.8209 Y4.8550
G01 X41.5153 Y4.8550
G01 X41.5153 Y4.5171
G01 X41.7864 Y4.5171
G00 Z2.0000
G00 X39.9435 Y7.1445
G01 F350.00
G01 Z-0.1306
G01 F400.00
G01 X39.9435 Y4.8870
G01 X39.9840 Y4.7890
G01 X40.0590 Y4.7140
G01 X40.1570 Y4.6735
G01 X40.1883 Y4.6735
G01 X40.1883 Y4.6999
G01 X40.1710 Y4.7018
G01 X40.1443 Y4.7077
G01 X40.1185 Y4.7166
G01 X40.0938 Y4.7284
G01 X40.0706 Y4.7429
G01 X40.0492 Y4.7599
G01 X40.0299 Y4.7792
G01 X40.0129 Y4.8006
G01 X39.9984 Y4.8238
G01 X39.9866 Y4.8485
G01 X39.9777 Y4.8743
G01 X39.9718 Y4.9010
G01 X39.9689 Y4.9281
G01 X39.9686 Y7.1445
G01 X39.9435 Y7.1445
G01 X39.9435 Y4.8870
G00 Z2.0000
G00 X39.9435 Y8.1355
G01 F350.00
G01 Z-0.1306
G01 F400.00
G01 X39.9686 Y8.1355
G01 X39.9686 Y10.3400
G01 X39.9689 Y10.3518
G01 X39.9718 Y10.3790
G01 X39.9777 Y10.4057
G01 X39.9866 Y10.4315
G01 X39.9984 Y10.4562
G01 X40.0129 Y10.4794
G01 X40.0299 Y10.5008
G01 X40.0492 Y10.5201
G01 X40.0706 Y10.5371
G01 X40.0938 Y10.5516
G01 X40.1185 Y10.5634
G01 X40.1443 Y10.5723
G01 X40.1710 Y10.5782
G01 X40.1982 Y10.5811
G01 X40.3884 Y10.5814
G01 X40.3884 Y10.6065
G01 X40.1570 Y10.6065
G01 X40.0590 Y10.5660
G01 X39.9840 Y10.4910
G01 X39.9435 Y10.3930
G01 X39.9435 Y8.1355
G01 X39.9686 Y8.1355
G00 Z2.0000
G00 X40.1251 Y10.3442
G01 F350.00
G01 Z-0.1306
G01 F400.00
G01 X40.1261 Y10.3537
G01 X40.1282 Y10.3631
G01 X40.1313 Y10.3722
G01 X40.1355 Y10.3809
G01 X40.1406 Y10.3891
G01 X40.1466 Y10.3966
G01 X40.1534 Y10.4034
G01 X40.1609 Y10.4094
G01 X40.1691 Y10.4145
G01 X40.1778 Y10.4187
G01 X40.1869 Y10.4218
G01 X40.1963 Y10.4239
G01 X40.2100 Y10.4250
G01 X40.5448 Y10.4250
G01 X40.5448 Y10.7629
G01 X40.1259 Y10.7629
G01 X39.9704 Y10.6985
G01 X39.8515 Y10.5796
G01 X39.7871 Y10.4241
G01 X39.7871 Y8.0136
G01 X39.8216 Y7.9791
G01 X40.1250 Y7.9791
G01 X40.1251 Y10.3442
G01 X40.1261 Y10.3537
G00 Z2.0000
G00 X41.3152 Y10.4250
G01 F350.00
G01 Z-0.1306
G01 F400.00
G01 X41.8209 Y10.4250
G01 X41.8209 Y10.7284
G01 X41.7864 Y10.7629
G01 X41.3152 Y10.7629
G01 X41.3152 Y10.4250
G01 X41.8209 Y10.4250
G00 Z2.0000
G00 X41.4716 Y10.5814
G01 F350.00
G01 Z-0.1306
G01 F400.00
G01 X41.6645 Y10.5814
G01 X41.6645 Y10.6065
G01 X41.4716 Y10.6065
G01 X41.4716 Y10.5814
G01 X41.6645 Y10.5814
G00 Z2.0000
G00 X42.0712 Y17.6822
G01 F350.00
G01 Z-0.1306
G01 F400.00
G01 X41.9756 Y17.7218
G01 X41.9472 Y17.7345
G01 X41.9196 Y17.7487
G01 X41.7844 Y17.8239
G01 X41.7844 Y17.6777
G01 X42.0712 Y17.6822
G01 X41.9756 Y17.7218
G00 Z2.0000
G00 X43.3619 Y17.5459
G01 F350.00
G01 Z-0.1306
G01 F400.00
G01 X43.3458 Y17.5792
G01 X43.3320 Y17.6133
G01 X43.3250 Y17.6346
G01 X43.3152 Y17.6701
G01 X43.3107 Y17.6921
G01 X43.3049 Y17.7285
G01 X43.3029 Y17.7508
G01 X43.3013 Y17.7876
G01 X43.3021 Y17.8155
G01 X43.2742 Y17.8047
G01 X43.2530 Y17.7979
G01 X43.1183 Y17.7591
G01 X43.0967 Y17.7535
G01 X43.0748 Y17.7492
G01 X42.9366 Y17.7257
G01 X42.9145 Y17.7226
G01 X42.8923 Y17.7207
G01 X42.7523 Y17.7128
G01 X42.7300 Y17.7122
G01 X42.7077 Y17.7128
G01 X42.5677 Y17.7207
G01 X42.5455 Y17.7226
G01 X42.5234 Y17.7257
G01 X42.3852 Y17.7492
G01 X42.3633 Y17.7535
G01 X42.3417 Y17.7591
G01 X42.2070 Y17.7979
G01 X42.1858 Y17.8047
G01 X42.1649 Y17.8126
G01 X42.0354 Y17.8663
G01 X42.0150 Y17.8754
G01 X41.9952 Y17.8856
G01 X41.8725 Y17.9534
G01 X41.8533 Y17.9648
G01 X41.8348 Y17.9772
G01 X41.7204 Y18.0583
G01 X41.7026 Y18.0717
G01 X41.6280 Y18.1376
G01 X41.6280 Y17.5188
G01 X43.3619 Y17.5459
G01 X43.3458 Y17.5792
G00 Z2.0000
G00 X45.2549 Y32.5448
G01 F350.00
G01 Z-0.1306
G01 F400.00
G01 X45.2356 Y32.8854
G01 X45.1777 Y33.2265
G01 X45.0819 Y33.5589
G01 X44.9514 Y33.8742
G01 X44.9473 Y33.8828
G01 X44.7846 Y34.1772
G01 X44.7795 Y34.1853
G01 X44.5820 Y34.4635
G01 X44.3514 Y34.7214
G01 X44.0935 Y34.9520
G01 X43.8113 Y35.1521
G01 X43.5085 Y35.3195
G01 X43.1934 Y35.4502
G01 X43.1844 Y35.4533
G01 X42.8611 Y35.5465
G01 X42.8518 Y35.5486
G01 X42.5154 Y35.6056
G01 X42.1700 Y35.6250
G01 X41.8246 Y35.6056
G01 X41.4835 Y35.5477
G01 X41.1511 Y35.4519
G01 X40.8358 Y35.3214
G01 X40.8272 Y35.3173
G01 X40.5328 Y35.1546
G01 X40.5247 Y35.1495
G01 X40.2465 Y34.9520
G01 X39.9886 Y34.7214
G01 X39.7580 Y34.4635
G01 X39.5579 Y34.1813
G01 X39.3905 Y33.8785
G01 X39.2598 Y33.5634
G01 X39.2567 Y33.5544
G01 X39.1635 Y33.2311
G01 X39.1614 Y33.2218
G01 X39.1044 Y32.8854
G01 X39.0850 Y32.5400
G01 X39.1044 Y32.1946
G01 X39.1623 Y31.8535
G01 X39.2581 Y31.5211
G01 X39.3886 Y31.2058
G01 X39.3927 Y31.1972
G01 X39.5554 Y30.9028
G01 X39.5605 Y30.8947
G01 X39.7580 Y30.6165
G01 X39.9886 Y30.3586
G01 X40.2465 Y30.1280
G01 X40.5287 Y29.9279
G01 X40.8315 Y29.7605
G01 X41.1466 Y29.6298
G01 X41.1556 Y29.6267
G01 X41.4789 Y29.5335
G01 X41.4882 Y29.5314
G01 X41.8246 Y29.4744
G01 X42.1700 Y29.4550
G01 X42.5154 Y29.4744
G01 X42.8565 Y29.5323
G01 X43.1889 Y29.6281
G01 X43.5042 Y29.7586
G01 X43.5128 Y29.7627
G01 X43.8072 Y29.9254
G01 X43.8153 Y29.9305
G01 X44.0935 Y30.1280
G01 X44.3514 Y30.3586
G01 X44.5820 Y30.6165
G01 X44.7821 Y30.8987
G01 X44.9495 Y31.2015
G01 X45.0802 Y31.5166
G01 X45.0833 Y31.5256
G01 X45.1765 Y31.8489
G01 X45.1786 Y31.8582
G01 X45.2356 Y32.1946
G01 X45.2549 Y32.5352
G01 X45.2549 Y32.5448
G01 X45.2356 Y32.8854
G00 Z2.0000
G00 X45.4110 Y32.5535
G01 F350.00
G01 Z-0.1306
G01 F400.00
G01 X45.3910 Y32.9029
G01 X45.3301 Y33.2613
G01 X45.2295 Y33.6106
G01 X45.0959 Y33.9340
G01 X45.0842 Y33.9584
G01 X44.9215 Y34.2529
G01 X44.9070 Y34.2758
G01 X44.7042 Y34.5610
G01 X44.4620 Y34.8320
G01 X44.1910 Y35.0742
G01 X43.8945 Y35.2846
G01 X43.5764 Y35.4604
G01 X43.2532 Y35.5947
G01 X43.2277 Y35.6036
G01 X42.9044 Y35.6967
G01 X42.8780 Y35.7028
G01 X42.5329 Y35.7610
G01 X42.1700 Y35.7814
G01 X41.8071 Y35.7610
G01 X41.4487 Y35.7001
G01 X41.0994 Y35.5995
G01 X40.7760 Y35.4659
G01 X40.7516 Y35.4542
G01 X40.4571 Y35.2915
G01 X40.4342 Y35.2770
G01 X40.1490 Y35.0742
G01 X39.8780 Y34.8320
G01 X39.6358 Y34.5610
G01 X39.4254 Y34.2645
G01 X39.2496 Y33.9464
G01 X39.1153 Y33.6232
G01 X39.1064 Y33.5977
G01 X39.0133 Y33.2744
G01 X39.0072 Y33.2480
G01 X38.9490 Y32.9029
G01 X38.9286 Y32.5400
G01 X38.9490 Y32.1771
G01 X39.0099 Y31.8187
G01 X39.1105 Y31.4694
G01 X39.2441 Y31.1460
G01 X39.2558 Y31.1216
G01 X39.4185 Y30.8271
G01 X39.4330 Y30.8042
G01 X39.6358 Y30.5190
G01 X39.8780 Y30.2480
G01 X40.1490 Y30.0058
G01 X40.4455 Y29.7954
G01 X40.7636 Y29.6196
G01 X41.0868 Y29.4853
G01 X41.1123 Y29.4764
G01 X41.4356 Y29.3833
G01 X41.4620 Y29.3772
G01 X41.8071 Y29.3190
G01 X42.1700 Y29.2986
G01 X42.5329 Y29.3190
G01 X42.8913 Y29.3799
G01 X43.2406 Y29.4805
G01 X43.5640 Y29.6141
G01 X43.5884 Y29.6258
G01 X43.8829 Y29.7885
G01 X43.9058 Y29.8030
G01 X44.1910 Y30.0058
G01 X44.4620 Y30.2480
G01 X44.7042 Y30.5190
G01 X44.9146 Y30.8155
G01 X45.0904 Y31.1336
G01 X45.2247 Y31.4568
G01 X45.2336 Y31.4823
G01 X45.3267 Y31.8056
G01 X45.3328 Y31.8320
G01 X45.3910 Y32.1771
G01 X45.4110 Y32.5265
G01 X45.4110 Y32.5535
G01 X45.3910 Y32.9029
G00 Z2.0000
G00 X26.2351 Y33.2142
G01 F350.00
G01 Z-0.1306
G01 F400.00
G01 X26.2350 Y31.5100
G01 X26.2361 Y31.4963
G01 X26.2382 Y31.4869
G01 X26.2413 Y31.4778
G01 X26.2455 Y31.4691
G01 X26.2506 Y31.4609
G01 X26.2566 Y31.4534
G01 X26.2634 Y31.4466
G01 X26.2709 Y31.4406
G01 X26.2791 Y31.4355
G01 X26.2878 Y31.4313
G01 X26.2969 Y31.4282
G01 X26.3063 Y31.4261
G01 X26.3200 Y31.4250
G01 X28.0200 Y31.4250
G01 X28.0337 Y31.4261
G01 X28.0431 Y31.4282
G01 X28.0522 Y31.4313
G01 X28.0609 Y31.4355
G01 X28.0691 Y31.4406
G01 X28.0766 Y31.4466
G01 X28.0834 Y31.4534
G01 X28.0894 Y31.4609
G01 X28.0945 Y31.4691
G01 X28.0987 Y31.4778
G01 X28.1018 Y31.4869
G01 X28.1039 Y31.4963
G01 X28.1050 Y31.5100
G01 X28.1050 Y33.2100
G01 X28.1039 Y33.2237
G01 X28.1018 Y33.2331
G01 X28.0987 Y33.2422
G01 X28.0945 Y33.2509
G01 X28.0894 Y33.2591
G01 X28.0834 Y33.2666
G01 X28.0766 Y33.2734
G01 X28.0691 Y33.2794
G01 X28.0609 Y33.2845
G01 X28.0522 Y33.2887
G01 X28.0431 Y33.2918
G01 X28.0337 Y33.2939
G01 X28.0200 Y33.2950
G01 X26.3158 Y33.2949
G01 X26.3063 Y33.2939
G01 X26.2969 Y33.2918
G01 X26.2878 Y33.2887
G01 X26.2791 Y33.2845
G01 X26.2709 Y33.2794
G01 X26.2634 Y33.2734
G01 X26.2566 Y33.2666
G01 X26.2506 Y33.2591
G01 X26.2455 Y33.2509
G01 X26.2413 Y33.2422
G01 X26.2382 Y33.2331
G01 X26.2361 Y33.2237
G01 X26.2351 Y33.2142
G01 X26.2350 Y31.5100
G00 Z2.0000
G00 X26.0789 Y33.2218
G01 F350.00
G01 Z-0.1306
G01 F400.00
G01 X26.0789 Y31.4982
G01 X26.0818 Y31.4710
G01 X26.0877 Y31.4443
G01 X26.0966 Y31.4185
G01 X26.1084 Y31.3938
G01 X26.1229 Y31.3706
G01 X26.1399 Y31.3492
G01 X26.1592 Y31.3299
G01 X26.1806 Y31.3129
G01 X26.2038 Y31.2984
G01 X26.2285 Y31.2866
G01 X26.2543 Y31.2777
G01 X26.2810 Y31.2718
G01 X26.3082 Y31.2689
G01 X28.0200 Y31.2686
G01 X28.0318 Y31.2689
G01 X28.0590 Y31.2718
G01 X28.0857 Y31.2777
G01 X28.1115 Y31.2866
G01 X28.1362 Y31.2984
G01 X28.1594 Y31.3129
G01 X28.1808 Y31.3299
G01 X28.2001 Y31.3492
G01 X28.2171 Y31.3706
G01 X28.2316 Y31.3938
G01 X28.2434 Y31.4185
G01 X28.2523 Y31.4443
G01 X28.2582 Y31.4710
G01 X28.2611 Y31.4982
G01 X28.2614 Y33.2100
G01 X28.2611 Y33.2218
G01 X28.2582 Y33.2490
G01 X28.2523 Y33.2757
G01 X28.2434 Y33.3015
G01 X28.2316 Y33.3262
G01 X28.2171 Y33.3494
G01 X28.2001 Y33.3708
G01 X28.1808 Y33.3901
G01 X28.1594 Y33.4071
G01 X28.1362 Y33.4216
G01 X28.1115 Y33.4334
G01 X28.0857 Y33.4423
G01 X28.0590 Y33.4482
G01 X28.0319 Y33.4511
G01 X26.3081 Y33.4511
G01 X26.2810 Y33.4482
G01 X26.2543 Y33.4423
G01 X26.2285 Y33.4334
G01 X26.2038 Y33.4216
G01 X26.1806 Y33.4071
G01 X26.1592 Y33.3901
G01 X26.1399 Y33.3708
G01 X26.1229 Y33.3494
G01 X26.1084 Y33.3262
G01 X26.0966 Y33.3015
G01 X26.0877 Y33.2757
G01 X26.0818 Y33.2490
G01 X26.0789 Y33.2218
G01 X26.0789 Y31.4982
G00 Z2.0000
G00 X25.7594 Y31.8302
G01 F350.00
G01 Z-0.1306
G01 F400.00
G01 X25.7862 Y31.8273
G01 X25.8082 Y31.8236
G01 X25.8439 Y31.8158
G01 X25.8789 Y31.8053
G01 X25.9000 Y31.7980
G01 X25.9222 Y31.7887
G01 X25.9222 Y32.9313
G01 X25.9000 Y32.9220
G01 X25.8789 Y32.9147
G01 X25.8439 Y32.9042
G01 X25.8082 Y32.8964
G01 X25.7862 Y32.8927
G01 X25.7594 Y32.8898
G01 X25.7998 Y32.7930
G01 X25.8078 Y32.7721
G01 X25.8146 Y32.7509
G01 X25.8409 Y32.6593
G01 X25.8465 Y32.6377
G01 X25.8509 Y32.6158
G01 X25.8668 Y32.5218
G01 X25.8700 Y32.4997
G01 X25.8718 Y32.4775
G01 X25.8772 Y32.3823
G01 X25.8778 Y32.3600
G01 X25.8772 Y32.3377
G01 X25.8718 Y32.2425
G01 X25.8700 Y32.2203
G01 X25.8668 Y32.1982
G01 X25.8509 Y32.1042
G01 X25.8465 Y32.0823
G01 X25.8409 Y32.0607
G01 X25.8146 Y31.9691
G01 X25.8078 Y31.9479
G01 X25.7998 Y31.9270
G01 X25.7594 Y31.8302
G01 X25.7862 Y31.8273
G00 Z2.0000
G00 X24.6348 Y31.4251
G01 F350.00
G01 Z-0.1306
G01 F400.00
G01 X24.7347 Y31.4309
G01 X24.8381 Y31.4484
G01 X24.9388 Y31.4775
G01 X25.0313 Y31.5156
G01 X25.1233 Y31.5659
G01 X25.1314 Y31.5710
G01 X25.2130 Y31.6290
G01 X25.2911 Y31.6989
G01 X25.3610 Y31.7770
G01 X25.4217 Y31.8625
G01 X25.4724 Y31.9543
G01 X25.5108 Y32.0467
G01 X25.5404 Y32.1473
G01 X25.5425 Y32.1566
G01 X25.5591 Y32.2553
G01 X25.5650 Y32.3600
G01 X25.5591 Y32.4647
G01 X25.5416 Y32.5681
G01 X25.5125 Y32.6688
G01 X25.4744 Y32.7613
G01 X25.4241 Y32.8533
G01 X25.4190 Y32.8614
G01 X25.3610 Y32.9430
G01 X25.2911 Y33.0211
G01 X25.2130 Y33.0910
G01 X25.1274 Y33.1517
G01 X25.0357 Y33.2024
G01 X24.9433 Y33.2408
G01 X24.8427 Y33.2704
G01 X24.8334 Y33.2725
G01 X24.7347 Y33.2891
G01 X24.6300 Y33.2950
G01 X24.5253 Y33.2891
G01 X24.4219 Y33.2716
G01 X24.3212 Y33.2425
G01 X24.2287 Y33.2044
G01 X24.2201 Y33.2002
G01 X24.1286 Y33.1490
G01 X24.0470 Y33.0910
G01 X23.9689 Y33.0211
G01 X23.8990 Y32.9430
G01 X23.8383 Y32.8574
G01 X23.7876 Y32.7657
G01 X23.7492 Y32.6733
G01 X23.7196 Y32.5727
G01 X23.7175 Y32.5634
G01 X23.7009 Y32.4647
G01 X23.6950 Y32.3600
G01 X23.7009 Y32.2553
G01 X23.7184 Y32.1519
G01 X23.7475 Y32.0512
G01 X23.7856 Y31.9587
G01 X23.7898 Y31.9501
G01 X23.8410 Y31.8586
G01 X23.8990 Y31.7770
G01 X23.9689 Y31.6989
G01 X24.0470 Y31.6290
G01 X24.1325 Y31.5683
G01 X24.2243 Y31.5176
G01 X24.3167 Y31.4792
G01 X24.4219 Y31.4484
G01 X24.5206 Y31.4315
G01 X24.5301 Y31.4305
G01 X24.6348 Y31.4251
G01 X24.7347 Y31.4309
G00 Z2.0000
G00 X24.6435 Y31.2690
G01 F350.00
G01 Z-0.1306
G01 F400.00
G01 X24.7522 Y31.2755
G01 X24.8729 Y31.2960
G01 X24.9905 Y31.3298
G01 X25.0912 Y31.3712
G01 X25.1156 Y31.3829
G01 X25.1990 Y31.4290
G01 X25.2219 Y31.4434
G01 X25.3105 Y31.5067
G01 X25.4017 Y31.5883
G01 X25.4833 Y31.6795
G01 X25.5541 Y31.7793
G01 X25.6133 Y31.8865
G01 X25.6553 Y31.9869
G01 X25.6643 Y32.0124
G01 X25.6907 Y32.1040
G01 X25.6967 Y32.1304
G01 X25.7145 Y32.2378
G01 X25.7214 Y32.3600
G01 X25.7145 Y32.4822
G01 X25.6940 Y32.6029
G01 X25.6602 Y32.7205
G01 X25.6188 Y32.8212
G01 X25.6071 Y32.8456
G01 X25.5610 Y32.9290
G01 X25.5466 Y32.9519
G01 X25.4833 Y33.0405
G01 X25.4017 Y33.1317
G01 X25.3105 Y33.2133
G01 X25.2107 Y33.2841
G01 X25.1035 Y33.3433
G01 X25.0031 Y33.3853
G01 X24.9776 Y33.3943
G01 X24.8860 Y33.4207
G01 X24.8596 Y33.4267
G01 X24.7522 Y33.4445
G01 X24.6300 Y33.4514
G01 X24.5078 Y33.4445
G01 X24.3871 Y33.4240
G01 X24.2695 Y33.3902
G01 X24.1688 Y33.3488
G01 X24.1444 Y33.3371
G01 X24.0610 Y33.2910
G01 X24.0381 Y33.2766
G01 X23.9495 Y33.2133
G01 X23.8583 Y33.1317
G01 X23.7767 Y33.0405
G01 X23.7059 Y32.9407
G01 X23.6467 Y32.8335
G01 X23.6047 Y32.7331
G01 X23.5957 Y32.7076
G01 X23.5693 Y32.6160
G01 X23.5633 Y32.5896
G01 X23.5455 Y32.4822
G01 X23.5386 Y32.3600
G01 X23.5455 Y32.2378
G01 X23.5660 Y32.1171
G01 X23.5998 Y31.9995
G01 X23.6412 Y31.8988
G01 X23.6529 Y31.8744
G01 X23.6990 Y31.7910
G01 X23.7134 Y31.7681
G01 X23.7767 Y31.6795
G01 X23.8583 Y31.5883
G01 X23.9495 Y31.5067
G01 X24.0493 Y31.4359
G01 X24.1565 Y31.3767
G01 X24.2569 Y31.3347
G01 X24.2824 Y31.3257
G01 X24.3871 Y31.2960
G01 X24.4944 Y31.2774
G01 X24.5213 Y31.2743
G01 X24.6165 Y31.2690
G01 X24.6435 Y31.2690
G01 X24.7522 Y31.2755
G00 Z2.0000
G00 X23.3119 Y32.1102
G01 F350.00
G01 Z-0.1306
G01 F400.00
G01 X23.3600 Y32.1126
G01 X23.4081 Y32.1102
G01 X23.3932 Y32.1982
G01 X23.3900 Y32.2203
G01 X23.3882 Y32.2425
G01 X23.3828 Y32.3377
G01 X23.3822 Y32.3600
G01 X23.3828 Y32.3823
G01 X23.3882 Y32.4775
G01 X23.3900 Y32.4997
G01 X23.3932 Y32.5218
G01 X23.4081 Y32.6098
G01 X23.3600 Y32.6074
G01 X23.3119 Y32.6098
G01 X23.3268 Y32.5218
G01 X23.3300 Y32.4997
G01 X23.3318 Y32.4775
G01 X23.3372 Y32.3823
G01 X23.3378 Y32.3600
G01 X23.3372 Y32.3377
G01 X23.3318 Y32.2425
G01 X23.3300 Y32.2203
G01 X23.3268 Y32.1982
G01 X23.3119 Y32.1102
G01 X23.3600 Y32.1126
G00 Z2.0000
G00 X22.0948 Y31.4251
G01 F350.00
G01 Z-0.1306
G01 F400.00
G01 X22.1947 Y31.4309
G01 X22.2981 Y31.4484
G01 X22.3988 Y31.4775
G01 X22.4913 Y31.5156
G01 X22.5833 Y31.5659
G01 X22.5914 Y31.5710
G01 X22.6730 Y31.6290
G01 X22.7511 Y31.6989
G01 X22.8210 Y31.7770
G01 X22.8817 Y31.8625
G01 X22.9324 Y31.9543
G01 X22.9708 Y32.0467
G01 X23.0004 Y32.1473
G01 X23.0025 Y32.1566
G01 X23.0191 Y32.2553
G01 X23.0250 Y32.3600
G01 X23.0191 Y32.4647
G01 X23.0016 Y32.5681
G01 X22.9725 Y32.6688
G01 X22.9344 Y32.7613
G01 X22.8841 Y32.8533
G01 X22.8790 Y32.8614
G01 X22.8210 Y32.9430
G01 X22.7511 Y33.0211
G01 X22.6730 Y33.0910
G01 X22.5874 Y33.1517
G01 X22.4957 Y33.2024
G01 X22.4033 Y33.2408
G01 X22.3027 Y33.2704
G01 X22.2934 Y33.2725
G01 X22.1947 Y33.2891
G01 X22.0900 Y33.2950
G01 X21.9853 Y33.2891
G01 X21.8819 Y33.2716
G01 X21.7812 Y33.2425
G01 X21.6887 Y33.2044
G01 X21.6801 Y33.2002
G01 X21.5886 Y33.1490
G01 X21.5070 Y33.0910
G01 X21.4289 Y33.0211
G01 X21.3590 Y32.9430
G01 X21.2983 Y32.8574
G01 X21.2476 Y32.7657
G01 X21.2092 Y32.6733
G01 X21.1796 Y32.5727
G01 X21.1775 Y32.5634
G01 X21.1609 Y32.4647
G01 X21.1550 Y32.3600
G01 X21.1609 Y32.2553
G01 X21.1784 Y32.1519
G01 X21.2075 Y32.0512
G01 X21.2456 Y31.9587
G01 X21.2498 Y31.9501
G01 X21.3010 Y31.8586
G01 X21.3590 Y31.7770
G01 X21.4289 Y31.6989
G01 X21.5070 Y31.6290
G01 X21.5925 Y31.5683
G01 X21.6843 Y31.5176
G01 X21.7767 Y31.4792
G01 X21.8819 Y31.4484
G01 X21.9806 Y31.4315
G01 X21.9901 Y31.4305
G01 X22.0948 Y31.4251
G01 X22.1947 Y31.4309
G00 Z2.0000
G00 X22.1035 Y31.2690
G01 F350.00
G01 Z-0.1306
G01 F400.00
G01 X22.2122 Y31.2755
G01 X22.3329 Y31.2960
G01 X22.4505 Y31.3298
G01 X22.5512 Y31.3712
G01 X22.5756 Y31.3829
G01 X22.6590 Y31.4290
G01 X22.6819 Y31.4434
G01 X22.7705 Y31.5067
G01 X22.8617 Y31.5883
G01 X22.9433 Y31.6795
G01 X23.0141 Y31.7793
G01 X23.0733 Y31.8865
G01 X23.1153 Y31.9869
G01 X23.1243 Y32.0124
G01 X23.1507 Y32.1040
G01 X23.1567 Y32.1304
G01 X23.1745 Y32.2378
G01 X23.1814 Y32.3600
G01 X23.1745 Y32.4822
G01 X23.1540 Y32.6029
G01 X23.1202 Y32.7205
G01 X23.0788 Y32.8212
G01 X23.0671 Y32.8456
G01 X23.0210 Y32.9290
G01 X23.0066 Y32.9519
G01 X22.9433 Y33.0405
G01 X22.8617 Y33.1317
G01 X22.7705 Y33.2133
G01 X22.6707 Y33.2841
G01 X22.5635 Y33.3433
G01 X22.4631 Y33.3853
G01 X22.4376 Y33.3943
G01 X22.3460 Y33.4207
G01 X22.3196 Y33.4267
G01 X22.2122 Y33.4445
G01 X22.0900 Y33.4514
G01 X21.9678 Y33.4445
G01 X21.8471 Y33.4240
G01 X21.7295 Y33.3902
G01 X21.6288 Y33.3488
G01 X21.6044 Y33.3371
G01 X21.5210 Y33.2910
G01 X21.4981 Y33.2766
G01 X21.4095 Y33.2133
G01 X21.3183 Y33.1317
G01 X21.2367 Y33.0405
G01 X21.1659 Y32.9407
G01 X21.1067 Y32.8335
G01 X21.0647 Y32.7331
G01 X21.0557 Y32.7076
G01 X21.0293 Y32.6160
G01 X21.0233 Y32.5896
G01 X21.0055 Y32.4822
G01 X20.9986 Y32.3600
G01 X21.0055 Y32.2378
G01 X21.0260 Y32.1171
G01 X21.0598 Y31.9995
G01 X21.1012 Y31.8988
G01 X21.1129 Y31.8744
G01 X21.1590 Y31.7910
G01 X21.1734 Y31.7681
G01 X21.2367 Y31.6795
G01 X21.3183 Y31.5883
G01 X21.4095 Y31.5067
G01 X21.5093 Y31.4359
G01 X21.6165 Y31.3767
G01 X21.7169 Y31.3347
G01 X21.7424 Y31.3257
G01 X21.8471 Y31.2960
G01 X21.9544 Y31.2774
G01 X21.9813 Y31.2743
G01 X22.0765 Y31.2690
G01 X22.1035 Y31.2690
G01 X22.2122 Y31.2755
G00 Z2.0000
G00 X20.7756 Y32.5877
G01 F350.00
G01 Z-0.1306
G01 F400.00
G01 X20.7900 Y32.4997
G01 X20.7918 Y32.4775
G01 X20.7972 Y32.3823
G01 X20.7978 Y32.3600
G01 X20.7972 Y32.3377
G01 X20.7918 Y32.2425
G01 X20.7900 Y32.2203
G01 X20.7756 Y32.1323
G01 X20.7960 Y32.1332
G01 X20.8181 Y32.1331
G01 X20.8543 Y32.1311
G01 X20.8648 Y32.1299
G01 X20.8500 Y32.2203
G01 X20.8482 Y32.2425
G01 X20.8428 Y32.3377
G01 X20.8422 Y32.3600
G01 X20.8428 Y32.3823
G01 X20.8482 Y32.4775
G01 X20.8500 Y32.4997
G01 X20.8648 Y32.5901
G01 X20.8543 Y32.5889
G01 X20.8181 Y32.5869
G01 X20.7960 Y32.5868
G01 X20.7756 Y32.5877
G01 X20.7900 Y32.4997
G00 Z2.0000
G00 X20.3389 Y33.1131
G01 F350.00
G01 Z-0.1306
G01 F400.00
G01 X20.4033 Y33.0405
G01 X20.4741 Y32.9407
G01 X20.5333 Y32.8335
G01 X20.5753 Y32.7331
G01 X20.5843 Y32.7076
G01 X20.6107 Y32.6160
G01 X20.6167 Y32.5896
G01 X20.6345 Y32.4822
G01 X20.6414 Y32.3600
G01 X20.6345 Y32.2378
G01 X20.6167 Y32.1304
G01 X20.6107 Y32.1040
G01 X20.5843 Y32.0124
G01 X20.5753 Y31.9869
G01 X20.5333 Y31.8865
G01 X20.4741 Y31.7793
G01 X20.4033 Y31.6795
G01 X20.3389 Y31.6069
G01 X20.4428 Y31.7016
G01 X20.4726 Y31.7651
G01 X20.4854 Y31.7895
G01 X20.4994 Y31.8124
G01 X20.5154 Y31.8348
G01 X20.5332 Y31.8558
G01 X20.5520 Y31.8751
G01 X20.5725 Y31.8934
G01 X20.6056 Y31.9176
G01 X20.6412 Y31.9379
G01 X20.6663 Y31.9492
G01 X20.6915 Y31.9585
G01 X20.7179 Y31.9662
G01 X20.7310 Y31.9691
G01 X20.7582 Y31.9738
G01 X20.7990 Y31.9769
G01 X20.8400 Y31.9754
G01 X20.8805 Y31.9694
G01 X20.9072 Y31.9627
G01 X20.9327 Y31.9544
G01 X20.9583 Y31.9441
G01 X20.9829 Y31.9317
G01 X21.0059 Y31.9179
G01 X21.0286 Y31.9022
G01 X21.0498 Y31.8847
G01 X21.0693 Y31.8662
G01 X21.0879 Y31.8459
G01 X21.1087 Y31.8187
G01 X21.2850 Y31.5550
G01 X21.6543 Y31.3082
G01 X21.9800 Y31.2435
G01 X22.2000 Y31.2435
G01 X22.5257 Y31.3082
G01 X22.8950 Y31.5550
G01 X23.0612 Y31.8032
G01 X23.0777 Y31.8246
G01 X23.0959 Y31.8446
G01 X23.1150 Y31.8628
G01 X23.1357 Y31.8801
G01 X23.1689 Y31.9028
G01 X23.1925 Y31.9158
G01 X23.2164 Y31.9269
G01 X23.2416 Y31.9367
G01 X23.2802 Y31.9475
G01 X23.3068 Y31.9522
G01 X23.3330 Y31.9551
G01 X23.3600 Y31.9562
G01 X23.3870 Y31.9551
G01 X23.4132 Y31.9522
G01 X23.4398 Y31.9475
G01 X23.4784 Y31.9367
G01 X23.5036 Y31.9269
G01 X23.5275 Y31.9158
G01 X23.5511 Y31.9028
G01 X23.5843 Y31.8801
G01 X23.6050 Y31.8628
G01 X23.6241 Y31.8446
G01 X23.6423 Y31.8246
G01 X23.6588 Y31.8032
G01 X23.8250 Y31.5550
G01 X24.1943 Y31.3082
G01 X24.5200 Y31.2435
G01 X24.7400 Y31.2435
G01 X25.0657 Y31.3082
G01 X25.4484 Y31.5640
G01 X25.4698 Y31.5844
G01 X25.4913 Y31.6020
G01 X25.5256 Y31.6250
G01 X25.5623 Y31.6440
G01 X25.6009 Y31.6587
G01 X25.6409 Y31.6690
G01 X25.6684 Y31.6733
G01 X25.6954 Y31.6755
G01 X25.7232 Y31.6759
G01 X25.7509 Y31.6740
G01 X25.7777 Y31.6702
G01 X25.8049 Y31.6644
G01 X25.8442 Y31.6519
G01 X25.8697 Y31.6409
G01 X25.8938 Y31.6284
G01 X25.9175 Y31.6140
G01 X25.9505 Y31.5891
G01 X25.9710 Y31.5703
G01 X25.9896 Y31.5507
G01 X26.0072 Y31.5292
