(G-CODE GENERATED BY FLATCAM v8.905 - www.flatcam.org - Version Date: 2019/01/29)

(Name: Rectifier-F.Cu.gbr_iso_cnc)
(Type: G-code from Geometry)
(Units: MM)

(Created on Sunday, 10 February 2019 at 20:53)

(TOOL DIAMETER: 0.17 mm)
(Feedrate: 400.0 mm/min)
(Feedrate_Z: 350.0 mm/min)
(Feedrate rapids 800.0 mm/min)

(Z_Cut: -0.1306 mm)
(Z_Move: 2.0 mm)
(Z Toolchange: 50.0 mm)
(X,Y Toolchange: 0.0000, 0.0000 mm)
(Z Start: 1.0 mm)
(Z End: 20.0 mm)
(Steps per circle: 64)
(Postprocessor Geometry: default)
(Spindle Speed: 18000 RPM)
G94 ( Millimeters per minute feed rate. )
G21 ( Units == Millimeters. )
G90 ( Absolute coordinates. )
G64 P0.01000 ( set maximum deviation from commanded toolpath )
G21
G90
G94
G21
G90
G94

G01 F400.00
G00 Z2.0000
G00 Z1.0000
M03 S18000
G00 X3.5300 Y1.6686
G01 F350.00
G01 Z-0.1306
G01 F400.00
G01 X5.9300 Y1.6686
G01 X5.9552 Y1.6699
G01 X5.9801 Y1.6739
G01 X6.0045 Y1.6804
G01 X6.0280 Y1.6894
G01 X6.0506 Y1.7009
G01 X6.0718 Y1.7147
G01 X6.0915 Y1.7306
G01 X6.1094 Y1.7485
G01 X6.1253 Y1.7682
G01 X6.1391 Y1.7894
G01 X6.1506 Y1.8120
G01 X6.1596 Y1.8355
G01 X6.1661 Y1.8599
G01 X6.1701 Y1.8848
G01 X6.1714 Y1.9100
G01 X6.1714 Y4.3100
G01 X6.1701 Y4.3352
G01 X6.1661 Y4.3601
G01 X6.1596 Y4.3845
G01 X6.1506 Y4.4080
G01 X6.1391 Y4.4306
G01 X6.1253 Y4.4518
G01 X6.1094 Y4.4715
G01 X6.0915 Y4.4894
G01 X6.0718 Y4.5053
G01 X6.0506 Y4.5191
G01 X6.0280 Y4.5306
G01 X6.0045 Y4.5396
G01 X5.9801 Y4.5461
G01 X5.9552 Y4.5501
G01 X5.9300 Y4.5514
G01 X3.5300 Y4.5514
G01 X3.5048 Y4.5501
G01 X3.4799 Y4.5461
G01 X3.4555 Y4.5396
G01 X3.4320 Y4.5306
G01 X3.4094 Y4.5191
G01 X3.3882 Y4.5053
G01 X3.3685 Y4.4894
G01 X3.3506 Y4.4715
G01 X3.3347 Y4.4518
G01 X3.3209 Y4.4306
G01 X3.3094 Y4.4080
G01 X3.3004 Y4.3845
G01 X3.2939 Y4.3601
G01 X3.2899 Y4.3352
G01 X3.2886 Y4.3100
G01 X3.2886 Y1.9100
G01 X3.2899 Y1.8848
G01 X3.2939 Y1.8599
G01 X3.3004 Y1.8355
G01 X3.3094 Y1.8120
G01 X3.3209 Y1.7894
G01 X3.3347 Y1.7682
G01 X3.3506 Y1.7485
G01 X3.3685 Y1.7306
G01 X3.3882 Y1.7147
G01 X3.4094 Y1.7009
G01 X3.4320 Y1.6894
G01 X3.4555 Y1.6804
G01 X3.4799 Y1.6739
G01 X3.5048 Y1.6699
G01 X3.5300 Y1.6686
G01 X5.9300 Y1.6686
G00 Z2.0000
G00 X3.5300 Y1.8250
G01 F350.00
G01 Z-0.1306
G01 F400.00
G01 X5.9300 Y1.8250
G01 X5.9476 Y1.8269
G01 X5.9645 Y1.8323
G01 X5.9799 Y1.8412
G01 X5.9932 Y1.8531
G01 X6.0036 Y1.8675
G01 X6.0077 Y1.8755
G01 X6.0131 Y1.8924
G01 X6.0150 Y1.9100
G01 X6.0150 Y4.3100
G01 X6.0131 Y4.3276
G01 X6.0077 Y4.3445
G01 X5.9988 Y4.3599
G01 X5.9869 Y4.3732
G01 X5.9725 Y4.3836
G01 X5.9645 Y4.3877
G01 X5.9476 Y4.3931
G01 X5.9300 Y4.3950
G01 X3.5300 Y4.3950
G01 X3.5124 Y4.3931
G01 X3.4955 Y4.3877
G01 X3.4801 Y4.3788
G01 X3.4668 Y4.3669
G01 X3.4564 Y4.3525
G01 X3.4523 Y4.3445
G01 X3.4469 Y4.3276
G01 X3.4450 Y4.3100
G01 X3.4450 Y1.9100
G01 X3.4469 Y1.8924
G01 X3.4523 Y1.8755
G01 X3.4564 Y1.8675
G01 X3.4668 Y1.8531
G01 X3.4801 Y1.8412
G01 X3.4955 Y1.8323
G01 X3.5124 Y1.8269
G01 X3.5300 Y1.8250
G01 X5.9300 Y1.8250
G00 Z2.0000
G00 X4.0076 Y4.6015
G01 F350.00
G01 Z-0.1306
G01 F400.00
G01 X3.9815 Y4.5954
G01 X3.9676 Y4.5931
G01 X3.9494 Y4.5908
G01 X3.9268 Y4.5893
G01 X3.5663 Y4.5890
G01 X3.4260 Y4.5611
G01 X3.3378 Y4.5022
G01 X3.2789 Y4.4140
G01 X3.2510 Y4.2737
G01 X3.2510 Y1.9463
G01 X3.2789 Y1.8060
G01 X3.3378 Y1.7178
G01 X3.4260 Y1.6589
G01 X3.5663 Y1.6310
G01 X5.8937 Y1.6310
G01 X6.0340 Y1.6589
G01 X6.1222 Y1.7178
G01 X6.1811 Y1.8060
G01 X6.2090 Y1.9463
G01 X6.2090 Y4.2737
G01 X6.1811 Y4.4140
G01 X6.1222 Y4.5022
G01 X6.0340 Y4.5611
G01 X5.8937 Y4.5890
G01 X5.5608 Y4.5890
G01 X5.5244 Y4.5908
G01 X5.4907 Y4.5958
G01 X5.4684 Y4.6008
G01 X5.4355 Y4.6109
G01 X5.4104 Y4.6212
G01 X5.3967 Y4.6276
G01 X5.3678 Y4.6437
G01 X5.3498 Y4.6556
G01 X5.3320 Y4.6687
G01 X5.3059 Y4.6915
G01 X5.2891 Y4.7087
G01 X5.2695 Y4.7319
G01 X5.2448 Y4.7679
G01 X5.2313 Y4.7930
G01 X5.2209 Y4.8153
G01 X5.2130 Y4.8361
G01 X5.2025 Y4.8721
G01 X5.1987 Y4.8895
G01 X5.1951 Y4.9136
G01 X5.1929 Y4.9411
G01 X5.1924 Y4.9616
G01 X5.1934 Y4.9833
G01 X5.1976 Y5.0193
G01 X5.2052 Y5.0538
G01 X5.2089 Y5.0660
G01 X5.2158 Y5.0866
G01 X5.2236 Y5.1056
G01 X5.2297 Y5.1188
G01 X5.2427 Y5.1431
G01 X5.2503 Y5.1555
G01 X5.2660 Y5.1783
G01 X5.2750 Y5.1897
G01 X5.2932 Y5.2105
G01 X5.3048 Y5.2223
G01 X5.3239 Y5.2394
G01 X5.3352 Y5.2486
G01 X5.3681 Y5.2713
G01 X5.3363 Y5.3030
G01 X5.2160 Y5.2532
G01 X5.1932 Y5.2454
G01 X5.0605 Y5.2072
G01 X5.0375 Y5.2021
G01 X4.9048 Y5.1796
G01 X4.8862 Y5.1771
G01 X4.7300 Y5.1686
G01 X4.5738 Y5.1771
G01 X4.5552 Y5.1796
G01 X4.4225 Y5.2021
G01 X4.3995 Y5.2072
G01 X4.2668 Y5.2454
G01 X4.2440 Y5.2532
G01 X4.1237 Y5.3030
G01 X4.0973 Y5.2766
G01 X4.1176 Y5.2641
G01 X4.1395 Y5.2482
G01 X4.1540 Y5.2365
G01 X4.1760 Y5.2159
G01 X4.1981 Y5.1912
G01 X4.2143 Y5.1699
G01 X4.2334 Y5.1400
G01 X4.2487 Y5.1102
G01 X4.2589 Y5.0852
G01 X4.2673 Y5.0598
G01 X4.2709 Y5.0462
G01 X4.2753 Y5.0267
G01 X4.2803 Y4.9914
G01 X4.2819 Y4.9555
G01 X4.2813 Y4.9384
G01 X4.2803 Y4.9243
G01 X4.2770 Y4.8982
G01 X4.2743 Y4.8838
G01 X4.2680 Y4.8578
G01 X4.2640 Y4.8443
G01 X4.2570 Y4.8244
G01 X4.2432 Y4.7931
G01 X4.2273 Y4.7646
G01 X4.2159 Y4.7473
G01 X4.2076 Y4.7358
G01 X4.1907 Y4.7150
G01 X4.1733 Y4.6962
G01 X4.1516 Y4.6764
G01 X4.1402 Y4.6670
G01 X4.1144 Y4.6486
G01 X4.0838 Y4.6309
G01 X4.0596 Y4.6193
G01 X4.0465 Y4.6140
G01 X4.0212 Y4.6052
G01 X4.0076 Y4.6015
G01 X3.9815 Y4.5954
G00 Z2.0000
G00 X3.9647 Y4.7518
G01 F350.00
G01 Z-0.1306
G01 F400.00
G01 X3.9352 Y4.7465
G01 X3.9134 Y4.7454
G01 X3.5509 Y4.7454
G01 X3.3650 Y4.7084
G01 X3.2251 Y4.6149
G01 X3.1316 Y4.4750
G01 X3.0946 Y4.2891
G01 X3.0946 Y1.9309
G01 X3.1316 Y1.7450
G01 X3.2251 Y1.6051
G01 X3.3650 Y1.5116
G01 X3.5509 Y1.4746
G01 X5.9091 Y1.4746
G01 X6.0950 Y1.5116
G01 X6.2349 Y1.6051
G01 X6.3284 Y1.7450
G01 X6.3654 Y1.9309
G01 X6.3654 Y4.2891
G01 X6.3284 Y4.4750
G01 X6.2349 Y4.6149
G01 X6.0950 Y4.7084
G01 X5.9091 Y4.7454
G01 X5.5608 Y4.7454
G01 X5.5318 Y4.7475
G01 X5.5096 Y4.7517
G01 X5.4940 Y4.7563
G01 X5.4666 Y4.7675
G01 X5.4419 Y4.7820
G01 X5.4280 Y4.7921
G01 X5.4119 Y4.8066
G01 X5.3929 Y4.8279
G01 X5.3765 Y4.8527
G01 X5.3662 Y4.8734
G01 X5.3600 Y4.8895
G01 X5.3526 Y4.9174
G01 X5.3495 Y4.9400
G01 X5.3492 Y4.9692
G01 X5.3515 Y4.9913
G01 X5.3549 Y5.0076
G01 X5.3628 Y5.0332
G01 X5.3759 Y5.0611
G01 X5.3893 Y5.0820
G01 X5.4047 Y5.1008
G01 X5.4154 Y5.1117
G01 X5.4334 Y5.1269
G01 X5.4554 Y5.1414
G01 X5.4752 Y5.1514
G01 X5.5635 Y5.1881
G01 X5.5961 Y5.2644
G01 X5.3654 Y5.4951
G01 X5.2832 Y5.4503
G01 X5.1579 Y5.3984
G01 X5.0194 Y5.3581
G01 X4.8721 Y5.3329
G01 X4.7300 Y5.3250
G01 X4.5879 Y5.3329
G01 X4.4406 Y5.3581
G01 X4.3021 Y5.3984
G01 X4.1768 Y5.4503
G01 X4.0946 Y5.4951
G01 X3.8639 Y5.2644
G01 X3.8951 Y5.1914
G01 X3.9902 Y5.1551
G01 X4.0096 Y5.1465
G01 X4.0346 Y5.1314
G01 X4.0510 Y5.1188
G01 X4.0654 Y5.1053
G01 X4.0849 Y5.0822
G01 X4.0967 Y5.0641
G01 X4.1042 Y5.0499
G01 X4.1133 Y5.0282
G01 X4.1214 Y4.9987
G01 X4.1246 Y4.9773
G01 X4.1254 Y4.9589
G01 X4.1253 Y4.9495
G01 X4.1231 Y4.9260
G01 X4.1183 Y4.9030
G01 X4.1118 Y4.8825
G01 X4.1033 Y4.8630
G01 X4.0932 Y4.8450
G01 X4.0809 Y4.8275
G01 X4.0655 Y4.8097
G01 X4.0482 Y4.7938
G01 X4.0408 Y4.7880
G01 X4.0276 Y4.7788
G01 X4.0061 Y4.7667
G01 X3.9872 Y4.7587
G01 X3.9647 Y4.7518
G01 X3.9352 Y4.7465
G00 Z2.0000
G00 X4.3749 Y4.7078
G01 F350.00
G01 Z-0.1306
G01 F400.00
G01 X5.0993 Y4.7078
G01 X5.0927 Y4.7204
G01 X5.0757 Y4.7573
G01 X5.0660 Y4.7826
G01 X5.0548 Y4.8188
G01 X5.0448 Y4.8615
G01 X5.0378 Y4.9140
G01 X5.0360 Y4.9616
G01 X5.0376 Y4.9973
G01 X5.0434 Y5.0445
G01 X4.9310 Y5.0254
G01 X4.9004 Y5.0214
G01 X4.7523 Y5.0128
G01 X4.7300 Y5.0122
G01 X4.7077 Y5.0128
G01 X4.5596 Y5.0214
G01 X4.5290 Y5.0254
G01 X4.4313 Y5.0420
G01 X4.4361 Y5.0056
G01 X4.4383 Y4.9555
G01 X4.4363 Y4.9132
G01 X4.4309 Y4.8703
G01 X4.4282 Y4.8555
G01 X4.4178 Y4.8126
G01 X4.4137 Y4.7991
G01 X4.3986 Y4.7576
G01 X4.3831 Y4.7232
G01 X4.3749 Y4.7078
G01 X5.0993 Y4.7078
G00 Z2.0000
G00 X3.3949 Y5.9756
G01 F350.00
G01 Z-0.1306
G01 F400.00
G01 X3.4230 Y6.0037
G01 X3.3732 Y6.1240
G01 X3.3654 Y6.1468
G01 X3.3272 Y6.2795
G01 X3.3221 Y6.3025
G01 X3.2996 Y6.4352
G01 X3.2971 Y6.4538
G01 X3.2886 Y6.6100
G01 X3.2971 Y6.7662
G01 X3.2996 Y6.7848
G01 X3.3221 Y6.9175
G01 X3.3272 Y6.9405
G01 X3.3654 Y7.0732
G01 X3.3732 Y7.0960
G01 X3.4230 Y7.2163
G01 X3.4003 Y7.2390
G01 X3.2557 Y6.8596
G01 X3.2726 Y6.2709
G01 X3.3949 Y5.9756
G01 X3.4230 Y6.0037
G00 Z2.0000
G00 X3.5704 Y7.1632
G01 F350.00
G01 Z-0.1306
G01 F400.00
G01 X3.5744 Y7.1718
G01 X3.6151 Y7.2454
G01 X3.3844 Y7.4761
G01 X3.3114 Y7.4449
G01 X3.0985 Y6.8862
G01 X3.1171 Y6.2376
G01 X3.3081 Y5.7765
G01 X3.3844 Y5.7439
G01 X3.6151 Y5.9746
G01 X3.5703 Y6.0568
G01 X3.5184 Y6.1821
G01 X3.4781 Y6.3206
G01 X3.4529 Y6.4679
G01 X3.4451 Y6.6052
G01 X3.4451 Y6.6148
G01 X3.4529 Y6.7521
G01 X3.4781 Y6.8994
G01 X3.5184 Y7.0379
G01 X3.5704 Y7.1632
G01 X3.5744 Y7.1718
G00 Z2.0000
G00 X4.0946 Y7.7249
G01 F350.00
G01 Z-0.1306
G01 F400.00
G01 X4.1768 Y7.7697
G01 X4.3021 Y7.8216
G01 X4.4406 Y7.8619
G01 X4.5879 Y7.8871
G01 X4.7300 Y7.8950
G01 X4.8721 Y7.8871
G01 X5.0194 Y7.8619
G01 X5.1579 Y7.8216
G01 X5.2832 Y7.7697
G01 X5.3654 Y7.7249
G01 X5.5961 Y7.9556
G01 X5.5649 Y8.0286
G01 X5.0062 Y8.2415
G01 X4.3576 Y8.2229
G01 X3.8965 Y8.0319
G01 X3.8639 Y7.9556
G01 X4.0946 Y7.7249
G01 X4.1768 Y7.7697
G00 Z2.0000
G00 X4.0956 Y7.9451
G01 F350.00
G01 Z-0.1306
G01 F400.00
G01 X4.1237 Y7.9170
G01 X4.2440 Y7.9668
G01 X4.2668 Y7.9746
G01 X4.3995 Y8.0128
G01 X4.4225 Y8.0179
G01 X4.5552 Y8.0404
G01 X4.5738 Y8.0429
G01 X4.7300 Y8.0514
G01 X4.8862 Y8.0429
G01 X4.9048 Y8.0404
G01 X5.0375 Y8.0179
G01 X5.0605 Y8.0128
G01 X5.1932 Y7.9746
G01 X5.2160 Y7.9668
G01 X5.3363 Y7.9170
G01 X5.3590 Y7.9397
G01 X4.9796 Y8.0843
G01 X4.3909 Y8.0674
G01 X4.0956 Y7.9451
G01 X4.1237 Y7.9170
G00 Z2.0000
G00 X5.8449 Y7.2454
G01 F350.00
G01 Z-0.1306
G01 F400.00
G01 X5.8897 Y7.1632
G01 X5.9416 Y7.0379
G01 X5.9819 Y6.8994
G01 X6.0071 Y6.7521
G01 X6.0150 Y6.6100
G01 X6.0071 Y6.4679
G01 X5.9819 Y6.3206
G01 X5.9416 Y6.1821
G01 X5.8897 Y6.0568
G01 X5.8449 Y5.9746
G01 X6.0756 Y5.7439
G01 X6.1486 Y5.7751
G01 X6.3615 Y6.3338
G01 X6.3429 Y6.9824
G01 X6.1519 Y7.4435
G01 X6.0756 Y7.4761
G01 X5.8449 Y7.2454
G01 X5.8897 Y7.1632
G00 Z2.0000
G00 X6.0370 Y7.2163
G01 F350.00
G01 Z-0.1306
G01 F400.00
G01 X6.0868 Y7.0960
G01 X6.0946 Y7.0732
G01 X6.1328 Y6.9405
G01 X6.1379 Y6.9175
G01 X6.1604 Y6.7848
G01 X6.1629 Y6.7662
G01 X6.1714 Y6.6100
G01 X6.1629 Y6.4538
G01 X6.1604 Y6.4352
G01 X6.1379 Y6.3025
G01 X6.1328 Y6.2795
G01 X6.0946 Y6.1468
G01 X6.0868 Y6.1240
G01 X6.0370 Y6.0037
G01 X6.0597 Y5.9810
G01 X6.2043 Y6.3604
G01 X6.1874 Y6.9491
G01 X6.0651 Y7.2444
G01 X6.0370 Y7.2163
G01 X6.0868 Y7.0960
G00 Z2.0000
G00 X10.1156 Y6.7515
G01 F350.00
G01 Z-0.1306
G01 F400.00
G01 X10.1272 Y6.7760
G01 X10.1774 Y6.8669
G01 X10.1430 Y6.9013
G01 X9.9076 Y6.3054
G01 X9.9199 Y5.5598
G01 X10.1408 Y5.0265
G01 X10.1774 Y5.0631
G01 X10.1272 Y5.1540
G01 X10.1154 Y5.1784
G01 X10.0457 Y5.3469
G01 X10.0378 Y5.3697
G01 X9.9872 Y5.5454
G01 X9.9821 Y5.5685
G01 X9.9521 Y5.7454
G01 X9.9497 Y5.7640
G01 X9.9386 Y5.9650
G01 X9.9497 Y6.1660
G01 X9.9521 Y6.1846
G01 X9.9821 Y6.3615
G01 X9.9872 Y6.3845
G01 X10.0378 Y6.5603
G01 X10.0457 Y6.5831
G01 X10.1156 Y6.7515
G01 X10.1272 Y6.7760
G00 Z2.0000
G00 X10.2600 Y6.6917
G01 F350.00
G01 Z-0.1306
G01 F400.00
G01 X10.2641 Y6.7003
G01 X10.3508 Y6.8574
G01 X10.3742 Y6.8913
G01 X10.1540 Y7.1115
G01 X10.0329 Y7.0482
G01 X9.7507 Y6.3340
G01 X9.7640 Y5.5275
G01 X10.0311 Y4.8827
G01 X10.1540 Y4.8185
G01 X10.3742 Y5.0387
G01 X10.3524 Y5.0700
G01 X10.2641 Y5.2297
G01 X10.2599 Y5.2383
G01 X10.1909 Y5.4050
G01 X10.1381 Y5.5866
G01 X10.1063 Y5.7716
G01 X10.1052 Y5.7811
G01 X10.0951 Y5.9602
G01 X10.0951 Y5.9698
G01 X10.1054 Y6.1518
G01 X10.1363 Y6.3353
G01 X10.1384 Y6.3446
G01 X10.1909 Y6.5250
G01 X10.2600 Y6.6917
G01 X10.2641 Y6.7003
G00 Z2.0000
G00 X10.8537 Y7.3708
G01 F350.00
G01 Z-0.1306
G01 F400.00
G01 X10.8850 Y7.3926
G01 X11.0447 Y7.4809
G01 X11.0533 Y7.4851
G01 X11.2190 Y7.5537
G01 X11.2280 Y7.5569
G01 X11.4016 Y7.6069
G01 X11.5866 Y7.6387
G01 X11.5961 Y7.6398
G01 X11.7800 Y7.6500
G01 X11.9639 Y7.6398
G01 X11.9734 Y7.6387
G01 X12.1584 Y7.6069
G01 X12.3320 Y7.5569
G01 X12.3410 Y7.5537
G01 X12.5067 Y7.4851
G01 X12.5153 Y7.4809
G01 X12.6750 Y7.3926
G01 X12.7063 Y7.3708
G01 X12.9265 Y7.5910
G01 X12.8632 Y7.7121
G01 X12.1490 Y7.9943
G01 X11.3425 Y7.9810
G01 X10.6977 Y7.7139
G01 X10.6335 Y7.5910
G01 X10.8537 Y7.3708
G01 X10.8850 Y7.3926
G00 Z2.0000
G00 X10.8415 Y7.6042
G01 F350.00
G01 Z-0.1306
G01 F400.00
G01 X10.8781 Y7.5676
G01 X10.9690 Y7.6178
G01 X10.9934 Y7.6296
G01 X11.1619 Y7.6993
G01 X11.1847 Y7.7072
G01 X11.3605 Y7.7578
G01 X11.3835 Y7.7629
G01 X11.5604 Y7.7929
G01 X11.5790 Y7.7953
G01 X11.7800 Y7.8064
G01 X11.9810 Y7.7953
G01 X11.9996 Y7.7929
G01 X12.1765 Y7.7629
G01 X12.2029 Y7.7569
G01 X12.3753 Y7.7072
G01 X12.3981 Y7.6993
G01 X12.5666 Y7.6296
G01 X12.5910 Y7.6178
G01 X12.6819 Y7.5676
G01 X12.7163 Y7.6020
G01 X12.1204 Y7.8374
G01 X11.3748 Y7.8251
G01 X10.8415 Y7.6042
G01 X10.8781 Y7.5676
G00 Z2.0000
G00 X13.1858 Y6.8913
G01 F350.00
G01 Z-0.1306
G01 F400.00
G01 X13.2076 Y6.8600
G01 X13.2959 Y6.7003
G01 X13.3001 Y6.6917
G01 X13.3687 Y6.5260
G01 X13.3719 Y6.5170
G01 X13.4219 Y6.3434
G01 X13.4537 Y6.1584
G01 X13.4548 Y6.1489
G01 X13.4650 Y5.9650
G01 X13.4548 Y5.7811
G01 X13.4537 Y5.7716
G01 X13.4219 Y5.5866
G01 X13.3719 Y5.4130
G01 X13.3687 Y5.4040
G01 X13.3001 Y5.2383
G01 X13.2959 Y5.2297
G01 X13.2076 Y5.0700
G01 X13.1858 Y5.0387
G01 X13.4060 Y4.8185
G01 X13.5271 Y4.8818
G01 X13.8093 Y5.5960
G01 X13.7960 Y6.4025
G01 X13.5289 Y7.0473
G01 X13.4060 Y7.1115
G01 X13.1858 Y6.8913
G01 X13.2076 Y6.8600
G00 Z2.0000
G00 X13.3826 Y6.8669
G01 F350.00
G01 Z-0.1306
G01 F400.00
G01 X13.4328 Y6.7760
G01 X13.4446 Y6.7516
G01 X13.5143 Y6.5831
G01 X13.5222 Y6.5603
G01 X13.5728 Y6.3845
G01 X13.5779 Y6.3615
G01 X13.6079 Y6.1846
G01 X13.6103 Y6.1660
G01 X13.6214 Y5.9650
G01 X13.6103 Y5.7640
G01 X13.6079 Y5.7454
G01 X13.5779 Y5.5685
G01 X13.5719 Y5.5421
G01 X13.5222 Y5.3697
G01 X13.5143 Y5.3469
G01 X13.4446 Y5.1784
G01 X13.4328 Y5.1540
G01 X13.3826 Y5.0631
G01 X13.4170 Y5.0287
G01 X13.6524 Y5.6246
G01 X13.6401 Y6.3702
G01 X13.4192 Y6.9035
G01 X13.3826 Y6.8669
G01 X13.4328 Y6.7760
G00 Z2.0000
G00 X10.8537 Y4.5592
G01 F350.00
G01 Z-0.1306
G01 F400.00
G01 X10.6335 Y4.3390
G01 X10.6968 Y4.2179
G01 X11.4110 Y3.9357
G01 X12.2175 Y3.9490
G01 X12.8623 Y4.2161
G01 X12.9265 Y4.3390
G01 X12.7063 Y4.5592
G01 X12.6750 Y4.5374
G01 X12.5153 Y4.4491
G01 X12.5067 Y4.4449
G01 X12.3410 Y4.3763
G01 X12.3320 Y4.3731
G01 X12.1584 Y4.3231
G01 X11.9734 Y4.2913
G01 X11.9639 Y4.2902
G01 X11.7800 Y4.2800
G01 X11.5961 Y4.2902
G01 X11.5866 Y4.2913
G01 X11.4016 Y4.3231
G01 X11.2280 Y4.3731
G01 X11.2190 Y4.3763
G01 X11.0533 Y4.4449
G01 X11.0447 Y4.4491
G01 X10.8850 Y4.5374
G01 X10.8537 Y4.5592
G01 X10.6335 Y4.3390
G00 Z2.0000
G00 X10.8781 Y4.3624
G01 F350.00
G01 Z-0.1306
G01 F400.00
G01 X10.8437 Y4.3280
G01 X11.4396 Y4.0926
G01 X12.1852 Y4.1049
G01 X12.7185 Y4.3258
G01 X12.6819 Y4.3624
G01 X12.5910 Y4.3122
G01 X12.5666 Y4.3004
G01 X12.3981 Y4.2307
G01 X12.3753 Y4.2228
G01 X12.1996 Y4.1722
G01 X12.1765 Y4.1671
G01 X11.9996 Y4.1371
G01 X11.9810 Y4.1347
G01 X11.7800 Y4.1236
G01 X11.5790 Y4.1347
G01 X11.5604 Y4.1371
G01 X11.3835 Y4.1671
G01 X11.3604 Y4.1722
G01 X11.1847 Y4.2228
G01 X11.1619 Y4.2307
G01 X10.9934 Y4.3004
G01 X10.9690 Y4.3122
G01 X10.8781 Y4.3624
G01 X10.8437 Y4.3280
G00 Z2.0000
G00 X19.2135 Y5.6645
G01 F350.00
G01 Z-0.1306
G01 F400.00
G01 X19.2135 Y3.9070
G01 X19.2540 Y3.8090
G01 X19.3290 Y3.7340
G01 X19.4270 Y3.6935
G01 X20.2345 Y3.6935
G01 X20.2345 Y3.7186
G01 X19.7182 Y3.7189
G01 X19.6815 Y3.7210
G01 X19.6458 Y3.7260
G01 X19.6289 Y3.7292
G01 X19.5881 Y3.7395
G01 X19.5530 Y3.7517
G01 X19.5363 Y3.7584
G01 X19.5042 Y3.7736
G01 X19.4880 Y3.7825
G01 X19.4572 Y3.8013
G01 X19.4276 Y3.8229
G01 X19.4143 Y3.8335
G01 X19.3825 Y3.8625
G01 X19.3535 Y3.8943
G01 X19.3429 Y3.9076
G01 X19.3213 Y3.9372
G01 X19.3025 Y3.9680
G01 X19.2936 Y3.9842
G01 X19.2784 Y4.0163
G01 X19.2717 Y4.0330
G01 X19.2635 Y4.0561
G01 X19.2566 Y4.0788
G01 X19.2492 Y4.1089
G01 X19.2460 Y4.1258
G01 X19.2410 Y4.1615
G01 X19.2389 Y4.1982
G01 X19.2386 Y5.6645
G01 X19.2135 Y5.6645
G01 X19.2135 Y3.9070
G00 Z2.0000
G00 X19.3950 Y6.4991
G01 F350.00
G01 Z-0.1306
G01 F400.00
G01 X19.3950 Y8.1100
G01 X19.3966 Y8.1430
G01 X19.4018 Y8.1772
G01 X19.4093 Y8.2070
G01 X19.4214 Y8.2402
G01 X19.4366 Y8.2715
G01 X19.4514 Y8.2960
G01 X19.4685 Y8.3192
G01 X19.4931 Y8.3469
G01 X19.5161 Y8.3678
G01 X19.5440 Y8.3886
G01 X19.5758 Y8.4073
G01 X19.5998 Y8.4186
G01 X19.6288 Y8.4293
G01 X19.6628 Y8.4382
G01 X19.6970 Y8.4434
G01 X19.7300 Y8.4450
G01 X20.3909 Y8.4450
G01 X20.3909 Y8.7484
G01 X20.3564 Y8.7829
G01 X19.3959 Y8.7829
G01 X19.2404 Y8.7185
G01 X19.1215 Y8.5996
G01 X19.0571 Y8.4441
G01 X19.0571 Y6.5336
G01 X19.0916 Y6.4991
G01 X19.3950 Y6.4991
G01 X19.3950 Y8.1100
G00 Z2.0000
G00 X19.2135 Y6.6555
G01 F350.00
G01 Z-0.1306
G01 F400.00
G01 X19.2386 Y6.6555
G01 X19.2389 Y8.1218
G01 X19.2410 Y8.1585
G01 X19.2460 Y8.1942
G01 X19.2492 Y8.2111
G01 X19.2566 Y8.2412
G01 X19.2635 Y8.2639
G01 X19.2717 Y8.2870
G01 X19.2784 Y8.3037
G01 X19.2936 Y8.3358
G01 X19.3025 Y8.3520
G01 X19.3213 Y8.3828
G01 X19.3429 Y8.4124
G01 X19.3535 Y8.4257
G01 X19.3825 Y8.4575
G01 X19.4143 Y8.4865
G01 X19.4276 Y8.4971
G01 X19.4572 Y8.5187
G01 X19.4880 Y8.5375
G01 X19.5042 Y8.5464
G01 X19.5363 Y8.5616
G01 X19.5530 Y8.5683
G01 X19.5881 Y8.5805
G01 X19.6289 Y8.5908
G01 X19.6458 Y8.5940
G01 X19.6815 Y8.5990
G01 X19.7182 Y8.6011
G01 X20.2345 Y8.6014
G01 X20.2345 Y8.6265
G01 X19.4270 Y8.6265
G01 X19.3290 Y8.5860
G01 X19.2540 Y8.5110
G01 X19.2135 Y8.4130
G01 X19.2135 Y6.6555
G01 X19.2386 Y6.6555
G00 Z2.0000
G00 X21.2255 Y8.6265
G01 F350.00
G01 Z-0.1306
G01 F400.00
G01 X21.2255 Y8.6014
G01 X21.7418 Y8.6011
G01 X21.7785 Y8.5990
G01 X21.8142 Y8.5940
G01 X21.8311 Y8.5908
G01 X21.8719 Y8.5805
G01 X21.9070 Y8.5683
G01 X21.9237 Y8.5616
G01 X21.9558 Y8.5464
G01 X21.9720 Y8.5375
G01 X22.0028 Y8.5187
G01 X22.0324 Y8.4971
G01 X22.0457 Y8.4865
G01 X22.0775 Y8.4575
G01 X22.1065 Y8.4257
G01 X22.1171 Y8.4124
G01 X22.1387 Y8.3828
G01 X22.1575 Y8.3520
G01 X22.1664 Y8.3358
G01 X22.1816 Y8.3037
G01 X22.1883 Y8.2870
G01 X22.1965 Y8.2639
G01 X22.2034 Y8.2412
G01 X22.2108 Y8.2111
G01 X22.2140 Y8.1942
G01 X22.2190 Y8.1585
G01 X22.2211 Y8.1218
G01 X22.2214 Y6.6555
G01 X22.2465 Y6.6555
G01 X22.2465 Y8.4130
G01 X22.2060 Y8.5110
G01 X22.1310 Y8.5860
G01 X22.0330 Y8.6265
G01 X21.2255 Y8.6265
G01 X21.2255 Y8.6014
G00 Z2.0000
G00 X22.0650 Y6.4991
G01 F350.00
G01 Z-0.1306
G01 F400.00
G01 X22.3684 Y6.4991
G01 X22.4029 Y6.5336
G01 X22.4029 Y8.4441
G01 X22.3385 Y8.5996
G01 X22.2196 Y8.7185
G01 X22.0641 Y8.7829
G01 X21.1036 Y8.7829
G01 X21.0691 Y8.7484
G01 X21.0691 Y8.4450
G01 X21.7300 Y8.4450
G01 X21.7630 Y8.4434
G01 X21.7972 Y8.4382
G01 X21.8312 Y8.4293
G01 X21.8602 Y8.4186
G01 X21.8842 Y8.4073
G01 X21.9160 Y8.3886
G01 X21.9439 Y8.3678
G01 X21.9669 Y8.3469
G01 X21.9915 Y8.3192
G01 X22.0086 Y8.2960
G01 X22.0234 Y8.2715
G01 X22.0386 Y8.2402
G01 X22.0507 Y8.2070
G01 X22.0582 Y8.1772
G01 X22.0634 Y8.1430
G01 X22.0650 Y8.1100
G01 X22.0650 Y6.4991
G01 X22.3684 Y6.4991
G00 Z2.0000
G00 X22.0650 Y5.8209
G01 F350.00
G01 Z-0.1306
G01 F400.00
G01 X22.0650 Y4.2100
G01 X22.0634 Y4.1770
G01 X22.0582 Y4.1428
G01 X22.0507 Y4.1130
G01 X22.0386 Y4.0798
G01 X22.0234 Y4.0485
G01 X22.0086 Y4.0240
G01 X21.9915 Y4.0008
G01 X21.9669 Y3.9731
G01 X21.9439 Y3.9522
G01 X21.9160 Y3.9314
G01 X21.8842 Y3.9127
G01 X21.8602 Y3.9014
G01 X21.8312 Y3.8907
G01 X21.7972 Y3.8818
G01 X21.7630 Y3.8766
G01 X21.7300 Y3.8750
G01 X21.0691 Y3.8750
G01 X21.0691 Y3.5716
G01 X21.1036 Y3.5371
G01 X22.0641 Y3.5371
G01 X22.2196 Y3.6015
G01 X22.3385 Y3.7204
G01 X22.4029 Y3.8759
G01 X22.4029 Y5.7864
G01 X22.3684 Y5.8209
G01 X22.0650 Y5.8209
G01 X22.0650 Y4.2100
G00 Z2.0000
G00 X21.2255 Y3.6935
G01 F350.00
G01 Z-0.1306
G01 F400.00
G01 X22.0330 Y3.6935
G01 X22.1310 Y3.7340
G01 X22.2060 Y3.8090
G01 X22.2465 Y3.9070
G01 X22.2465 Y5.6645
G01 X22.2214 Y5.6645
G01 X22.2211 Y4.1982
G01 X22.2190 Y4.1615
G01 X22.2140 Y4.1258
G01 X22.2108 Y4.1089
G01 X22.2034 Y4.0788
G01 X22.1965 Y4.0561
G01 X22.1883 Y4.0330
G01 X22.1816 Y4.0163
G01 X22.1664 Y3.9842
G01 X22.1575 Y3.9680
G01 X22.1387 Y3.9372
G01 X22.1171 Y3.9076
G01 X22.1065 Y3.8943
G01 X22.0775 Y3.8625
G01 X22.0457 Y3.8335
G01 X22.0324 Y3.8229
G01 X22.0028 Y3.8013
G01 X21.9720 Y3.7825
G01 X21.9558 Y3.7736
G01 X21.9237 Y3.7584
G01 X21.9070 Y3.7517
G01 X21.8719 Y3.7395
G01 X21.8311 Y3.7292
G01 X21.8142 Y3.7260
G01 X21.7785 Y3.7210
G01 X21.7418 Y3.7189
G01 X21.2255 Y3.7186
G01 X21.2255 Y3.6935
G01 X22.0330 Y3.6935
G00 Z2.0000
G00 X20.3909 Y3.8750
G01 F350.00
G01 Z-0.1306
G01 F400.00
G01 X19.7300 Y3.8750
G01 X19.6970 Y3.8766
G01 X19.6688 Y3.8807
G01 X19.6330 Y3.8893
G01 X19.5998 Y3.9014
G01 X19.5741 Y3.9135
G01 X19.5440 Y3.9314
G01 X19.5161 Y3.9522
G01 X19.4931 Y3.9731
G01 X19.4722 Y3.9961
G01 X19.4514 Y4.0240
G01 X19.4335 Y4.0541
G01 X19.4222 Y4.0780
G01 X19.4093 Y4.1130
G01 X19.4007 Y4.1488
G01 X19.3966 Y4.1770
G01 X19.3951 Y4.2058
G01 X19.3950 Y5.8209
G01 X19.0916 Y5.8209
G01 X19.0571 Y5.7864
G01 X19.0571 Y3.8759
G01 X19.1215 Y3.7204
G01 X19.2404 Y3.6015
G01 X19.3959 Y3.5371
G01 X20.3564 Y3.5371
G01 X20.3909 Y3.5716
G01 X20.3909 Y3.8750
G01 X19.7300 Y3.8750
G00 Z2.0000
G00 X27.9300 Y10.7750
G01 F350.00
G01 Z-0.1306
G01 F400.00
G01 X27.9124 Y10.7769
G01 X27.8955 Y10.7823
G01 X27.8875 Y10.7864
G01 X27.8731 Y10.7968
G01 X27.8668 Y10.8031
G01 X27.8564 Y10.8175
G01 X27.8491 Y10.8338
G01 X27.8455 Y10.8511
G01 X27.8450 Y12.2709
G01 X27.5416 Y12.2709
G01 X27.5071 Y12.2364
G01 X27.5071 Y10.7759
G01 X27.5715 Y10.6204
G01 X27.6904 Y10.5015
G01 X27.8459 Y10.4371
G01 X28.7064 Y10.4371
G01 X28.7409 Y10.4716
G01 X28.7409 Y10.7750
G01 X27.9300 Y10.7750
G01 X27.9124 Y10.7769
G00 Z2.0000
G00 X27.6635 Y12.1145
G01 F350.00
G01 Z-0.1306
G01 F400.00
G01 X27.6635 Y10.8070
G01 X27.7040 Y10.7090
G01 X27.7790 Y10.6340
G01 X27.8770 Y10.5935
G01 X28.5845 Y10.5935
G01 X28.5845 Y10.6186
G01 X27.9300 Y10.6186
G01 X27.9048 Y10.6199
G01 X27.8799 Y10.6239
G01 X27.8555 Y10.6304
G01 X27.8320 Y10.6394
G01 X27.8094 Y10.6509
G01 X27.7882 Y10.6647
G01 X27.7685 Y10.6806
G01 X27.7506 Y10.6985
G01 X27.7347 Y10.7182
G01 X27.7209 Y10.7394
G01 X27.7094 Y10.7620
G01 X27.7004 Y10.7855
G01 X27.6939 Y10.8099
G01 X27.6899 Y10.8348
G01 X27.6886 Y10.8600
G01 X27.6886 Y12.1145
G01 X27.6635 Y12.1145
G01 X27.6635 Y10.8070
G00 Z2.0000
G00 X27.6635 Y13.1055
G01 F350.00
G01 Z-0.1306
G01 F400.00
G01 X27.6886 Y13.1055
G01 X27.6886 Y14.3600
G01 X27.6899 Y14.3852
G01 X27.6939 Y14.4101
G01 X27.7004 Y14.4345
G01 X27.7094 Y14.4580
G01 X27.7209 Y14.4806
G01 X27.7347 Y14.5018
G01 X27.7506 Y14.5215
G01 X27.7685 Y14.5394
G01 X27.7882 Y14.5553
G01 X27.8094 Y14.5691
G01 X27.8320 Y14.5806
G01 X27.8555 Y14.5896
G01 X27.8799 Y14.5961
G01 X27.9048 Y14.6001
G01 X27.9300 Y14.6014
G01 X28.5845 Y14.6014
G01 X28.5845 Y14.6265
G01 X27.8770 Y14.6265
G01 X27.7790 Y14.5860
G01 X27.7040 Y14.5110
G01 X27.6635 Y14.4130
G01 X27.6635 Y13.1055
G01 X27.6886 Y13.1055
G00 Z2.0000
G00 X27.8450 Y14.3600
G01 F350.00
G01 Z-0.1306
G01 F400.00
G01 X27.8469 Y14.3776
G01 X27.8523 Y14.3945
G01 X27.8564 Y14.4025
G01 X27.8668 Y14.4169
G01 X27.8801 Y14.4288
G01 X27.8875 Y14.4336
G01 X27.9038 Y14.4409
G01 X27.9211 Y14.4445
G01 X28.7409 Y14.4450
G01 X28.7409 Y14.7484
G01 X28.7064 Y14.7829
G01 X27.8459 Y14.7829
G01 X27.6904 Y14.7185
G01 X27.5715 Y14.5996
G01 X27.5071 Y14.4441
G01 X27.5071 Y12.9836
G01 X27.5416 Y12.9491
G01 X27.8450 Y12.9491
G01 X27.8450 Y14.3600
G01 X27.8469 Y14.3776
G00 Z2.0000
G00 X29.5755 Y14.6265
G01 F350.00
G01 Z-0.1306
G01 F400.00
G01 X29.5755 Y14.6014
G01 X30.2300 Y14.6014
G01 X30.2552 Y14.6001
G01 X30.2801 Y14.5961
G01 X30.3045 Y14.5896
G01 X30.3280 Y14.5806
G01 X30.3506 Y14.5691
G01 X30.3718 Y14.5553
G01 X30.3915 Y14.5394
G01 X30.4094 Y14.5215
G01 X30.4253 Y14.5018
G01 X30.4391 Y14.4806
G01 X30.4506 Y14.4580
G01 X30.4596 Y14.4345
G01 X30.4661 Y14.4101
G01 X30.4701 Y14.3852
G01 X30.4714 Y14.3600
G01 X30.4714 Y13.1055
G01 X30.4965 Y13.1055
G01 X30.4965 Y14.4130
G01 X30.4560 Y14.5110
G01 X30.3810 Y14.5860
G01 X30.2830 Y14.6265
G01 X29.5755 Y14.6265
G01 X29.5755 Y14.6014
G00 Z2.0000
G00 X30.3077 Y14.3945
G01 F350.00
G01 Z-0.1306
G01 F400.00
G01 X30.3131 Y14.3776
G01 X30.3150 Y14.3600
G01 X30.3150 Y12.9491
G01 X30.6184 Y12.9491
G01 X30.6529 Y12.9836
G01 X30.6529 Y14.4441
G01 X30.5885 Y14.5996
G01 X30.4696 Y14.7185
G01 X30.3141 Y14.7829
G01 X29.4536 Y14.7829
G01 X29.4191 Y14.7484
G01 X29.4191 Y14.4450
G01 X30.2389 Y14.4445
G01 X30.2476 Y14.4431
G01 X30.2645 Y14.4377
G01 X30.2799 Y14.4288
G01 X30.2932 Y14.4169
G01 X30.2988 Y14.4099
G01 X30.3077 Y14.3945
G01 X30.3131 Y14.3776
G00 Z2.0000
G00 X27.9300 Y16.1750
G01 F350.00
G01 Z-0.1306
G01 F400.00
G01 X30.2300 Y16.1750
G01 X30.2476 Y16.1769
G01 X30.2645 Y16.1823
G01 X30.2799 Y16.1912
G01 X30.2932 Y16.2031
G01 X30.2988 Y16.2101
G01 X30.3036 Y16.2175
G01 X30.3109 Y16.2338
G01 X30.3131 Y16.2424
G01 X30.3150 Y16.2600
G01 X30.3150 Y17.2248
G01 X31.5537 Y17.2248
G01 X31.5712 Y17.1656
G01 X31.6253 Y17.0351
G01 X31.6294 Y17.0265
G01 X31.6987 Y16.9012
G01 X31.7856 Y16.7785
G01 X31.8827 Y16.6695
G01 X31.8895 Y16.6627
G01 X31.9940 Y16.5693
G01 X32.0015 Y16.5634
G01 X32.1212 Y16.4787
G01 X32.2465 Y16.4094
G01 X32.2551 Y16.4053
G01 X32.3856 Y16.3512
G01 X32.5283 Y16.3097
G01 X32.5376 Y16.3075
G01 X32.6823 Y16.2832
G01 X32.8300 Y16.2750
G01 X32.9777 Y16.2832
G01 X33.1305 Y16.3093
G01 X33.2744 Y16.3512
G01 X33.4049 Y16.4053
G01 X33.4135 Y16.4094
G01 X33.5388 Y16.4787
G01 X33.6585 Y16.5634
G01 X33.6660 Y16.5693
G01 X33.7740 Y16.6660
G01 X33.8744 Y16.7785
G01 X33.9613 Y16.9012
G01 X34.0306 Y17.0265
G01 X34.0347 Y17.0351
G01 X34.0888 Y17.1656
G01 X34.1307 Y17.3095
G01 X34.1568 Y17.4623
G01 X34.1649 Y17.6052
G01 X34.1649 Y17.6148
G01 X34.1570 Y17.7547
G01 X34.1559 Y17.7642
G01 X34.1307 Y17.9105
G01 X34.0915 Y18.0464
G01 X34.0884 Y18.0554
G01 X34.0347 Y18.1849
G01 X34.0306 Y18.1935
G01 X33.9613 Y18.3188
G01 X33.9394 Y18.3500
G01 X33.9379 Y18.3763
G01 X33.9314 Y18.4160
G01 X33.9293 Y18.4253
G01 X33.9172 Y18.4657
G01 X33.9040 Y18.4978
G01 X33.8835 Y18.5358
G01 X33.8568 Y18.5743
G01 X33.8273 Y18.6073
G01 X33.7943 Y18.6368
G01 X33.7584 Y18.6620
G01 X33.7263 Y18.6798
G01 X33.6857 Y18.6972
G01 X33.6442 Y18.7096
G01 X33.6028 Y18.7171
G01 X33.5700 Y18.7194
G01 X33.5388 Y18.7413
G01 X33.4135 Y18.8106
G01 X33.4049 Y18.8147
G01 X33.2744 Y18.8688
G01 X33.2152 Y18.8863
G01 X33.2152 Y19.4269
G01 X33.2472 Y19.4318
G01 X33.2770 Y19.4393
G01 X33.3102 Y19.4514
G01 X33.3342 Y19.4627
G01 X33.3695 Y19.4839
G01 X33.3939 Y19.5022
G01 X33.4169 Y19.5231
G01 X33.4378 Y19.5461
G01 X33.4561 Y19.5705
G01 X33.4773 Y19.6058
G01 X33.4886 Y19.6298
G01 X33.5006 Y19.6630
G01 X33.5082 Y19.6928
G01 X33.5134 Y19.7270
G01 X33.5150 Y19.7600
G01 X33.5150 Y20.6600
G01 X33.5137 Y20.6887
G01 X33.5076 Y20.7294
G01 X33.5006 Y20.7570
G01 X33.4886 Y20.7902
G01 X33.4765 Y20.8159
G01 X33.4608 Y20.8426
G01 X33.4378 Y20.8739
G01 X33.4169 Y20.8969
G01 X33.3939 Y20.9178
G01 X33.3660 Y20.9386
G01 X33.3359 Y20.9565
G01 X33.3102 Y20.9686
G01 X33.2770 Y20.9807
G01 X33.2472 Y20.9882
G01 X33.2170 Y20.9929
G01 X33.1800 Y20.9950
G01 X32.5300 Y20.9950
G01 X32.4970 Y20.9934
G01 X32.4606 Y20.9876
G01 X32.4330 Y20.9807
G01 X32.4057 Y20.9710
G01 X32.3741 Y20.9565
G01 X32.3440 Y20.9386
G01 X32.3143 Y20.9162
G01 X32.2931 Y20.8969
G01 X32.2738 Y20.8757
G01 X32.2514 Y20.8460
G01 X32.2335 Y20.8159
G01 X32.2222 Y20.7920
G01 X32.2094 Y20.7570
G01 X32.2007 Y20.7212
G01 X32.1966 Y20.6930
G01 X32.1951 Y20.6642
G01 X32.1950 Y19.7600
G01 X32.1966 Y19.7270
G01 X32.2018 Y19.6928
G01 X32.2083 Y19.6668
G01 X32.2214 Y19.6298
G01 X32.2335 Y19.6041
G01 X32.2492 Y19.5774
G01 X32.2722 Y19.5461
G01 X32.2931 Y19.5231
G01 X32.3143 Y19.5038
G01 X32.3440 Y19.4814
G01 X32.3741 Y19.4635
G01 X32.3998 Y19.4514
G01 X32.4288 Y19.4407
G01 X32.4448 Y19.4363
G01 X32.4448 Y18.8863
G01 X32.3856 Y18.8688
G01 X32.2551 Y18.8147
G01 X32.2465 Y18.8106
G01 X32.1212 Y18.7413
G01 X31.9985 Y18.6544
G01 X31.8860 Y18.5540
G01 X31.7856 Y18.4415
G01 X31.6987 Y18.3188
G01 X31.6294 Y18.1935
G01 X31.6253 Y18.1849
G01 X31.5712 Y18.0544
G01 X31.5537 Y17.9952
G01 X30.3150 Y17.9952
G01 X30.3150 Y18.7003
G01 X30.6523 Y19.0377
G01 X30.6818 Y19.0707
G01 X30.7085 Y19.1092
G01 X30.7248 Y19.1387
G01 X30.7418 Y19.1783
G01 X30.7546 Y19.2208
G01 X30.7629 Y19.2687
G01 X30.7652 Y19.3100
G01 X30.7652 Y21.8698
G01 X31.1639 Y21.8705
G01 X31.1812 Y21.8741
G01 X31.1975 Y21.8814
G01 X31.2119 Y21.8918
G01 X31.2238 Y21.9051
G01 X31.2286 Y21.9125
G01 X31.2359 Y21.9288
G01 X31.2381 Y21.9374
G01 X31.2400 Y21.9550
G01 X31.2400 Y22.5550
G01 X31.2381 Y22.5726
G01 X31.2327 Y22.5895
G01 X31.2286 Y22.5975
G01 X31.2238 Y22.6049
G01 X31.2119 Y22.6182
G01 X31.1975 Y22.6286
G01 X31.1895 Y22.6327
G01 X31.1726 Y22.6381
G01 X31.1550 Y22.6400
G01 X29.6050 Y22.6400
G01 X29.5874 Y22.6381
G01 X29.5705 Y22.6327
G01 X29.5625 Y22.6286
G01 X29.5481 Y22.6182
G01 X29.5362 Y22.6049
G01 X29.5273 Y22.5895
G01 X29.5219 Y22.5726
G01 X29.5200 Y22.5550
G01 X29.5200 Y21.9550
G01 X29.5205 Y21.9461
G01 X29.5241 Y21.9288
G01 X29.5314 Y21.9125
G01 X29.5418 Y21.8981
G01 X29.5551 Y21.8862
G01 X29.5705 Y21.8773
G01 X29.5874 Y21.8719
G01 X29.5961 Y21.8705
G01 X29.9948 Y21.8700
G01 X29.9948 Y19.8450
G01 X27.9300 Y19.8450
G01 X27.9211 Y19.8445
G01 X27.9038 Y19.8409
G01 X27.8875 Y19.8336
G01 X27.8731 Y19.8232
G01 X27.8612 Y19.8099
G01 X27.8564 Y19.8025
G01 X27.8491 Y19.7862
G01 X27.8455 Y19.7689
G01 X27.8450 Y19.7600
G01 X27.8450 Y16.2600
G01 X27.8469 Y16.2424
G01 X27.8523 Y16.2255
G01 X27.8612 Y16.2101
G01 X27.8731 Y16.1968
G01 X27.8875 Y16.1864
G01 X27.8955 Y16.1823
G01 X27.9124 Y16.1769
G01 X27.9300 Y16.1750
G01 X30.2300 Y16.1750
G00 Z2.0000
G00 X26.8040 Y17.1965
G01 F350.00
G01 Z-0.1306
G01 F400.00
G01 X26.6974 Y17.1376
G01 X26.6730 Y17.1258
G01 X26.5460 Y17.0732
G01 X26.5232 Y17.0654
G01 X26.3905 Y17.0272
G01 X26.3675 Y17.0221
G01 X26.2348 Y16.9996
G01 X26.2079 Y16.9965
G01 X26.0600 Y16.9886
G01 X25.9121 Y16.9965
G01 X25.8852 Y16.9996
G01 X25.7525 Y17.0221
G01 X25.7261 Y17.0281
G01 X25.5968 Y17.0654
G01 X25.5740 Y17.0732
G01 X25.4537 Y17.1230
G01 X25.4310 Y17.1003
G01 X25.8104 Y16.9557
G01 X26.3991 Y16.9726
G01 X26.7748 Y17.1282
G01 X26.8040 Y17.1965
G01 X26.6974 Y17.1376
G00 Z2.0000
G00 X27.5322 Y17.8139
G01 F350.00
G01 Z-0.1306
G01 F400.00
G01 X27.5087 Y17.7571
G01 X27.4893 Y17.7169
G01 X27.4228 Y17.5967
G01 X27.4493 Y17.5819
G01 X27.4855 Y17.5577
G01 X27.5008 Y17.5464
G01 X27.5322 Y17.5195
G01 X27.5322 Y17.8139
G01 X27.5087 Y17.7571
G00 Z2.0000
G00 X27.5322 Y19.3405
G01 F350.00
G01 Z-0.1306
G01 F400.00
G01 X27.5008 Y19.3136
G01 X27.4855 Y19.3023
G01 X27.4493 Y19.2781
G01 X27.4228 Y19.2633
G01 X27.4893 Y19.1431
G01 X27.5087 Y19.1029
G01 X27.5322 Y19.0461
G01 X27.5322 Y19.3405
G01 X27.5008 Y19.3136
G00 Z2.0000
G00 X26.8040 Y19.6635
G01 F350.00
G01 Z-0.1306
G01 F400.00
G01 X26.7772 Y19.7261
G01 X26.3096 Y19.9043
G01 X25.7209 Y19.8874
G01 X25.4256 Y19.7651
G01 X25.4537 Y19.7370
G01 X25.5740 Y19.7868
G01 X25.5968 Y19.7946
G01 X25.7295 Y19.8328
G01 X25.7525 Y19.8379
G01 X25.8852 Y19.8604
G01 X25.9038 Y19.8629
G01 X26.0600 Y19.8714
G01 X26.2162 Y19.8629
G01 X26.2348 Y19.8604
G01 X26.3675 Y19.8379
G01 X26.3905 Y19.8328
G01 X26.5232 Y19.7946
G01 X26.5460 Y19.7868
G01 X26.6730 Y19.7342
G01 X26.6974 Y19.7224
G01 X26.8040 Y19.6635
G01 X26.7772 Y19.7261
G00 Z2.0000
G00 X24.9004 Y18.9832
G01 F350.00
G01 Z-0.1306
G01 F400.00
G01 X24.9044 Y18.9918
G01 X24.9451 Y19.0654
G01 X24.7144 Y19.2961
G01 X24.6414 Y19.2649
G01 X24.4285 Y18.7062
G01 X24.4471 Y18.0576
G01 X24.6381 Y17.5965
G01 X24.7144 Y17.5639
G01 X24.9451 Y17.7946
G01 X24.9003 Y17.8768
G01 X24.8484 Y18.0021
G01 X24.8081 Y18.1406
G01 X24.7829 Y18.2879
G01 X24.7751 Y18.4252
G01 X24.7751 Y18.4348
G01 X24.7829 Y18.5721
G01 X24.8081 Y18.7194
G01 X24.8484 Y18.8579
G01 X24.9004 Y18.9832
G01 X24.9044 Y18.9918
G00 Z2.0000
G00 X24.7249 Y17.7956
G01 F350.00
G01 Z-0.1306
G01 F400.00
G01 X24.7530 Y17.8237
G01 X24.7032 Y17.9440
G01 X24.6954 Y17.9668
G01 X24.6572 Y18.0995
G01 X24.6521 Y18.1225
G01 X24.6296 Y18.2552
G01 X24.6271 Y18.2738
G01 X24.6186 Y18.4300
G01 X24.6271 Y18.5862
G01 X24.6296 Y18.6048
G01 X24.6521 Y18.7375
G01 X24.6572 Y18.7605
G01 X24.6954 Y18.8932
G01 X24.7032 Y18.9160
G01 X24.7530 Y19.0363
G01 X24.7303 Y19.0590
G01 X24.5857 Y18.6796
G01 X24.6026 Y18.0909
G01 X24.7249 Y17.7956
G01 X24.7530 Y17.8237
G00 Z2.0000
G00 X24.4416 Y21.1514
G01 F350.00
G01 Z-0.1306
G01 F400.00
G01 X24.4354 Y21.1959
G01 X24.4322 Y21.2600
G01 X24.4322 Y22.1600
G01 X24.4354 Y22.2241
G01 X24.4416 Y22.2686
G01 X24.4022 Y22.2704
G01 X24.3586 Y22.2758
G01 X24.3372 Y22.2797
G01 X24.3154 Y22.2851
G01 X24.3187 Y22.2671
G01 X24.3246 Y22.2241
G01 X24.3278 Y22.1600
G01 X24.3278 Y21.2600
G01 X24.3246 Y21.1959
G01 X24.3187 Y21.1529
G01 X24.3154 Y21.1349
G01 X24.3372 Y21.1403
G01 X24.3586 Y21.1442
G01 X24.4022 Y21.1496
G01 X24.4416 Y21.1514
G01 X24.4354 Y21.1959
G00 Z2.0000
G00 X22.6950 Y21.3709
G01 F350.00
G01 Z-0.1306
G01 F400.00
G01 X22.3916 Y21.3709
G01 X22.3571 Y21.3364
G01 X22.3571 Y20.9259
G01 X22.4215 Y20.7704
G01 X22.5404 Y20.6515
G01 X22.6959 Y20.5871
G01 X22.9814 Y20.5871
G01 X23.0159 Y20.6216
G01 X23.0159 Y20.9256
G01 X22.9970 Y20.9266
G01 X22.9688 Y20.9307
G01 X22.9330 Y20.9393
G01 X22.8998 Y20.9514
G01 X22.8685 Y20.9666
G01 X22.8440 Y20.9814
G01 X22.8143 Y21.0038
G01 X22.7931 Y21.0231
G01 X22.7738 Y21.0443
G01 X22.7539 Y21.0705
G01 X22.7335 Y21.1041
G01 X22.7214 Y21.1298
G01 X22.7093 Y21.1630
G01 X22.7018 Y21.1928
G01 X22.6966 Y21.2270
G01 X22.6951 Y21.2558
G01 X22.6950 Y21.3709
G01 X22.3916 Y21.3709
G00 Z2.0000
G00 X22.5135 Y21.2145
G01 F350.00
G01 Z-0.1306
G01 F400.00
G01 X22.5135 Y20.9570
G01 X22.5540 Y20.8590
G01 X22.6290 Y20.7840
G01 X22.7270 Y20.7435
G01 X22.8595 Y20.7435
G01 X22.8595 Y20.7994
G01 X22.8311 Y20.8108
G01 X22.8042 Y20.8236
G01 X22.7881 Y20.8325
G01 X22.7572 Y20.8513
G01 X22.7276 Y20.8729
G01 X22.7093 Y20.8879
G01 X22.6911 Y20.9044
G01 X22.6744 Y20.9211
G01 X22.6535 Y20.9443
G01 X22.6282 Y20.9773
G01 X22.6151 Y20.9970
G01 X22.5936 Y21.0342
G01 X22.5784 Y21.0663
G01 X22.5717 Y21.0830
G01 X22.5595 Y21.1181
G01 X22.5492 Y21.1589
G01 X22.5460 Y21.1758
G01 X22.5408 Y21.2145
G01 X22.5135 Y21.2145
G01 X22.5135 Y20.9570
G00 Z2.0000
G00 X22.6950 Y22.0491
G01 F350.00
G01 Z-0.1306
G01 F400.00
G01 X22.6951 Y22.1642
G01 X22.6966 Y22.1930
G01 X22.7018 Y22.2272
G01 X22.7093 Y22.2570
G01 X22.7214 Y22.2902
G01 X22.7335 Y22.3159
G01 X22.7539 Y22.3495
G01 X22.7738 Y22.3757
G01 X22.7931 Y22.3969
G01 X22.8143 Y22.4162
G01 X22.8440 Y22.4386
G01 X22.8685 Y22.4534
G01 X22.8998 Y22.4686
G01 X22.9330 Y22.4807
G01 X22.9688 Y22.4893
G01 X22.9970 Y22.4934
G01 X23.0159 Y22.4944
G01 X23.0159 Y22.7984
G01 X22.9814 Y22.8329
G01 X22.6959 Y22.8329
G01 X22.5404 Y22.7685
G01 X22.4215 Y22.6496
G01 X22.3571 Y22.4941
G01 X22.3571 Y22.0836
G01 X22.3916 Y22.0491
G01 X22.6950 Y22.0491
G01 X22.6951 Y22.1642
G00 Z2.0000
G00 X22.5135 Y22.2055
G01 F350.00
G01 Z-0.1306
G01 F400.00
G01 X22.5408 Y22.2055
G01 X22.5460 Y22.2442
G01 X22.5492 Y22.2611
G01 X22.5595 Y22.3019
G01 X22.5717 Y22.3370
G01 X22.5784 Y22.3537
G01 X22.5936 Y22.3858
G01 X22.6151 Y22.4230
G01 X22.6282 Y22.4427
G01 X22.6535 Y22.4757
G01 X22.6744 Y22.4989
G01 X22.6911 Y22.5156
G01 X22.7093 Y22.5321
G01 X22.7276 Y22.5471
G01 X22.7572 Y22.5687
G01 X22.7881 Y22.5875
G01 X22.8042 Y22.5964
G01 X22.8311 Y22.6092
G01 X22.8595 Y22.6206
G01 X22.8595 Y22.6765
G01 X22.7270 Y22.6765
G01 X22.6290 Y22.6360
G01 X22.5540 Y22.5610
G01 X22.5135 Y22.4630
G01 X22.5135 Y22.2055
G01 X22.5408 Y22.2055
G00 Z2.0000
G00 X21.6421 Y25.2979
G01 F350.00
G01 Z-0.1306
G01 F400.00
G01 X23.2622 Y25.2979
G01 X23.2622 Y25.5621
G01 X21.8672 Y25.5621
G01 X21.8563 Y25.5392
G01 X21.8417 Y25.5126
G01 X21.8189 Y25.4754
G01 X21.7928 Y25.4394
G01 X21.7753 Y25.4175
G01 X21.7381 Y25.3769
G01 X21.7057 Y25.3470
G01 X21.6756 Y25.3222
G01 X21.6421 Y25.2979
G01 X23.2622 Y25.2979
G00 Z2.0000
G00 X20.3654 Y25.1876
G01 F350.00
G01 Z-0.1306
G01 F400.00
G01 X20.3676 Y25.1567
G01 X20.3682 Y25.1350
G01 X20.3676 Y25.1133
G01 X20.3654 Y25.0824
G01 X20.9572 Y25.0828
G01 X21.0134 Y25.1381
G01 X21.0510 Y25.1704
G01 X21.0740 Y25.1872
G01 X20.3654 Y25.1876
G01 X20.3676 Y25.1567
G00 Z2.0000
G00 X23.4957 Y26.7579
G01 F350.00
G01 Z-0.1306
G01 F400.00
G01 X23.4932 Y26.7591
G01 X23.4926 Y26.7579
G01 X23.4957 Y26.7579
G01 X23.4932 Y26.7591
G00 Z2.0000
G00 X24.8750 Y25.7000
G01 F350.00
G01 Z-0.1306
G01 F400.00
G01 X24.8750 Y23.7000
G01 X24.8769 Y23.6824
G01 X24.8823 Y23.6655
G01 X24.8864 Y23.6575
G01 X24.8912 Y23.6501
G01 X24.9031 Y23.6368
G01 X24.9175 Y23.6264
G01 X24.9255 Y23.6223
G01 X24.9338 Y23.6191
G01 X24.9511 Y23.6155
G01 X25.3600 Y23.6150
G01 X25.3776 Y23.6169
G01 X25.3945 Y23.6223
G01 X25.4025 Y23.6264
G01 X25.4169 Y23.6368
G01 X25.4232 Y23.6431
G01 X25.4336 Y23.6575
G01 X25.4377 Y23.6655
G01 X25.4431 Y23.6824
G01 X25.4450 Y23.7000
G01 X25.4450 Y25.7000
G01 X25.4431 Y25.7176
G01 X25.4377 Y25.7345
G01 X25.4336 Y25.7425
G01 X25.4232 Y25.7569
G01 X25.4169 Y25.7632
G01 X25.4025 Y25.7736
G01 X25.3945 Y25.7777
G01 X25.3776 Y25.7831
G01 X25.3689 Y25.7845
G01 X24.9600 Y25.7850
G01 X24.9424 Y25.7831
G01 X24.9255 Y25.7777
G01 X24.9175 Y25.7736
G01 X24.9031 Y25.7632
G01 X24.8912 Y25.7499
G01 X24.8823 Y25.7345
G01 X24.8769 Y25.7176
G01 X24.8750 Y25.7000
G01 X24.8750 Y23.7000
G00 Z2.0000
G00 X25.4800 Y26.0791
G01 F350.00
G01 Z-0.1306
G01 F400.00
G01 X25.5174 Y26.0891
G01 X25.5585 Y26.0956
G01 X25.6000 Y26.0978
G01 X26.0000 Y26.0978
G01 X26.0415 Y26.0956
G01 X26.0826 Y26.0891
G01 X26.1227 Y26.0784
G01 X26.1616 Y26.0635
G01 X26.1987 Y26.0446
G01 X26.2337 Y26.0219
G01 X26.2662 Y25.9956
G01 X26.2957 Y25.9661
G01 X26.3219 Y25.9337
G01 X26.3446 Y25.8987
G01 X26.3635 Y25.8616
G01 X26.3784 Y25.8227
G01 X26.3891 Y25.7826
G01 X26.3956 Y25.7415
G01 X26.3978 Y25.7000
G01 X26.3978 Y25.2979
G01 X26.8723 Y25.2979
G01 X26.9821 Y25.4077
G01 X26.9821 Y28.7600
G01 X26.9850 Y28.8184
G01 X26.9890 Y28.8490
G01 X26.9927 Y28.8712
G01 X27.0027 Y28.9147
G01 X27.0089 Y28.9362
G01 X27.0218 Y28.9738
G01 X27.0322 Y28.9991
G01 X27.0516 Y29.0392
G01 X27.0695 Y29.0711
G01 X27.0861 Y29.0967
G01 X27.1096 Y29.1290
G01 X27.1269 Y29.1498
G01 X27.1572 Y29.1828
G01 X28.9821 Y31.0077
G01 X28.9821 Y34.6123
G01 X28.8823 Y34.7121
G01 X22.9277 Y34.7121
G01 X22.6879 Y34.4723
G01 X22.6879 Y33.4537
G01 X22.7469 Y33.4208
G01 X22.7724 Y33.4041
G01 X22.8642 Y33.3386
G01 X22.8850 Y33.3212
G01 X22.9561 Y33.2577
G01 X22.9723 Y33.2423
G01 X22.9877 Y33.2261
G01 X23.0512 Y33.1550
G01 X23.0686 Y33.1342
G01 X23.1341 Y33.0424
G01 X23.1508 Y33.0169
G01 X23.1579 Y33.0047
G01 X23.2040 Y32.9212
G01 X23.2233 Y32.8810
G01 X23.2616 Y32.7885
G01 X23.2746 Y32.7509
G01 X23.3025 Y32.6538
G01 X23.3109 Y32.6158
G01 X23.3268 Y32.5218
G01 X23.3308 Y32.4912
G01 X23.3372 Y32.3823
G01 X23.3378 Y32.3600
G01 X23.3372 Y32.3377
G01 X23.3308 Y32.2288
G01 X23.3268 Y32.1982
G01 X23.3119 Y32.1104
G01 X23.3600 Y32.1126
G01 X23.4081 Y32.1104
G01 X23.3932 Y32.1982
G01 X23.3892 Y32.2288
G01 X23.3828 Y32.3377
G01 X23.3822 Y32.3600
G01 X23.3828 Y32.3823
G01 X23.3892 Y32.4912
G01 X23.3932 Y32.5218
G01 X23.4091 Y32.6158
G01 X23.4191 Y32.6593
G01 X23.4454 Y32.7509
G01 X23.4584 Y32.7885
G01 X23.4967 Y32.8810
G01 X23.5160 Y32.9212
G01 X23.5692 Y33.0169
G01 X23.5859 Y33.0424
G01 X23.6410 Y33.1202
G01 X23.6514 Y33.1342
G01 X23.6688 Y33.1550
G01 X23.7323 Y33.2261
G01 X23.7477 Y33.2423
G01 X23.7639 Y33.2577
G01 X23.8350 Y33.3212
G01 X23.8558 Y33.3386
G01 X23.9476 Y33.4041
G01 X23.9731 Y33.4208
G01 X23.9853 Y33.4279
G01 X24.0688 Y33.4740
G01 X24.1090 Y33.4933
G01 X24.2015 Y33.5316
G01 X24.2391 Y33.5446
G01 X24.3307 Y33.5709
G01 X24.3742 Y33.5809
G01 X24.4682 Y33.5968
G01 X24.4988 Y33.6008
G01 X24.6077 Y33.6072
G01 X24.6300 Y33.6078
G01 X24.6523 Y33.6072
G01 X24.7475 Y33.6018
G01 X24.7612 Y33.6008
G01 X24.7918 Y33.5968
G01 X24.8858 Y33.5809
G01 X24.9238 Y33.5725
G01 X25.0209 Y33.5446
G01 X25.0630 Y33.5298
G01 X25.1510 Y33.4933
G01 X25.1912 Y33.4740
G01 X25.2869 Y33.4208
G01 X25.3124 Y33.4041
G01 X25.4042 Y33.3386
G01 X25.4250 Y33.3212
G01 X25.4961 Y33.2577
G01 X25.5123 Y33.2423
G01 X25.5277 Y33.2261
G01 X25.5912 Y33.1550
G01 X25.6086 Y33.1342
G01 X25.6741 Y33.0424
G01 X25.6908 Y33.0169
G01 X25.7440 Y32.9212
G01 X25.7633 Y32.8810
G01 X25.7998 Y32.7930
G01 X25.8146 Y32.7509
G01 X25.8425 Y32.6538
G01 X25.8509 Y32.6158
G01 X25.8668 Y32.5218
G01 X25.8708 Y32.4912
G01 X25.8772 Y32.3823
G01 X25.8778 Y32.3600
G01 X25.8772 Y32.3377
G01 X25.8708 Y32.2288
G01 X25.8668 Y32.1982
G01 X25.8509 Y32.1042
G01 X25.8425 Y32.0662
G01 X25.8146 Y31.9691
G01 X25.8016 Y31.9315
G01 X25.7633 Y31.8390
G01 X25.7440 Y31.7988
G01 X25.6908 Y31.7031
G01 X25.6741 Y31.6776
G01 X25.6086 Y31.5858
G01 X25.5912 Y31.5650
G01 X25.5277 Y31.4939
G01 X25.5123 Y31.4777
G01 X25.4961 Y31.4623
G01 X25.4250 Y31.3988
G01 X25.4042 Y31.3814
G01 X25.3902 Y31.3710
G01 X25.3124 Y31.3159
G01 X25.2869 Y31.2992
G01 X25.2279 Y31.2663
G01 X25.2279 Y30.4877
G01 X25.4650 Y30.2506
G01 X26.3266 Y31.1122
G01 X26.2785 Y31.1144
G01 X26.2374 Y31.1209
G01 X26.1973 Y31.1316
G01 X26.1584 Y31.1465
G01 X26.1213 Y31.1654
G01 X26.0863 Y31.1881
G01 X26.0539 Y31.2143
G01 X26.0244 Y31.2438
G01 X25.9981 Y31.2763
G01 X25.9754 Y31.3113
G01 X25.9565 Y31.3484
G01 X25.9416 Y31.3873
G01 X25.9309 Y31.4274
G01 X25.9244 Y31.4685
G01 X25.9222 Y31.5100
G01 X25.9222 Y33.2100
G01 X25.9244 Y33.2515
G01 X25.9309 Y33.2926
G01 X25.9416 Y33.3327
G01 X25.9565 Y33.3716
G01 X25.9754 Y33.4087
G01 X25.9981 Y33.4437
G01 X26.0244 Y33.4762
G01 X26.0538 Y33.5056
G01 X26.0863 Y33.5319
G01 X26.1213 Y33.5546
G01 X26.1584 Y33.5735
G01 X26.1973 Y33.5884
G01 X26.2374 Y33.5991
G01 X26.2785 Y33.6056
G01 X26.3200 Y33.6078
G01 X28.0200 Y33.6078
G01 X28.0615 Y33.6056
G01 X28.1026 Y33.5991
G01 X28.1427 Y33.5884
G01 X28.1816 Y33.5735
G01 X28.2187 Y33.5546
G01 X28.2537 Y33.5319
G01 X28.2861 Y33.5057
G01 X28.3156 Y33.4762
G01 X28.3419 Y33.4437
G01 X28.3646 Y33.4087
G01 X28.3835 Y33.3716
G01 X28.3984 Y33.3327
G01 X28.4091 Y33.2926
G01 X28.4156 Y33.2515
G01 X28.4178 Y33.2100
G01 X28.4178 Y31.5100
G01 X28.4156 Y31.4685
G01 X28.4091 Y31.4274
G01 X28.3984 Y31.3873
G01 X28.3835 Y31.3484
G01 X28.3646 Y31.3113
G01 X28.3419 Y31.2763
G01 X28.3156 Y31.2438
G01 X28.2862 Y31.2144
G01 X28.2537 Y31.1881
G01 X28.2187 Y31.1654
G01 X28.1816 Y31.1465
G01 X28.1427 Y31.1316
G01 X28.1026 Y31.1209
G01 X28.0615 Y31.1144
G01 X28.0200 Y31.1122
G01 X27.7679 Y31.1122
G01 X27.7673 Y31.0877
G01 X27.7650 Y31.0516
G01 X27.7610 Y31.0210
G01 X27.7573 Y30.9988
G01 X27.7473 Y30.9553
G01 X27.7411 Y30.9338
G01 X27.7282 Y30.8962
G01 X27.7178 Y30.8709
G01 X27.6984 Y30.8308
G01 X27.6805 Y30.7989
G01 X27.6509 Y30.7550
G01 X27.6404 Y30.7410
G01 X27.6231 Y30.7202
G01 X27.5928 Y30.6872
G01 X26.3979 Y29.4923
G01 X26.3978 Y27.1200
G01 X26.3956 Y27.0785
G01 X26.3891 Y27.0374
G01 X26.3784 Y26.9973
G01 X26.3635 Y26.9584
G01 X26.3446 Y26.9213
G01 X26.3219 Y26.8863
G01 X26.2956 Y26.8538
G01 X26.2662 Y26.8244
G01 X26.2337 Y26.7981
G01 X26.1987 Y26.7754
G01 X26.1616 Y26.7565
G01 X26.1227 Y26.7416
G01 X26.0826 Y26.7309
G01 X26.0415 Y26.7244
G01 X26.0000 Y26.7222
G01 X25.6000 Y26.7222
G01 X25.5585 Y26.7244
G01 X25.5174 Y26.7309
G01 X25.4800 Y26.7409
G01 X25.4426 Y26.7309
G01 X25.4015 Y26.7244
G01 X25.3600 Y26.7222
G01 X24.9600 Y26.7222
G01 X24.9185 Y26.7244
G01 X24.8774 Y26.7309
G01 X24.8373 Y26.7416
G01 X24.8300 Y26.7444
G01 X24.8227 Y26.7416
G01 X24.7826 Y26.7309
G01 X24.7415 Y26.7244
G01 X24.7000 Y26.7222
G01 X24.6422 Y26.7222
G01 X24.6538 Y26.7182
G01 X24.6791 Y26.7078
G01 X24.7192 Y26.6884
G01 X24.7511 Y26.6705
G01 X24.7767 Y26.6539
G01 X24.8090 Y26.6304
G01 X24.8298 Y26.6131
G01 X24.8628 Y26.5828
G01 X24.9228 Y26.5228
G01 X24.9531 Y26.4898
G01 X24.9704 Y26.4690
G01 X24.9809 Y26.4550
G01 X25.0105 Y26.4111
G01 X25.0284 Y26.3792
G01 X25.0478 Y26.3391
G01 X25.0564 Y26.3183
G01 X25.0711 Y26.2762
G01 X25.0789 Y26.2492
G01 X25.0873 Y26.2112
G01 X25.0910 Y26.1890
G01 X25.0950 Y26.1584
G01 X25.0973 Y26.1223
G01 X25.0979 Y26.0978
G01 X25.3600 Y26.0978
G01 X25.4015 Y26.0956
G01 X25.4426 Y26.0891
G01 X25.4800 Y26.0791
G01 X25.5174 Y26.0891
G00 Z2.0000
G00 X25.4800 Y26.2408
G01 F350.00
G01 Z-0.1306
G01 F400.00
G01 X25.5422 Y26.2512
G01 X25.6000 Y26.2542
G01 X26.0000 Y26.2542
G01 X26.0578 Y26.2512
G01 X26.1151 Y26.2421
G01 X26.1710 Y26.2272
G01 X26.2251 Y26.2064
G01 X26.2769 Y26.1801
G01 X26.3256 Y26.1484
G01 X26.3708 Y26.1119
G01 X26.4119 Y26.0708
G01 X26.4485 Y26.0256
G01 X26.4801 Y25.9769
G01 X26.5064 Y25.9251
G01 X26.5272 Y25.8710
G01 X26.5421 Y25.8150
G01 X26.5512 Y25.7578
G01 X26.5542 Y25.7000
G01 X26.5542 Y25.4543
G01 X26.8076 Y25.4543
G01 X26.8257 Y25.4724
G01 X26.8257 Y28.7600
G01 X26.8266 Y28.7911
G01 X26.8292 Y28.8326
G01 X26.8348 Y28.8752
G01 X26.8385 Y28.8974
G01 X26.8524 Y28.9579
G01 X26.8586 Y28.9795
G01 X26.8766 Y29.0319
G01 X26.8877 Y29.0589
G01 X26.9147 Y29.1149
G01 X26.9353 Y29.1516
G01 X26.9586 Y29.1872
G01 X26.9861 Y29.2250
G01 X27.0103 Y29.2540
G01 X27.0466 Y29.2934
G01 X28.8257 Y31.0724
G01 X28.8257 Y34.5476
G01 X28.8176 Y34.5557
G01 X22.9924 Y34.5557
G01 X22.8443 Y34.4076
G01 X22.8443 Y33.5439
G01 X22.8629 Y33.5317
G01 X22.9407 Y33.4765
G01 X22.9602 Y33.4620
G01 X22.9893 Y33.4378
G01 X23.0603 Y33.3743
G01 X23.0829 Y33.3529
G01 X23.1043 Y33.3303
G01 X23.1678 Y33.2593
G01 X23.1920 Y33.2302
G01 X23.2065 Y33.2107
G01 X23.2617 Y33.1329
G01 X23.2849 Y33.0974
G01 X23.3409 Y32.9969
G01 X23.3601 Y32.9569
G01 X23.3791 Y32.9969
G01 X23.4351 Y33.0974
G01 X23.4583 Y33.1329
G01 X23.5280 Y33.2302
G01 X23.5522 Y33.2593
G01 X23.6157 Y33.3303
G01 X23.6371 Y33.3529
G01 X23.6597 Y33.3743
G01 X23.7307 Y33.4378
G01 X23.7598 Y33.4620
G01 X23.7793 Y33.4765
G01 X23.8571 Y33.5317
G01 X23.8926 Y33.5549
G01 X23.9931 Y33.6109
G01 X24.0491 Y33.6378
G01 X24.1434 Y33.6769
G01 X24.1958 Y33.6948
G01 X24.2950 Y33.7234
G01 X24.3480 Y33.7351
G01 X24.4420 Y33.7510
G01 X24.4847 Y33.7566
G01 X24.5989 Y33.7633
G01 X24.6300 Y33.7642
G01 X24.6611 Y33.7633
G01 X24.7562 Y33.7580
G01 X24.7753 Y33.7566
G01 X24.8180 Y33.7510
G01 X24.9120 Y33.7351
G01 X24.9650 Y33.7234
G01 X25.0642 Y33.6948
G01 X25.1166 Y33.6769
G01 X25.2109 Y33.6378
G01 X25.2669 Y33.6109
G01 X25.3674 Y33.5549
G01 X25.4029 Y33.5317
G01 X25.5002 Y33.4620
G01 X25.5293 Y33.4378
G01 X25.6003 Y33.3743
G01 X25.6229 Y33.3529
G01 X25.6443 Y33.3303
G01 X25.7078 Y33.2593
G01 X25.7320 Y33.2302
G01 X25.7658 Y33.1835
G01 X25.7658 Y33.2100
G01 X25.7688 Y33.2678
G01 X25.7779 Y33.3250
G01 X25.7928 Y33.3810
G01 X25.8136 Y33.4351
G01 X25.8399 Y33.4869
G01 X25.8716 Y33.5356
G01 X25.9081 Y33.5808
G01 X25.9492 Y33.6219
G01 X25.9944 Y33.6584
G01 X26.0431 Y33.6901
G01 X26.0949 Y33.7164
G01 X26.1490 Y33.7372
G01 X26.2049 Y33.7521
G01 X26.2622 Y33.7612
G01 X26.3200 Y33.7642
G01 X28.0200 Y33.7642
G01 X28.0778 Y33.7612
G01 X28.1350 Y33.7521
G01 X28.1910 Y33.7372
G01 X28.2451 Y33.7164
G01 X28.2969 Y33.6901
G01 X28.3456 Y33.6585
G01 X28.3908 Y33.6219
G01 X28.4319 Y33.5808
G01 X28.4684 Y33.5356
G01 X28.5001 Y33.4869
G01 X28.5264 Y33.4351
G01 X28.5472 Y33.3810
G01 X28.5621 Y33.3251
G01 X28.5712 Y33.2678
G01 X28.5742 Y33.2100
G01 X28.5742 Y31.5100
G01 X28.5712 Y31.4522
G01 X28.5621 Y31.3950
G01 X28.5472 Y31.3390
G01 X28.5264 Y31.2849
G01 X28.5001 Y31.2331
G01 X28.4685 Y31.1844
G01 X28.4319 Y31.1392
G01 X28.3908 Y31.0981
G01 X28.3456 Y31.0616
G01 X28.2969 Y31.0299
G01 X28.2451 Y31.0036
G01 X28.1910 Y30.9828
G01 X28.1350 Y30.9679
G01 X28.0778 Y30.9588
G01 X28.0200 Y30.9558
G01 X27.9077 Y30.9558
G01 X27.8998 Y30.9197
G01 X27.8914 Y30.8905
G01 X27.8734 Y30.8381
G01 X27.8623 Y30.8111
G01 X27.8353 Y30.7551
G01 X27.8147 Y30.7184
G01 X27.7914 Y30.6828
G01 X27.7639 Y30.6450
G01 X27.7397 Y30.6160
G01 X27.7034 Y30.5766
G01 X26.5543 Y29.4276
G01 X26.5542 Y27.1199
G01 X26.5512 Y27.0621
G01 X26.5421 Y27.0049
G01 X26.5272 Y26.9490
G01 X26.5064 Y26.8949
G01 X26.4801 Y26.8431
G01 X26.4485 Y26.7944
G01 X26.4119 Y26.7492
G01 X26.3708 Y26.7081
G01 X26.3256 Y26.6715
G01 X26.2769 Y26.6399
G01 X26.2251 Y26.6136
G01 X26.1710 Y26.5928
G01 X26.1150 Y26.5779
G01 X26.0578 Y26.5688
G01 X26.0000 Y26.5658
G01 X25.6000 Y26.5658
G01 X25.5422 Y26.5688
G01 X25.4800 Y26.5792
G01 X25.4178 Y26.5688
G01 X25.3600 Y26.5658
G01 X25.0932 Y26.5658
G01 X25.1214 Y26.5272
G01 X25.1447 Y26.4916
G01 X25.1653 Y26.4549
G01 X25.1923 Y26.3989
G01 X25.2034 Y26.3719
G01 X25.2214 Y26.3195
G01 X25.2298 Y26.2903
G01 X25.2377 Y26.2542
G01 X25.3600 Y26.2542
G01 X25.4178 Y26.2512
G01 X25.4800 Y26.2408
G01 X25.5422 Y26.2512
G00 Z2.0000
G00 X27.9320 Y24.5481
G01 F350.00
G01 Z-0.1306
G01 F400.00
G01 X27.9320 Y24.6665
G01 X27.8474 Y24.5819
G01 X27.8710 Y24.5744
G01 X27.8950 Y24.5651
G01 X27.9320 Y24.5481
G01 X27.9320 Y24.6665
G00 Z2.0000
G00 X28.0888 Y23.8865
G01 F350.00
G01 Z-0.1306
G01 F400.00
G01 X28.0913 Y23.8445
G01 X28.0994 Y23.7928
G01 X28.1054 Y23.7664
G01 X28.1147 Y23.7340
G01 X28.1226 Y23.7112
G01 X28.1365 Y23.6774
G01 X28.1483 Y23.6530
G01 X28.1689 Y23.6161
G01 X28.1985 Y23.5732
G01 X28.2153 Y23.5520
G01 X28.2471 Y23.5171
G01 X28.6221 Y23.1421
G01 X28.6570 Y23.1103
G01 X28.6697 Y23.0998
G01 X28.7056 Y23.0740
G01 X28.7211 Y23.0639
G01 X28.7580 Y23.0433
G01 X28.7824 Y23.0315
G01 X28.8162 Y23.0176
G01 X28.8390 Y23.0097
G01 X28.8747 Y22.9995
G01 X28.8978 Y22.9944
G01 X28.9495 Y22.9863
G01 X29.0050 Y22.9834
G01 X31.1550 Y22.9836
G01 X31.1802 Y22.9849
G01 X31.2051 Y22.9889
G01 X31.2295 Y22.9954
G01 X31.2530 Y23.0044
G01 X31.2756 Y23.0159
G01 X31.2968 Y23.0297
G01 X31.3165 Y23.0456
G01 X31.3344 Y23.0635
G01 X31.3503 Y23.0832
G01 X31.3641 Y23.1044
G01 X31.3756 Y23.1270
G01 X31.3846 Y23.1505
G01 X31.3911 Y23.1749
G01 X31.3951 Y23.1998
G01 X31.3964 Y23.2250
G01 X31.3964 Y23.8250
G01 X31.3951 Y23.8502
G01 X31.3911 Y23.8751
G01 X31.3846 Y23.8995
G01 X31.3756 Y23.9230
G01 X31.3641 Y23.9456
G01 X31.3503 Y23.9668
G01 X31.3344 Y23.9865
G01 X31.3165 Y24.0044
G01 X31.2968 Y24.0203
G01 X31.2756 Y24.0341
G01 X31.2530 Y24.0456
G01 X31.2295 Y24.0546
G01 X31.2051 Y24.0611
G01 X31.1802 Y24.0651
G01 X31.1550 Y24.0664
G01 X29.2293 Y24.0666
G01 X29.1716 Y24.1243
G01 X29.1716 Y26.7857
G01 X29.6316 Y27.2457
G01 X29.7275 Y27.2060
G01 X29.7503 Y27.1982
G01 X29.8883 Y27.1584
G01 X29.9114 Y27.1534
G01 X30.0496 Y27.1299
G01 X30.0765 Y27.1268
G01 X30.2300 Y27.1186
G01 X30.3835 Y27.1268
G01 X30.4104 Y27.1299
G01 X30.5486 Y27.1534
G01 X30.5717 Y27.1584
G01 X30.7097 Y27.1982
G01 X30.7325 Y27.2060
G01 X30.8647 Y27.2608
G01 X30.8891 Y27.2725
G01 X31.0192 Y27.3446
G01 X31.0347 Y27.3547
G01 X31.1576 Y27.4422
G01 X31.1702 Y27.4527
G01 X31.2747 Y27.5461
G01 X31.2939 Y27.5653
G01 X31.3873 Y27.6698
G01 X31.4042 Y27.6909
G01 X31.4853 Y27.8053
G01 X31.4954 Y27.8208
G01 X31.5675 Y27.9509
G01 X31.5792 Y27.9753
G01 X31.6340 Y28.1075
G01 X31.6418 Y28.1303
G01 X31.6816 Y28.2684
G01 X31.7974 Y28.2684
G01 X31.8066 Y28.2288
G01 X31.8135 Y28.2061
G01 X31.8284 Y28.1663
G01 X31.8436 Y28.1342
G01 X31.8651 Y28.0970
G01 X31.8782 Y28.0773
G01 X31.9035 Y28.0443
G01 X31.9325 Y28.0125
G01 X31.9643 Y27.9835
G01 X31.9973 Y27.9582
G01 X32.0170 Y27.9451
G01 X32.0542 Y27.9236
G01 X32.0863 Y27.9084
G01 X32.1261 Y27.8935
G01 X32.1488 Y27.8866
G01 X32.1789 Y27.8792
G01 X32.1958 Y27.8760
G01 X32.2315 Y27.8710
G01 X32.2800 Y27.8686
G01 X32.9300 Y27.8686
G01 X32.9664 Y27.8701
G01 X32.9899 Y27.8724
G01 X33.0311 Y27.8792
G01 X33.0612 Y27.8866
G01 X33.0839 Y27.8935
G01 X33.1237 Y27.9084
G01 X33.1511 Y27.9213
G01 X33.1719 Y27.9325
G01 X33.2028 Y27.9513
G01 X33.2324 Y27.9729
G01 X33.2457 Y27.9835
G01 X33.2689 Y28.0044
G01 X33.2856 Y28.0211
G01 X33.3065 Y28.0443
G01 X33.3318 Y28.0773
G01 X33.3387 Y28.0872
G01 X33.3575 Y28.1181
G01 X33.3664 Y28.1342
G01 X33.3816 Y28.1663
G01 X33.3883 Y28.1830
G01 X33.4005 Y28.2181
G01 X33.4108 Y28.2589
G01 X33.4140 Y28.2758
G01 X33.4190 Y28.3115
G01 X33.4211 Y28.3482
G01 X33.4214 Y29.2600
G01 X33.4199 Y29.2964
G01 X33.4176 Y29.3199
G01 X33.4108 Y29.3611
G01 X33.4005 Y29.4019
G01 X33.3883 Y29.4370
G01 X33.3816 Y29.4537
G01 X33.3664 Y29.4858
G01 X33.3575 Y29.5019
G01 X33.3387 Y29.5328
G01 X33.3171 Y29.5624
G01 X33.3065 Y29.5757
G01 X33.2775 Y29.6075
G01 X33.2507 Y29.6321
G01 X33.2324 Y29.6471
G01 X33.2127 Y29.6618
G01 X33.1930 Y29.6749
G01 X33.1558 Y29.6964
G01 X33.1237 Y29.7116
G01 X33.0839 Y29.7265
G01 X33.0612 Y29.7334
G01 X33.0311 Y29.7408
G01 X33.0142 Y29.7440
G01 X32.9785 Y29.7490
G01 X32.9300 Y29.7514
G01 X32.2800 Y29.7514
G01 X32.2315 Y29.7490
G01 X32.1958 Y29.7440
G01 X32.1789 Y29.7408
G01 X32.1488 Y29.7334
G01 X32.1261 Y29.7265
G01 X32.0863 Y29.7116
G01 X32.0542 Y29.6964
G01 X32.0170 Y29.6749
G01 X31.9973 Y29.6618
G01 X31.9643 Y29.6365
G01 X31.9325 Y29.6075
G01 X31.9035 Y29.5757
G01 X31.8782 Y29.5427
G01 X31.8651 Y29.5230
G01 X31.8436 Y29.4858
G01 X31.8284 Y29.4537
G01 X31.8135 Y29.4139
G01 X31.8066 Y29.3912
G01 X31.7974 Y29.3516
G01 X31.5219 Y29.3516
G01 X31.4954 Y29.3992
G01 X31.4853 Y29.4147
G01 X31.3978 Y29.5376
G01 X31.3873 Y29.5502
G01 X31.2846 Y29.6646
G01 X31.1702 Y29.7673
G01 X31.1576 Y29.7778
G01 X31.0347 Y29.8653
G01 X31.0192 Y29.8754
G01 X30.8891 Y29.9475
G01 X30.8647 Y29.9592
G01 X30.7325 Y30.0140
G01 X30.7097 Y30.0218
G01 X30.5750 Y30.0606
G01 X30.5486 Y30.0666
G01 X30.4104 Y30.0901
G01 X30.3918 Y30.0925
G01 X30.2300 Y30.1014
G01 X30.0682 Y30.0925
G01 X30.0496 Y30.0901
G01 X29.9114 Y30.0666
G01 X29.8883 Y30.0616
G01 X29.7503 Y30.0218
G01 X29.7275 Y30.0140
G01 X29.5953 Y29.9592
G01 X29.5709 Y29.9475
G01 X29.4408 Y29.8754
G01 X29.4253 Y29.8653
G01 X29.3109 Y29.7842
G01 X29.2898 Y29.7673
G01 X29.1853 Y29.6739
G01 X29.1661 Y29.6547
G01 X29.0727 Y29.5502
G01 X29.0558 Y29.5291
G01 X28.9747 Y29.4147
G01 X28.9646 Y29.3992
G01 X28.8925 Y29.2691
G01 X28.8808 Y29.2447
G01 X28.8260 Y29.1125
G01 X28.8182 Y29.0897
G01 X28.7794 Y28.9550
G01 X28.7734 Y28.9286
G01 X28.7499 Y28.7904
G01 X28.7475 Y28.7718
G01 X28.7390 Y28.6235
G01 X28.7390 Y28.5965
G01 X28.7475 Y28.4482
G01 X28.7499 Y28.4296
G01 X28.7734 Y28.2914
G01 X28.7784 Y28.2683
G01 X28.8182 Y28.1303
G01 X28.8260 Y28.1075
G01 X28.8657 Y28.0116
G01 X28.2471 Y27.3929
G01 X28.2153 Y27.3580
G01 X28.2048 Y27.3453
G01 X28.1790 Y27.3094
G01 X28.1689 Y27.2939
G01 X28.1483 Y27.2570
G01 X28.1365 Y27.2326
G01 X28.1226 Y27.1988
G01 X28.1147 Y27.1760
G01 X28.1054 Y27.1436
G01 X28.0994 Y27.1172
G01 X28.0913 Y27.0655
G01 X28.0884 Y27.0100
G01 X28.0888 Y23.8865
G01 X28.0913 Y23.8445
G00 Z2.0000
G00 X28.2450 Y23.8952
G01 F350.00
G01 Z-0.1306
G01 F400.00
G01 X28.2471 Y23.8587
G01 X28.2554 Y23.8108
G01 X28.2678 Y23.7693
G01 X28.2810 Y23.7372
G01 X28.2852 Y23.7287
G01 X28.3065 Y23.6911
G01 X28.3282 Y23.6607
G01 X28.3544 Y23.6311
G01 X28.7327 Y23.2527
G01 X28.7612 Y23.2270
G01 X28.8016 Y23.1980
G01 X28.8337 Y23.1802
G01 X28.8743 Y23.1628
G01 X28.9158 Y23.1504
G01 X28.9637 Y23.1421
G01 X29.0050 Y23.1398
G01 X31.1550 Y23.1400
G01 X31.1726 Y23.1419
G01 X31.1895 Y23.1473
G01 X31.2049 Y23.1562
G01 X31.2182 Y23.1681
G01 X31.2286 Y23.1825
G01 X31.2327 Y23.1905
G01 X31.2381 Y23.2074
G01 X31.2400 Y23.2250
G01 X31.2400 Y23.8250
G01 X31.2381 Y23.8426
G01 X31.2359 Y23.8512
G01 X31.2286 Y23.8675
G01 X31.2238 Y23.8749
G01 X31.2182 Y23.8819
G01 X31.2049 Y23.8938
G01 X31.1895 Y23.9027
G01 X31.1726 Y23.9081
G01 X31.1550 Y23.9100
G01 X29.1645 Y23.9102
G01 X29.0152 Y24.0595
G01 X29.0152 Y26.8505
G01 X29.5999 Y27.4352
G01 X29.6551 Y27.4053
G01 X29.7856 Y27.3512
G01 X29.9295 Y27.3093
G01 X30.0823 Y27.2832
G01 X30.2252 Y27.2751
G01 X30.2348 Y27.2751
G01 X30.3747 Y27.2830
G01 X30.3842 Y27.2841
G01 X30.5305 Y27.3093
G01 X30.6664 Y27.3485
G01 X30.6754 Y27.3516
G01 X30.8049 Y27.4053
G01 X30.8135 Y27.4094
G01 X30.9388 Y27.4787
G01 X31.0615 Y27.5656
G01 X31.1740 Y27.6660
G01 X31.2744 Y27.7785
G01 X31.3613 Y27.9012
G01 X31.4306 Y28.0265
G01 X31.4347 Y28.0351
G01 X31.4888 Y28.1656
G01 X31.5307 Y28.3095
G01 X31.5507 Y28.4248
G01 X31.9450 Y28.4248
G01 X31.9450 Y28.3600
G01 X31.9463 Y28.3313
G01 X31.9518 Y28.2928
G01 X31.9593 Y28.2630
G01 X31.9714 Y28.2298
G01 X31.9835 Y28.2041
G01 X32.0014 Y28.1740
G01 X32.0222 Y28.1461
G01 X32.0431 Y28.1231
G01 X32.0661 Y28.1022
G01 X32.0940 Y28.0814
G01 X32.1241 Y28.0635
G01 X32.1498 Y28.0514
G01 X32.1830 Y28.0393
G01 X32.2128 Y28.0318
G01 X32.2470 Y28.0266
G01 X32.2800 Y28.0250
G01 X32.9300 Y28.0250
G01 X32.9587 Y28.0263
G01 X32.9972 Y28.0318
G01 X33.0312 Y28.0407
G01 X33.0602 Y28.0514
G01 X33.0842 Y28.0627
G01 X33.1160 Y28.0814
G01 X33.1457 Y28.1038
G01 X33.1669 Y28.1231
G01 X33.1862 Y28.1443
G01 X33.2086 Y28.1740
G01 X33.2265 Y28.2041
G01 X33.2410 Y28.2357
G01 X33.2507 Y28.2630
G01 X33.2576 Y28.2906
G01 X33.2634 Y28.3270
G01 X33.2650 Y28.3600
G01 X33.2650 Y29.2600
G01 X33.2634 Y29.2930
G01 X33.2582 Y29.3272
G01 X33.2506 Y29.3570
G01 X33.2386 Y29.3902
G01 X33.2265 Y29.4159
G01 X33.2086 Y29.4460
G01 X33.1878 Y29.4739
G01 X33.1669 Y29.4969
G01 X33.1439 Y29.5178
G01 X33.1126 Y29.5408
G01 X33.0859 Y29.5565
G01 X33.0602 Y29.5686
G01 X33.0232 Y29.5817
G01 X32.9972 Y29.5882
G01 X32.9630 Y29.5934
G01 X32.9300 Y29.5950
G01 X32.2800 Y29.5950
G01 X32.2470 Y29.5934
G01 X32.2128 Y29.5882
G01 X32.1830 Y29.5807
G01 X32.1498 Y29.5686
G01 X32.1241 Y29.5565
G01 X32.0940 Y29.5386
G01 X32.0661 Y29.5178
G01 X32.0431 Y29.4969
G01 X32.0222 Y29.4739
G01 X32.0014 Y29.4460
G01 X31.9835 Y29.4159
G01 X31.9714 Y29.3902
G01 X31.9594 Y29.3570
G01 X31.9518 Y29.3272
G01 X31.9463 Y29.2887
G01 X31.9450 Y29.2600
G01 X31.9450 Y29.1952
G01 X31.4297 Y29.1952
G01 X31.3613 Y29.3188
G01 X31.2766 Y29.4385
G01 X31.2707 Y29.4460
G01 X31.1773 Y29.5505
G01 X31.1705 Y29.5573
G01 X31.0615 Y29.6544
G01 X30.9388 Y29.7413
G01 X30.8135 Y29.8106
G01 X30.8049 Y29.8147
G01 X30.6744 Y29.8688
G01 X30.5317 Y29.9103
G01 X30.5224 Y29.9125
G01 X30.3777 Y29.9368
G01 X30.2300 Y29.9450
G01 X30.0823 Y29.9368
G01 X29.9295 Y29.9107
G01 X29.7856 Y29.8688
G01 X29.6551 Y29.8147
G01 X29.6465 Y29.8106
G01 X29.5212 Y29.7413
G01 X29.3985 Y29.6544
G01 X29.2860 Y29.5540
G01 X29.1893 Y29.4460
G01 X29.1834 Y29.4385
G01 X29.0987 Y29.3188
G01 X29.0294 Y29.1935
G01 X29.0253 Y29.1849
G01 X28.9712 Y29.0544
G01 X28.9297 Y28.9117
G01 X28.9275 Y28.9024
G01 X28.9032 Y28.7577
G01 X28.8951 Y28.6148
G01 X28.8951 Y28.6052
G01 X28.9032 Y28.4623
G01 X28.9275 Y28.3176
G01 X28.9297 Y28.3083
G01 X28.9712 Y28.1656
G01 X29.0253 Y28.0351
G01 X29.0552 Y27.9799
G01 X28.3544 Y27.2789
G01 X28.3260 Y27.2463
G01 X28.3030 Y27.2134
G01 X28.2852 Y27.1813
G01 X28.2678 Y27.1407
G01 X28.2557 Y27.1003
G01 X28.2536 Y27.0910
G01 X28.2471 Y27.0513
G01 X28.2448 Y27.0100
G01 X28.2450 Y23.8952
G01 X28.2471 Y23.8587
G00 Z2.0000
G00 X29.3915 Y25.4300
G01 F350.00
G01 Z-0.1306
G01 F400.00
G01 X29.3713 Y25.4431
G01 X29.3389 Y25.4693
G01 X29.3280 Y25.4802
G01 X29.3280 Y25.3798
G01 X29.3388 Y25.3906
G01 X29.3713 Y25.4169
G01 X29.3915 Y25.4300
G01 X29.3713 Y25.4431
G00 Z2.0000
G00 X29.3636 Y26.3650
G01 F350.00
G01 Z-0.1306
G01 F400.00
G01 X29.3636 Y25.7650
G01 X29.3649 Y25.7398
G01 X29.3689 Y25.7149
G01 X29.3754 Y25.6905
G01 X29.3844 Y25.6670
G01 X29.3959 Y25.6444
G01 X29.4097 Y25.6232
G01 X29.4256 Y25.6035
G01 X29.4435 Y25.5856
G01 X29.4632 Y25.5697
G01 X29.4844 Y25.5559
G01 X29.5070 Y25.5444
G01 X29.5305 Y25.5354
G01 X29.5549 Y25.5289
G01 X29.5798 Y25.5249
G01 X29.6050 Y25.5236
G01 X31.1550 Y25.5236
G01 X31.1802 Y25.5249
G01 X31.2051 Y25.5289
G01 X31.2295 Y25.5354
G01 X31.2530 Y25.5444
G01 X31.2756 Y25.5559
G01 X31.2968 Y25.5697
G01 X31.3165 Y25.5856
G01 X31.3344 Y25.6035
G01 X31.3503 Y25.6232
G01 X31.3641 Y25.6444
G01 X31.3756 Y25.6670
G01 X31.3846 Y25.6905
G01 X31.3911 Y25.7149
G01 X31.3951 Y25.7398
G01 X31.3964 Y25.7650
G01 X31.3964 Y26.3650
G01 X31.3951 Y26.3902
G01 X31.3911 Y26.4151
G01 X31.3846 Y26.4395
G01 X31.3756 Y26.4630
G01 X31.3641 Y26.4856
G01 X31.3503 Y26.5068
G01 X31.3344 Y26.5265
G01 X31.3165 Y26.5444
G01 X31.2968 Y26.5603
G01 X31.2756 Y26.5741
G01 X31.2530 Y26.5856
G01 X31.2295 Y26.5946
G01 X31.2051 Y26.6011
G01 X31.1802 Y26.6051
G01 X31.1550 Y26.6064
G01 X29.6050 Y26.6064
G01 X29.5798 Y26.6051
G01 X29.5549 Y26.6011
G01 X29.5305 Y26.5946
G01 X29.5070 Y26.5856
G01 X29.4844 Y26.5741
G01 X29.4632 Y26.5603
G01 X29.4435 Y26.5444
G01 X29.4256 Y26.5265
G01 X29.4097 Y26.5068
G01 X29.3959 Y26.4856
G01 X29.3844 Y26.4630
G01 X29.3754 Y26.4395
G01 X29.3689 Y26.4151
G01 X29.3649 Y26.3902
G01 X29.3636 Y26.3650
G01 X29.3636 Y25.7650
G00 Z2.0000
G00 X29.5200 Y26.3650
G01 F350.00
G01 Z-0.1306
G01 F400.00
G01 X29.5205 Y25.7561
G01 X29.5241 Y25.7388
G01 X29.5273 Y25.7305
G01 X29.5362 Y25.7151
G01 X29.5418 Y25.7081
G01 X29.5551 Y25.6962
G01 X29.5625 Y25.6914
G01 X29.5788 Y25.6841
G01 X29.5961 Y25.6805
G01 X29.6050 Y25.6800
G01 X31.1550 Y25.6800
G01 X31.1726 Y25.6819
G01 X31.1812 Y25.6841
G01 X31.1975 Y25.6914
G01 X31.2049 Y25.6962
G01 X31.2182 Y25.7081
G01 X31.2238 Y25.7151
G01 X31.2286 Y25.7225
G01 X31.2359 Y25.7388
G01 X31.2381 Y25.7474
G01 X31.2400 Y25.7650
G01 X31.2395 Y26.3739
G01 X31.2359 Y26.3912
G01 X31.2327 Y26.3995
G01 X31.2286 Y26.4075
G01 X31.2182 Y26.4219
G01 X31.2049 Y26.4338
G01 X31.1975 Y26.4386
G01 X31.1812 Y26.4459
G01 X31.1726 Y26.4481
G01 X31.1550 Y26.4500
G01 X29.6050 Y26.4500
G01 X29.5874 Y26.4481
G01 X29.5705 Y26.4427
G01 X29.5625 Y26.4386
G01 X29.5481 Y26.4282
G01 X29.5362 Y26.4149
G01 X29.5273 Y26.3995
G01 X29.5219 Y26.3826
G01 X29.5200 Y26.3650
G01 X29.5205 Y25.7561
G00 Z2.0000
G00 X30.7296 Y27.0412
G01 F350.00
G01 Z-0.1306
G01 F400.00
G01 X30.6128 Y27.0076
G01 X30.5748 Y26.9992
G01 X30.4366 Y26.9757
G01 X30.4060 Y26.9717
G01 X30.3923 Y26.9707
G01 X30.2523 Y26.9628
G01 X30.2300 Y26.9622
G01 X30.2077 Y26.9628
G01 X30.0540 Y26.9717
G01 X30.0234 Y26.9757
G01 X29.8852 Y26.9992
G01 X29.8417 Y27.0091
G01 X29.7070 Y27.0479
G01 X29.6683 Y27.0613
G01 X29.3280 Y26.7209
G01 X29.3280 Y26.6498
G01 X29.3388 Y26.6606
G01 X29.3713 Y26.6869
G01 X29.4063 Y26.7096
G01 X29.4434 Y26.7285
G01 X29.4823 Y26.7434
G01 X29.5224 Y26.7541
G01 X29.5635 Y26.7606
G01 X29.6050 Y26.7628
G01 X30.7807 Y26.7628
G01 X30.7726 Y26.7803
G01 X30.7602 Y26.8105
G01 X30.7520 Y26.8347
G01 X30.7404 Y26.8773
G01 X30.7353 Y26.9025
G01 X30.7294 Y26.9487
G01 X30.7275 Y26.9877
G01 X30.7277 Y27.0069
G01 X30.7296 Y27.0412
G01 X30.6128 Y27.0076
G00 Z2.0000
G00 X28.3343 Y27.9225
G01 F350.00
G01 Z-0.1306
G01 F400.00
G01 X28.5037 Y28.0919
G01 X28.4767 Y28.1860
G01 X28.4650 Y28.2390
G01 X28.4415 Y28.3772
G01 X28.4359 Y28.4199
G01 X28.4287 Y28.5420
G01 X28.3343 Y28.4476
G01 X28.3343 Y27.9225
G01 X28.5037 Y28.0919
G00 Z2.0000
G00 X28.1779 Y27.5450
G01 F350.00
G01 Z-0.1306
G01 F400.00
G01 X28.6813 Y28.0483
G01 X28.6679 Y28.0870
G01 X28.6276 Y28.2272
G01 X28.6192 Y28.2652
G01 X28.5957 Y28.4034
G01 X28.5917 Y28.4340
G01 X28.5907 Y28.4477
G01 X28.5828 Y28.5877
G01 X28.5822 Y28.6100
G01 X28.5828 Y28.6323
G01 X28.5917 Y28.7860
G01 X28.5957 Y28.8166
G01 X28.6189 Y28.9534
G01 X28.1779 Y28.5123
G01 X28.1779 Y27.5450
G01 X28.6813 Y28.0483
G00 Z2.0000
G00 X29.9150 Y30.2494
G01 F350.00
G01 Z-0.1306
G01 F400.00
G01 X29.8866 Y30.2211
G01 X29.9270 Y30.2279
G01 X29.9150 Y30.2494
G01 X29.8866 Y30.2211
G00 Z2.0000
G00 X33.5684 Y29.3686
G01 F350.00
G01 Z-0.1306
G01 F400.00
G01 X33.5746 Y29.3241
G01 X33.5778 Y29.2600
G01 X33.5778 Y28.3600
G01 X33.5746 Y28.2959
G01 X33.5684 Y28.2514
G01 X33.6078 Y28.2496
G01 X33.6514 Y28.2442
G01 X33.6728 Y28.2403
G01 X33.6946 Y28.2349
G01 X33.6913 Y28.2529
G01 X33.6854 Y28.2959
G01 X33.6822 Y28.3600
G01 X33.6822 Y29.2600
G01 X33.6854 Y29.3241
G01 X33.6913 Y29.3671
G01 X33.6946 Y29.3851
G01 X33.6728 Y29.3797
G01 X33.6514 Y29.3758
G01 X33.6078 Y29.3704
G01 X33.5684 Y29.3686
G01 X33.5746 Y29.3241
G00 Z2.0000
G00 X34.9941 Y29.6937
G01 F350.00
G01 Z-0.1306
G01 F400.00
G01 X35.2333 Y29.9329
G01 X35.0286 Y29.9329
G01 X34.9941 Y29.8984
G01 X34.9941 Y29.6937
G01 X35.2333 Y29.9329
G00 Z2.0000
G00 X35.6529 Y29.2633
G01 F350.00
G01 Z-0.1306
G01 F400.00
G01 X35.5387 Y29.1491
G01 X35.6184 Y29.1491
G01 X35.6529 Y29.1836
G01 X35.6529 Y29.2633
G01 X35.5387 Y29.1491
G00 Z2.0000
G00 X34.9941 Y28.0256
G01 F350.00
G01 Z-0.1306
G01 F400.00
G01 X34.9941 Y27.7216
G01 X35.0286 Y27.6871
G01 X35.3141 Y27.6871
G01 X35.4696 Y27.7515
G01 X35.5885 Y27.8704
G01 X35.6529 Y28.0259
G01 X35.6529 Y28.4364
G01 X35.6184 Y28.4709
G01 X35.3150 Y28.4709
G01 X35.3149 Y28.3558
G01 X35.3134 Y28.3270
G01 X35.3082 Y28.2928
G01 X35.3007 Y28.2630
G01 X35.2886 Y28.2298
G01 X35.2765 Y28.2041
G01 X35.2561 Y28.1705
G01 X35.2362 Y28.1443
G01 X35.2169 Y28.1231
G01 X35.1957 Y28.1038
G01 X35.1660 Y28.0814
G01 X35.1415 Y28.0666
G01 X35.1102 Y28.0514
G01 X35.0770 Y28.0393
G01 X35.0412 Y28.0307
G01 X35.0130 Y28.0266
G01 X34.9941 Y28.0256
G01 X34.9941 Y27.7216
G00 Z2.0000
G00 X35.1505 Y27.8435
G01 F350.00
G01 Z-0.1306
G01 F400.00
G01 X35.2830 Y27.8435
G01 X35.3810 Y27.8840
G01 X35.4560 Y27.9590
G01 X35.4965 Y28.0570
G01 X35.4965 Y28.3145
G01 X35.4692 Y28.3145
G01 X35.4640 Y28.2758
G01 X35.4608 Y28.2589
G01 X35.4505 Y28.2181
G01 X35.4383 Y28.1830
G01 X35.4316 Y28.1663
G01 X35.4164 Y28.1342
G01 X35.3949 Y28.0970
G01 X35.3818 Y28.0773
G01 X35.3565 Y28.0443
G01 X35.3356 Y28.0211
G01 X35.3189 Y28.0044
G01 X35.3007 Y27.9879
G01 X35.2824 Y27.9729
G01 X35.2528 Y27.9513
G01 X35.2219 Y27.9325
G01 X35.2058 Y27.9236
G01 X35.1789 Y27.9108
G01 X35.1505 Y27.8994
G01 X35.1505 Y27.8435
G01 X35.2830 Y27.8435
G00 Z2.0000
G00 X34.9200 Y26.3650
G01 F350.00
G01 Z-0.1306
G01 F400.00
G01 X34.9205 Y25.7561
G01 X34.9241 Y25.7388
G01 X34.9273 Y25.7305
G01 X34.9314 Y25.7225
G01 X34.9418 Y25.7081
G01 X34.9481 Y25.7018
G01 X34.9625 Y25.6914
G01 X34.9705 Y25.6873
G01 X34.9874 Y25.6819
G01 X35.0050 Y25.6800
G01 X36.5550 Y25.6800
G01 X36.5726 Y25.6819
G01 X36.5812 Y25.6841
G01 X36.5975 Y25.6914
G01 X36.6049 Y25.6962
G01 X36.6182 Y25.7081
G01 X36.6238 Y25.7151
G01 X36.6298 Y25.7248
G01 X37.6450 Y25.7248
G01 X37.6450 Y25.6600
G01 X37.6463 Y25.6313
G01 X37.6518 Y25.5928
G01 X37.6593 Y25.5630
G01 X37.6714 Y25.5298
G01 X37.6835 Y25.5041
G01 X37.6992 Y25.4774
G01 X37.7238 Y25.4443
G01 X37.7431 Y25.4231
G01 X37.7708 Y25.3985
G01 X37.7940 Y25.3814
G01 X37.8241 Y25.3635
G01 X37.8498 Y25.3514
G01 X37.8830 Y25.3393
G01 X37.9128 Y25.3318
G01 X37.9430 Y25.3271
G01 X37.9800 Y25.3250
G01 X38.6342 Y25.3251
G01 X38.6630 Y25.3266
G01 X38.6912 Y25.3307
G01 X38.7270 Y25.3393
G01 X38.7620 Y25.3522
G01 X38.7859 Y25.3635
G01 X38.8160 Y25.3814
G01 X38.8439 Y25.4022
G01 X38.8669 Y25.4231
G01 X38.8878 Y25.4461
G01 X38.9108 Y25.4774
G01 X38.9265 Y25.5041
G01 X38.9378 Y25.5280
G01 X38.9493 Y25.5588
G01 X38.9582 Y25.5928
G01 X38.9634 Y25.6270
G01 X38.9650 Y25.6600
G01 X38.9650 Y26.5600
G01 X38.9634 Y26.5930
G01 X38.9582 Y26.6272
G01 X38.9507 Y26.6570
G01 X38.9386 Y26.6902
G01 X38.9273 Y26.7142
G01 X38.9061 Y26.7495
G01 X38.8878 Y26.7739
G01 X38.8639 Y26.7998
G01 X38.8439 Y26.8178
G01 X38.8160 Y26.8386
G01 X38.7859 Y26.8565
G01 X38.7602 Y26.8686
G01 X38.7270 Y26.8807
G01 X38.6972 Y26.8882
G01 X38.6630 Y26.8934
G01 X38.6402 Y26.8946
G01 X38.6402 Y27.5306
G01 X38.6812 Y27.5407
G01 X38.7102 Y27.5514
G01 X38.7359 Y27.5635
G01 X38.7695 Y27.5839
G01 X38.7939 Y27.6022
G01 X38.8169 Y27.6231
G01 X38.8378 Y27.6461
G01 X38.8561 Y27.6705
G01 X38.8765 Y27.7041
G01 X38.8886 Y27.7298
G01 X38.8993 Y27.7588
G01 X38.9093 Y27.7988
G01 X38.9134 Y27.8270
G01 X38.9150 Y27.8600
G01 X38.9149 Y28.7642
G01 X38.9134 Y28.7930
G01 X38.9093 Y28.8212
G01 X38.9007 Y28.8570
G01 X38.8878 Y28.8920
G01 X38.8765 Y28.9159
G01 X38.8586 Y28.9460
G01 X38.8378 Y28.9739
G01 X38.8169 Y28.9969
G01 X38.7939 Y29.0178
G01 X38.7660 Y29.0386
G01 X38.7359 Y29.0565
G01 X38.7102 Y29.0686
G01 X38.6770 Y29.0807
G01 X38.6412 Y29.0893
G01 X38.6130 Y29.0934
G01 X38.5800 Y29.0950
G01 X37.9258 Y29.0949
G01 X37.8970 Y29.0934
G01 X37.8688 Y29.0893
G01 X37.8330 Y29.0807
G01 X37.7980 Y29.0678
G01 X37.7741 Y29.0565
G01 X37.7474 Y29.0408
G01 X37.7161 Y29.0178
G01 X37.6902 Y28.9939
G01 X37.6722 Y28.9739
G01 X37.6539 Y28.9495
G01 X37.6335 Y28.9159
G01 X37.6214 Y28.8902
G01 X37.6083 Y28.8532
G01 X37.6018 Y28.8272
G01 X37.5971 Y28.7970
G01 X37.5951 Y28.7642
G01 X37.5950 Y27.8600
G01 X37.5966 Y27.8270
G01 X37.6007 Y27.7988
G01 X37.6107 Y27.7588
G01 X37.6214 Y27.7298
G01 X37.6335 Y27.7041
G01 X37.6539 Y27.6705
G01 X37.6722 Y27.6461
G01 X37.6931 Y27.6231
G01 X37.7161 Y27.6022
G01 X37.7405 Y27.5839
G01 X37.7741 Y27.5635
G01 X37.7998 Y27.5514
G01 X37.8288 Y27.5407
G01 X37.8698 Y27.5306
G01 X37.8698 Y26.8761
G01 X37.8498 Y26.8686
G01 X37.8185 Y26.8534
G01 X37.7940 Y26.8386
G01 X37.7661 Y26.8178
G01 X37.7431 Y26.7969
G01 X37.7222 Y26.7739
G01 X37.7014 Y26.7460
G01 X37.6866 Y26.7215
G01 X37.6714 Y26.6902
G01 X37.6607 Y26.6612
G01 X37.6507 Y26.6212
G01 X37.6466 Y26.5930
G01 X37.6451 Y26.5642
G01 X37.6450 Y26.4952
G01 X35.8202 Y26.4950
G01 X35.7837 Y26.4929
G01 X35.7358 Y26.4846
G01 X35.6943 Y26.4722
G01 X35.6622 Y26.4590
G01 X35.6449 Y26.4500
G01 X34.9961 Y26.4495
G01 X34.9788 Y26.4459
G01 X34.9625 Y26.4386
G01 X34.9551 Y26.4338
G01 X34.9418 Y26.4219
G01 X34.9314 Y26.4075
G01 X34.9273 Y26.3995
G01 X34.9219 Y26.3826
G01 X34.9200 Y26.3650
G01 X34.9205 Y25.7561
G00 Z2.0000
G00 X34.7636 Y26.3650
G01 F350.00
G01 Z-0.1306
G01 F400.00
G01 X34.7636 Y25.7650
G01 X34.7649 Y25.7398
G01 X34.7689 Y25.7149
G01 X34.7754 Y25.6905
G01 X34.7844 Y25.6670
G01 X34.7959 Y25.6444
G01 X34.8097 Y25.6232
G01 X34.8256 Y25.6035
G01 X34.8435 Y25.5856
G01 X34.8632 Y25.5697
G01 X34.8844 Y25.5559
G01 X34.9070 Y25.5444
G01 X34.9305 Y25.5354
G01 X34.9549 Y25.5289
G01 X34.9798 Y25.5249
G01 X35.0050 Y25.5236
G01 X36.5550 Y25.5236
G01 X36.5802 Y25.5249
G01 X36.6051 Y25.5289
G01 X36.6295 Y25.5354
G01 X36.6530 Y25.5444
G01 X36.6756 Y25.5559
G01 X36.6950 Y25.5684
G01 X37.4974 Y25.5684
G01 X37.5066 Y25.5288
G01 X37.5135 Y25.5061
G01 X37.5284 Y25.4663
G01 X37.5436 Y25.4342
G01 X37.5651 Y25.3970
G01 X37.5782 Y25.3773
G01 X37.6035 Y25.3443
G01 X37.6325 Y25.3125
G01 X37.6643 Y25.2835
G01 X37.6973 Y25.2582
G01 X37.7170 Y25.2451
G01 X37.7542 Y25.2236
G01 X37.7863 Y25.2084
G01 X37.8261 Y25.1935
G01 X37.8488 Y25.1866
G01 X37.8789 Y25.1792
G01 X37.8958 Y25.1760
G01 X37.9315 Y25.1710
G01 X37.9800 Y25.1686
G01 X38.6300 Y25.1686
G01 X38.6664 Y25.1701
G01 X38.6899 Y25.1724
G01 X38.7311 Y25.1792
G01 X38.7612 Y25.1866
G01 X38.7839 Y25.1935
G01 X38.8070 Y25.2017
G01 X38.8289 Y25.2108
G01 X38.8558 Y25.2236
G01 X38.8930 Y25.2451
G01 X38.9127 Y25.2582
G01 X38.9457 Y25.2835
G01 X38.9689 Y25.3044
G01 X38.9856 Y25.3211
G01 X39.0065 Y25.3443
G01 X39.0318 Y25.3773
G01 X39.0387 Y25.3872
G01 X39.0575 Y25.4181
G01 X39.0664 Y25.4342
G01 X39.0816 Y25.4663
G01 X39.0883 Y25.4830
G01 X39.1005 Y25.5181
G01 X39.1108 Y25.5589
G01 X39.1140 Y25.5758
G01 X39.1190 Y25.6115
G01 X39.1211 Y25.6482
G01 X39.1214 Y26.5600
G01 X39.1190 Y26.6085
G01 X39.1140 Y26.6442
G01 X39.1108 Y26.6611
G01 X39.1034 Y26.6912
G01 X39.0965 Y26.7139
G01 X39.0816 Y26.7537
G01 X39.0687 Y26.7811
G01 X39.0575 Y26.8019
G01 X39.0387 Y26.8328
G01 X39.0171 Y26.8624
G01 X39.0065 Y26.8757
G01 X38.9775 Y26.9075
G01 X38.9507 Y26.9321
G01 X38.9324 Y26.9471
G01 X38.9028 Y26.9687
G01 X38.8719 Y26.9875
G01 X38.8558 Y26.9964
G01 X38.8237 Y27.0116
G01 X38.7966 Y27.0220
G01 X38.7966 Y27.4192
G01 X38.8219 Y27.4325
G01 X38.8528 Y27.4513
G01 X38.8824 Y27.4729
G01 X38.8957 Y27.4835
G01 X38.9275 Y27.5125
G01 X38.9521 Y27.5393
G01 X38.9671 Y27.5576
G01 X38.9887 Y27.5872
G01 X39.0075 Y27.6181
G01 X39.0164 Y27.6342
G01 X39.0316 Y27.6663
G01 X39.0383 Y27.6830
G01 X39.0505 Y27.7181
G01 X39.0594 Y27.7526
G01 X39.0640 Y27.7758
G01 X39.0690 Y27.8115
G01 X39.0714 Y27.8600
G01 X39.0714 Y28.7600
G01 X39.0699 Y28.7964
G01 X39.0676 Y28.8199
G01 X39.0608 Y28.8611
G01 X39.0534 Y28.8912
G01 X39.0465 Y28.9139
G01 X39.0383 Y28.9370
G01 X39.0292 Y28.9589
G01 X39.0164 Y28.9858
G01 X38.9949 Y29.0230
G01 X38.9818 Y29.0427
G01 X38.9565 Y29.0757
G01 X38.9356 Y29.0989
G01 X38.9189 Y29.1156
G01 X38.8957 Y29.1365
G01 X38.8627 Y29.1618
G01 X38.8528 Y29.1687
G01 X38.8219 Y29.1875
G01 X38.8058 Y29.1964
G01 X38.7737 Y29.2116
G01 X38.7339 Y29.2265
G01 X38.7112 Y29.2334
G01 X38.6811 Y29.2408
G01 X38.6399 Y29.2476
G01 X38.6164 Y29.2499
G01 X38.5800 Y29.2514
G01 X37.9300 Y29.2514
G01 X37.8815 Y29.2490
G01 X37.8458 Y29.2440
G01 X37.8289 Y29.2408
G01 X37.7881 Y29.2305
G01 X37.7530 Y29.2183
G01 X37.7363 Y29.2116
G01 X37.7042 Y29.1964
G01 X37.6881 Y29.1875
G01 X37.6572 Y29.1687
G01 X37.6276 Y29.1471
G01 X37.6143 Y29.1365
G01 X37.5825 Y29.1075
G01 X37.5535 Y29.0757
G01 X37.5282 Y29.0427
G01 X37.5151 Y29.0230
G01 X37.4936 Y28.9858
G01 X37.4808 Y28.9589
G01 X37.4717 Y28.9370
G01 X37.4635 Y28.9139
G01 X37.4566 Y28.8912
G01 X37.4492 Y28.8611
G01 X37.4424 Y28.8199
G01 X37.4401 Y28.7964
G01 X37.4386 Y28.7600
G01 X37.4386 Y27.8600
G01 X37.4410 Y27.8115
G01 X37.4460 Y27.7758
G01 X37.4506 Y27.7526
G01 X37.4595 Y27.7181
G01 X37.4717 Y27.6830
G01 X37.4784 Y27.6663
G01 X37.4936 Y27.6342
G01 X37.5025 Y27.6181
G01 X37.5213 Y27.5872
G01 X37.5429 Y27.5576
G01 X37.5579 Y27.5393
G01 X37.5825 Y27.5125
G01 X37.6143 Y27.4835
G01 X37.6276 Y27.4729
G01 X37.6572 Y27.4513
G01 X37.6881 Y27.4325
G01 X37.7134 Y27.4192
G01 X37.7134 Y26.9727
G01 X37.6973 Y26.9618
G01 X37.6643 Y26.9365
G01 X37.6325 Y26.9075
G01 X37.6035 Y26.8757
G01 X37.5929 Y26.8624
G01 X37.5713 Y26.8328
G01 X37.5525 Y26.8019
G01 X37.5436 Y26.7858
G01 X37.5284 Y26.7537
G01 X37.5217 Y26.7370
G01 X37.5095 Y26.7019
G01 X37.5006 Y26.6674
G01 X37.4974 Y26.6516
G01 X35.8250 Y26.6516
G01 X35.7695 Y26.6487
G01 X35.7178 Y26.6406
G01 X35.6947 Y26.6355
G01 X35.6590 Y26.6253
G01 X35.6362 Y26.6174
G01 X35.6095 Y26.6064
G01 X35.0050 Y26.6064
G01 X34.9798 Y26.6051
G01 X34.9549 Y26.6011
G01 X34.9305 Y26.5946
G01 X34.9070 Y26.5856
G01 X34.8844 Y26.5741
G01 X34.8632 Y26.5603
G01 X34.8435 Y26.5444
G01 X34.8256 Y26.5265
G01 X34.8097 Y26.5068
G01 X34.7959 Y26.4856
G01 X34.7844 Y26.4630
G01 X34.7754 Y26.4395
G01 X34.7689 Y26.4151
G01 X34.7649 Y26.3902
G01 X34.7636 Y26.3650
G01 X34.7636 Y25.7650
G00 Z2.0000
G00 X35.0050 Y24.4100
G01 F350.00
G01 Z-0.1306
G01 F400.00
G01 X36.5550 Y24.4100
G01 X36.5726 Y24.4119
G01 X36.5895 Y24.4173
G01 X36.6049 Y24.4262
G01 X36.6119 Y24.4318
G01 X36.6238 Y24.4451
G01 X36.6327 Y24.4605
G01 X36.6359 Y24.4688
G01 X36.6395 Y24.4861
G01 X36.6400 Y25.0950
G01 X36.6381 Y25.1126
G01 X36.6327 Y25.1295
G01 X36.6238 Y25.1449
G01 X36.6182 Y25.1519
G01 X36.6049 Y25.1638
G01 X36.5975 Y25.1686
G01 X36.5812 Y25.1759
G01 X36.5639 Y25.1795
G01 X36.5550 Y25.1800
G01 X35.0050 Y25.1800
G01 X34.9874 Y25.1781
G01 X34.9705 Y25.1727
G01 X34.9551 Y25.1638
G01 X34.9418 Y25.1519
G01 X34.9362 Y25.1449
G01 X34.9273 Y25.1295
G01 X34.9241 Y25.1212
G01 X34.9205 Y25.1039
G01 X34.9200 Y24.4950
G01 X34.9219 Y24.4774
G01 X34.9273 Y24.4605
G01 X34.9362 Y24.4451
G01 X34.9481 Y24.4318
G01 X34.9625 Y24.4214
G01 X34.9705 Y24.4173
G01 X34.9874 Y24.4119
G01 X35.0050 Y24.4100
G01 X36.5550 Y24.4100
G00 Z2.0000
G00 X35.0050 Y24.2536
G01 F350.00
G01 Z-0.1306
G01 F400.00
G01 X36.5550 Y24.2536
G01 X36.5802 Y24.2549
G01 X36.6051 Y24.2589
G01 X36.6295 Y24.2654
G01 X36.6530 Y24.2744
G01 X36.6756 Y24.2859
G01 X36.6968 Y24.2997
G01 X36.7165 Y24.3156
G01 X36.7344 Y24.3335
G01 X36.7503 Y24.3532
G01 X36.7641 Y24.3744
G01 X36.7756 Y24.3970
G01 X36.7846 Y24.4205
G01 X36.7911 Y24.4449
G01 X36.7951 Y24.4698
G01 X36.7964 Y24.4950
G01 X36.7964 Y25.0950
G01 X36.7951 Y25.1202
G01 X36.7911 Y25.1451
G01 X36.7846 Y25.1695
G01 X36.7756 Y25.1930
G01 X36.7641 Y25.2156
G01 X36.7503 Y25.2368
G01 X36.7344 Y25.2565
G01 X36.7165 Y25.2744
G01 X36.6968 Y25.2903
G01 X36.6756 Y25.3041
G01 X36.6530 Y25.3156
G01 X36.6295 Y25.3246
G01 X36.6051 Y25.3311
G01 X36.5802 Y25.3351
G01 X36.5550 Y25.3364
G01 X35.0050 Y25.3364
G01 X34.9798 Y25.3351
G01 X34.9549 Y25.3311
G01 X34.9305 Y25.3246
G01 X34.9070 Y25.3156
G01 X34.8844 Y25.3041
G01 X34.8632 Y25.2903
G01 X34.8435 Y25.2744
G01 X34.8256 Y25.2565
G01 X34.8097 Y25.2368
G01 X34.7959 Y25.2156
G01 X34.7844 Y25.1930
G01 X34.7754 Y25.1695
G01 X34.7689 Y25.1451
G01 X34.7649 Y25.1202
G01 X34.7636 Y25.0950
G01 X34.7636 Y24.4950
G01 X34.7649 Y24.4698
G01 X34.7689 Y24.4449
G01 X34.7754 Y24.4205
G01 X34.7844 Y24.3970
G01 X34.7959 Y24.3744
G01 X34.8097 Y24.3532
G01 X34.8256 Y24.3335
G01 X34.8435 Y24.3156
G01 X34.8632 Y24.2997
G01 X34.8844 Y24.2859
G01 X34.9070 Y24.2744
G01 X34.9305 Y24.2654
G01 X34.9549 Y24.2589
G01 X34.9798 Y24.2549
G01 X35.0050 Y24.2536
G01 X36.5550 Y24.2536
G00 Z2.0000
G00 X35.0050 Y23.1400
G01 F350.00
G01 Z-0.1306
G01 F400.00
G01 X36.5550 Y23.1400
G01 X36.5726 Y23.1419
G01 X36.5895 Y23.1473
G01 X36.6049 Y23.1562
G01 X36.6119 Y23.1618
G01 X36.6238 Y23.1751
G01 X36.6327 Y23.1905
G01 X36.6359 Y23.1988
G01 X36.6395 Y23.2161
G01 X36.6400 Y23.8250
G01 X36.6381 Y23.8426
G01 X36.6327 Y23.8595
G01 X36.6238 Y23.8749
G01 X36.6182 Y23.8819
G01 X36.6049 Y23.8938
G01 X36.5975 Y23.8986
G01 X36.5812 Y23.9059
G01 X36.5639 Y23.9095
G01 X36.5550 Y23.9100
G01 X35.0050 Y23.9100
G01 X34.9874 Y23.9081
G01 X34.9705 Y23.9027
G01 X34.9551 Y23.8938
G01 X34.9418 Y23.8819
G01 X34.9362 Y23.8749
G01 X34.9273 Y23.8595
G01 X34.9241 Y23.8512
G01 X34.9205 Y23.8339
G01 X34.9200 Y23.2250
G01 X34.9219 Y23.2074
G01 X34.9273 Y23.1905
G01 X34.9362 Y23.1751
G01 X34.9481 Y23.1618
G01 X34.9625 Y23.1514
G01 X34.9705 Y23.1473
G01 X34.9874 Y23.1419
G01 X35.0050 Y23.1400
G01 X36.5550 Y23.1400
G00 Z2.0000
G00 X35.0050 Y22.9836
G01 F350.00
G01 Z-0.1306
G01 F400.00
G01 X36.5550 Y22.9836
G01 X36.5802 Y22.9849
G01 X36.6051 Y22.9889
G01 X36.6295 Y22.9954
G01 X36.6530 Y23.0044
G01 X36.6756 Y23.0159
G01 X36.6968 Y23.0297
G01 X36.7165 Y23.0456
G01 X36.7344 Y23.0635
G01 X36.7503 Y23.0832
G01 X36.7641 Y23.1044
G01 X36.7756 Y23.1270
G01 X36.7846 Y23.1505
G01 X36.7911 Y23.1749
G01 X36.7951 Y23.1998
G01 X36.7964 Y23.2250
G01 X36.7964 Y23.8250
G01 X36.7951 Y23.8502
G01 X36.7911 Y23.8751
G01 X36.7846 Y23.8995
G01 X36.7756 Y23.9230
G01 X36.7641 Y23.9456
G01 X36.7503 Y23.9668
G01 X36.7344 Y23.9865
G01 X36.7165 Y24.0044
G01 X36.6968 Y24.0203
G01 X36.6756 Y24.0341
G01 X36.6530 Y24.0456
G01 X36.6295 Y24.0546
G01 X36.6051 Y24.0611
G01 X36.5802 Y24.0651
G01 X36.5550 Y24.0664
G01 X35.0050 Y24.0664
G01 X34.9798 Y24.0651
G01 X34.9549 Y24.0611
G01 X34.9305 Y24.0546
G01 X34.9070 Y24.0456
G01 X34.8844 Y24.0341
G01 X34.8632 Y24.0203
G01 X34.8435 Y24.0044
G01 X34.8256 Y23.9865
G01 X34.8097 Y23.9668
G01 X34.7959 Y23.9456
G01 X34.7844 Y23.9230
G01 X34.7754 Y23.8995
G01 X34.7689 Y23.8751
G01 X34.7649 Y23.8502
G01 X34.7636 Y23.8250
G01 X34.7636 Y23.2250
G01 X34.7649 Y23.1998
G01 X34.7689 Y23.1749
G01 X34.7754 Y23.1505
G01 X34.7844 Y23.1270
G01 X34.7959 Y23.1044
G01 X34.8097 Y23.0832
G01 X34.8256 Y23.0635
G01 X34.8435 Y23.0456
G01 X34.8632 Y23.0297
G01 X34.8844 Y23.0159
G01 X34.9070 Y23.0044
G01 X34.9305 Y22.9954
G01 X34.9549 Y22.9889
G01 X34.9798 Y22.9849
G01 X35.0050 Y22.9836
G01 X36.5550 Y22.9836
G00 Z2.0000
G00 X34.4302 Y21.9323
G01 F350.00
G01 Z-0.1306
G01 F400.00
G01 X34.3838 Y21.9012
G01 X34.2240 Y21.6621
G01 X34.2151 Y21.6172
G01 X34.2151 Y19.6088
G01 X34.7493 Y19.0746
G01 X35.0607 Y19.0746
G01 X35.9154 Y19.9293
G01 X35.9154 Y20.6391
G01 X35.8594 Y20.9207
G01 X35.7993 Y21.0105
G01 X35.7894 Y21.0272
G01 X35.7769 Y21.0546
G01 X35.7689 Y21.0816
G01 X35.7649 Y21.1055
G01 X35.7636 Y21.1263
G01 X35.7646 Y21.1485
G01 X35.7675 Y21.1683
G01 X35.7695 Y21.1779
G01 X35.7765 Y21.2011
G01 X35.7848 Y21.2207
G01 X35.7931 Y21.2361
G01 X35.8090 Y21.2595
G01 X35.8257 Y21.2783
G01 X36.0084 Y21.4608
G01 X36.0234 Y21.4740
G01 X36.0435 Y21.4880
G01 X36.0586 Y21.4964
G01 X36.0813 Y21.5064
G01 X36.1030 Y21.5131
G01 X36.1123 Y21.5152
G01 X36.1329 Y21.5185
G01 X36.1501 Y21.5195
G01 X36.5341 Y21.5196
G01 X36.7200 Y21.5566
G01 X36.7647 Y21.5865
G01 X36.7864 Y21.5992
G01 X36.8121 Y21.6101
G01 X36.8290 Y21.6153
G01 X36.8449 Y21.6187
G01 X36.8450 Y22.3148
G01 X36.8465 Y22.3401
G01 X36.8529 Y22.3769
G01 X36.8622 Y22.4076
G01 X36.8712 Y22.4293
G01 X36.8753 Y22.4379
G01 X36.8912 Y22.4656
G01 X36.9064 Y22.4869
G01 X36.9284 Y22.5116
G01 X37.4494 Y23.0326
G01 X37.4466 Y23.0520
G01 X37.4450 Y23.0850
G01 X37.4451 Y23.7392
G01 X37.4466 Y23.7680
G01 X37.4518 Y23.8022
G01 X37.4594 Y23.8320
G01 X37.4714 Y23.8652
G01 X37.4835 Y23.8909
G01 X37.5014 Y23.9210
G01 X37.5222 Y23.9489
G01 X37.5402 Y23.9689
G01 X37.5708 Y23.9965
G01 X37.5940 Y24.0136
G01 X37.6241 Y24.0315
G01 X37.6498 Y24.0436
G01 X37.6830 Y24.0557
G01 X37.7128 Y24.0632
G01 X37.7430 Y24.0679
G01 X37.7800 Y24.0700
G01 X37.8909 Y24.0700
G01 X37.8909 Y24.3734
G01 X37.8564 Y24.4079
G01 X37.4459 Y24.4079
G01 X37.2836 Y24.3407
G01 X37.2662 Y24.3345
G01 X37.2438 Y24.3287
G01 X37.2347 Y24.3271
G01 X37.2184 Y24.3252
G01 X37.1969 Y24.3247
G01 X37.1748 Y24.3265
G01 X37.1521 Y24.3307
G01 X37.1248 Y24.3393
G01 X37.1058 Y24.3479
G01 X37.0847 Y24.3603
G01 X37.0648 Y24.3753
G01 X37.0461 Y24.3934
G01 X37.0315 Y24.4113
G01 X37.0188 Y24.4307
G01 X37.0113 Y24.4449
G01 X37.0032 Y24.4641
G01 X36.9964 Y24.4868
G01 X36.9915 Y24.5151
G01 X36.9904 Y24.5366
G01 X36.9904 Y25.0741
G01 X36.9778 Y25.1383
G01 X36.9753 Y25.1564
G01 X36.9745 Y25.1781
G01 X36.9770 Y25.2073
G01 X36.9798 Y25.2219
G01 X36.9862 Y25.2444
G01 X36.9895 Y25.2532
G01 X36.9993 Y25.2745
G01 X37.0093 Y25.2914
G01 X37.0197 Y25.3058
G01 X37.0257 Y25.3131
G01 X37.0418 Y25.3299
G01 X37.0562 Y25.3423
G01 X37.0727 Y25.3539
G01 X37.1002 Y25.3686
G01 X37.1220 Y25.3769
G01 X37.1363 Y25.3810
G01 X37.1678 Y25.3862
G01 X37.1865 Y25.3871
G01 X37.2455 Y25.3871
G01 X37.2731 Y25.3852
G01 X37.2953 Y25.3811
G01 X37.3107 Y25.3767
G01 X37.3308 Y25.3690
G01 X37.3527 Y25.3579
G01 X37.3750 Y25.3429
G01 X37.3954 Y25.3249
G01 X37.4068 Y25.3126
G01 X37.4218 Y25.2928
G01 X37.4983 Y25.1783
G01 X37.7193 Y25.0306
G01 X38.0009 Y24.9746
G01 X38.6091 Y24.9746
G01 X38.8907 Y25.0306
G01 X39.1117 Y25.1783
G01 X39.1537 Y25.2411
G01 X39.1654 Y25.2568
G01 X39.1832 Y25.2763
G01 X39.2024 Y25.2927
G01 X39.2232 Y25.3065
G01 X39.2510 Y25.3200
G01 X39.2744 Y25.3279
G01 X39.2929 Y25.3321
G01 X39.3129 Y25.3346
G01 X39.3444 Y25.3349
G01 X39.3671 Y25.3321
G01 X39.3885 Y25.3271
G01 X39.4090 Y25.3200
G01 X39.4310 Y25.3097
G01 X39.4576 Y25.2927
G01 X39.4768 Y25.2763
G01 X39.4946 Y25.2568
G01 X39.5063 Y25.2411
G01 X39.5735 Y25.1404
G01 X39.5861 Y25.1178
G01 X39.5956 Y25.0947
G01 X39.6022 Y25.0709
G01 X39.6049 Y25.0559
G01 X39.6069 Y25.0310
G01 X39.6071 Y25.0260
G01 X39.6071 Y24.5195
G01 X39.6062 Y24.5011
G01 X39.6029 Y24.4782
G01 X39.5967 Y24.4543
G01 X39.5890 Y24.4342
G01 X39.5786 Y24.4136
G01 X39.5629 Y24.3900
G01 X39.5513 Y24.3763
G01 X39.5348 Y24.3602
G01 X39.5277 Y24.3542
G01 X39.5128 Y24.3432
G01 X39.4520 Y24.3026
G01 X39.4267 Y24.2881
G01 X39.4080 Y24.2801
G01 X39.3874 Y24.2736
G01 X39.3647 Y24.2691
G01 X39.3362 Y24.2668
G01 X39.3140 Y24.2678
G01 X39.2867 Y24.2722
G01 X39.2706 Y24.2766
G01 X39.2479 Y24.2852
G01 X39.2233 Y24.2981
G01 X39.2030 Y24.3123
G01 X39.1877 Y24.3256
G01 X39.1696 Y24.3435
G01 X39.0141 Y24.4079
G01 X38.6036 Y24.4079
G01 X38.5691 Y24.3734
G01 X38.5691 Y24.0700
G01 X38.6842 Y24.0699
G01 X38.7130 Y24.0684
G01 X38.7412 Y24.0643
G01 X38.7812 Y24.0543
G01 X38.8102 Y24.0436
G01 X38.8415 Y24.0284
G01 X38.8660 Y24.0136
G01 X38.8939 Y23.9928
G01 X38.9169 Y23.9719
G01 X38.9378 Y23.9489
G01 X38.9586 Y23.9210
G01 X38.9765 Y23.8909
G01 X38.9886 Y23.8652
G01 X39.0017 Y23.8282
G01 X39.0082 Y23.8022
G01 X39.0129 Y23.7720
G01 X39.0150 Y23.7350
G01 X39.0149 Y23.0808
G01 X39.0134 Y23.0520
G01 X39.0093 Y23.0238
G01 X39.0006 Y22.9880
G01 X38.9886 Y22.9548
G01 X38.9773 Y22.9308
G01 X38.9561 Y22.8955
G01 X38.9378 Y22.8711
G01 X38.9169 Y22.8481
G01 X38.8939 Y22.8272
G01 X38.8626 Y22.8042
G01 X38.8359 Y22.7885
G01 X38.8120 Y22.7772
G01 X38.7812 Y22.7657
G01 X38.7472 Y22.7568
G01 X38.7170 Y22.7521
G01 X38.6800 Y22.7500
G01 X37.9732 Y22.7500
G01 X37.4151 Y22.1919
G01 X37.4150 Y20.7360
G01 X37.4135 Y20.7106
G01 X37.4071 Y20.6738
G01 X37.3978 Y20.6431
G01 X37.3888 Y20.6214
G01 X37.3723 Y20.5905
G01 X37.3558 Y20.5668
G01 X37.3498 Y20.5593
G01 X37.3267 Y20.5343
G01 X37.5193 Y20.4056
G01 X37.8009 Y20.3496
G01 X38.6591 Y20.3496
G01 X38.9407 Y20.4056
G01 X39.1819 Y20.5668
G01 X39.1927 Y20.5752
G01 X39.2127 Y20.5880
G01 X39.2341 Y20.5984
G01 X39.2487 Y20.6040
G01 X39.2703 Y20.6100
G01 X39.2979 Y20.6143
G01 X39.3175 Y20.6150
G01 X39.3412 Y20.6135
G01 X39.3646 Y20.6094
G01 X39.3907 Y20.6016
G01 X39.4127 Y20.5919
G01 X39.4341 Y20.5794
G01 X39.6193 Y20.4556
G01 X39.9009 Y20.3996
G01 X40.7591 Y20.3996
G01 X41.0138 Y20.4503
G01 X41.0370 Y20.4536
G01 X41.0591 Y20.4543
G01 X41.0887 Y20.4517
G01 X41.1100 Y20.4471
G01 X41.1304 Y20.4405
G01 X41.1584 Y20.4275
G01 X41.1787 Y20.4146
G01 X41.1905 Y20.4055
G01 X41.2078 Y20.3894
G01 X41.2143 Y20.3823
G01 X41.2249 Y20.3694
G01 X41.2370 Y20.3512
G01 X41.2509 Y20.3237
G01 X41.2596 Y20.2981
G01 X41.2639 Y20.2797
G01 X41.2666 Y20.2579
G01 X41.2667 Y20.2287
G01 X41.2650 Y20.2122
G01 X41.2602 Y20.1886
G01 X41.2515 Y20.1621
G01 X41.0571 Y19.6928
G01 X41.0571 Y19.1559
G01 X41.0548 Y19.1259
G01 X41.0498 Y19.1013
G01 X41.0440 Y19.0826
G01 X41.0327 Y19.0572
G01 X41.0180 Y19.0334
G01 X41.0049 Y19.0165
G01 X40.9919 Y19.0031
G01 X40.9688 Y18.9837
G01 X36.6198 Y15.8555
G01 X36.4666 Y15.7524
G01 X36.4383 Y15.7376
G01 X36.4225 Y15.7316
G01 X36.3963 Y15.7246
G01 X36.2193 Y15.6894
G01 X35.9983 Y15.5417
G01 X35.8506 Y15.3207
G01 X35.7946 Y15.0391
G01 X35.7946 Y12.0809
G01 X35.8506 Y11.7993
G01 X35.9983 Y11.5783
G01 X36.2193 Y11.4306
G01 X36.5009 Y11.3746
G01 X37.5591 Y11.3746
G01 X37.8407 Y11.4306
G01 X38.0617 Y11.5783
G01 X38.2094 Y11.7993
G01 X38.2654 Y12.0809
G01 X38.2654 Y15.0391
G01 X38.2531 Y15.1016
G01 X38.2505 Y15.1207
G01 X38.2499 Y15.1423
G01 X38.2529 Y15.1740
G01 X38.2571 Y15.1934
G01 X38.2638 Y15.2138
G01 X38.2769 Y15.2417
G01 X38.2866 Y15.2575
G01 X38.3027 Y15.2783
G01 X38.3163 Y15.2923
G01 X38.3381 Y15.3104
G01 X41.8223 Y17.8165
G01 X41.8467 Y17.8316
G01 X41.8678 Y17.8414
G01 X41.8860 Y17.8478
G01 X41.9092 Y17.8532
G01 X41.9288 Y17.8557
G01 X41.9607 Y17.8559
G01 X41.9766 Y17.8542
G01 X42.0000 Y17.8494
G01 X42.0273 Y17.8403
G01 X42.3972 Y17.6871
G01 X43.0628 Y17.6871
G01 X43.6776 Y17.9418
G01 X44.1482 Y18.4124
G01 X44.4029 Y19.0272
G01 X44.4029 Y19.6928
G01 X44.1482 Y20.3076
G01 X43.6776 Y20.7782
G01 X43.5838 Y20.8171
G01 X43.5658 Y20.8257
G01 X43.5445 Y20.8386
G01 X43.5223 Y20.8562
G01 X43.5006 Y20.8792
G01 X43.4886 Y20.8953
G01 X43.4785 Y20.9124
G01 X43.4659 Y20.9400
G01 X43.4578 Y20.9682
G01 X43.4540 Y20.9931
G01 X43.4529 Y21.0130
G01 X43.4529 Y23.6429
G01 X43.4540 Y23.6638
G01 X43.4563 Y23.6802
G01 X43.4671 Y23.7350
G01 X43.4110 Y24.0171
G01 X43.2512 Y24.2562
G01 X43.2048 Y24.2873
G01 X43.1901 Y24.2985
G01 X43.1761 Y24.3113
G01 X41.4275 Y26.0599
G01 X41.4088 Y26.0814
G01 X41.3970 Y26.0985
G01 X41.3886 Y26.1136
G01 X41.3786 Y26.1363
G01 X41.3716 Y26.1592
G01 X41.3674 Y26.1814
G01 X41.3655 Y26.2051
G01 X41.3654 Y26.5391
G01 X41.3094 Y26.8207
G01 X41.1575 Y27.0480
G01 X41.1475 Y27.0646
G01 X41.1350 Y27.0920
G01 X41.1286 Y27.1126
G01 X41.1240 Y27.1352
G01 X41.1220 Y27.1575
G01 X41.1227 Y27.1859
G01 X41.1272 Y27.2132
G01 X41.1347 Y27.2385
G01 X41.1429 Y27.2581
G01 X41.1530 Y27.2766
G01 X41.1708 Y27.3014
G01 X41.1839 Y27.3157
G01 X41.2385 Y27.3704
G01 X41.3029 Y27.5259
G01 X41.3029 Y27.9364
G01 X41.2684 Y27.9709
G01 X40.9650 Y27.9709
G01 X40.9649 Y27.8558
G01 X40.9634 Y27.8270
G01 X40.9593 Y27.7988
G01 X40.9493 Y27.7588
G01 X40.9386 Y27.7298
G01 X40.9234 Y27.6985
G01 X40.9086 Y27.6740
G01 X40.8878 Y27.6461
G01 X40.8669 Y27.6231
G01 X40.8439 Y27.6022
G01 X40.8160 Y27.5814
G01 X40.7859 Y27.5635
G01 X40.7602 Y27.5514
G01 X40.7270 Y27.5393
G01 X40.6972 Y27.5318
G01 X40.6670 Y27.5271
G01 X40.6300 Y27.5250
G01 X39.9800 Y27.5250
G01 X39.9470 Y27.5266
G01 X39.9128 Y27.5318
G01 X39.8830 Y27.5393
G01 X39.8557 Y27.5490
G01 X39.8241 Y27.5635
G01 X39.7905 Y27.5839
G01 X39.7661 Y27.6022
G01 X39.7461 Y27.6202
G01 X39.7222 Y27.6461
G01 X39.6992 Y27.6774
G01 X39.6835 Y27.7041
G01 X39.6722 Y27.7280
G01 X39.6593 Y27.7630
G01 X39.6507 Y27.7988
G01 X39.6466 Y27.8270
G01 X39.6450 Y27.8600
G01 X39.6451 Y28.7642
G01 X39.6466 Y28.7930
G01 X39.6518 Y28.8272
G01 X39.6593 Y28.8570
G01 X39.6690 Y28.8843
G01 X39.6866 Y28.9215
G01 X39.7014 Y28.9460
G01 X39.7222 Y28.9739
G01 X39.7431 Y28.9969
G01 X39.7643 Y29.0162
G01 X39.7974 Y29.0408
G01 X39.8241 Y29.0565
G01 X39.8557 Y29.0710
G01 X39.8830 Y29.0807
G01 X39.9198 Y29.0894
G01 X39.9198 Y29.0955
G01 X39.6010 Y29.4143
G01 X39.4904 Y29.3685
G01 X39.3619 Y29.2402
G01 X39.3441 Y29.2250
G01 X39.3248 Y29.2118
G01 X39.3091 Y29.2032
G01 X39.2912 Y29.1954
G01 X39.2689 Y29.1883
G01 X39.2460 Y29.1836
G01 X39.2170 Y29.1813
G01 X39.1952 Y29.1823
G01 X39.1669 Y29.1870
G01 X39.1465 Y29.1929
G01 X39.1314 Y29.1987
G01 X39.1088 Y29.2101
G01 X38.8407 Y29.3894
G01 X38.5591 Y29.4454
G01 X37.9509 Y29.4454
G01 X37.6693 Y29.3894
G01 X37.4483 Y29.2417
G01 X37.3006 Y29.0207
G01 X37.2446 Y28.7391
G01 X37.2446 Y27.8809
G01 X37.3006 Y27.5993
G01 X37.4492 Y27.3769
G01 X37.4598 Y27.3684
G01 X37.4763 Y27.3522
G01 X37.4879 Y27.3385
G01 X37.4988 Y27.3229
G01 X37.5112 Y27.3007
G01 X37.5217 Y27.2743
G01 X37.5279 Y27.2503
G01 X37.5310 Y27.2305
G01 X37.5321 Y27.2090
G01 X37.5321 Y27.1566
G01 X37.5310 Y27.1366
G01 X37.5272 Y27.1117
G01 X37.5206 Y27.0879
G01 X37.5171 Y27.0785
G01 X37.5078 Y27.0582
G01 X37.4963 Y27.0387
G01 X37.4218 Y26.9272
G01 X37.4068 Y26.9074
G01 X37.3934 Y26.8931
G01 X37.3750 Y26.8771
G01 X37.3594 Y26.8662
G01 X37.3514 Y26.8614
G01 X37.3308 Y26.8510
G01 X37.3107 Y26.8433
G01 X37.2953 Y26.8389
G01 X37.2731 Y26.8348
G01 X37.2501 Y26.8331
G01 X35.9171 Y26.8329
G01 X35.8962 Y26.8340
G01 X35.8798 Y26.8363
G01 X35.8250 Y26.8471
G01 X35.6106 Y26.8045
G01 X35.5858 Y26.8011
G01 X35.5692 Y26.8004
G01 X35.0259 Y26.8004
G01 X34.8400 Y26.7634
G01 X34.7001 Y26.6699
G01 X34.6066 Y26.5300
G01 X34.5696 Y26.3441
G01 X34.5696 Y25.7859
G01 X34.6066 Y25.6000
G01 X34.6437 Y25.5443
G01 X34.6520 Y25.5302
G01 X34.6623 Y25.5081
G01 X34.6697 Y25.4860
G01 X34.6736 Y25.4684
G01 X34.6767 Y25.4445
G01 X34.6770 Y25.4232
G01 X34.6751 Y25.4006
G01 X34.6707 Y25.3783
G01 X34.6607 Y25.3482
G01 X34.6520 Y25.3298
G01 X34.6437 Y25.3157
G01 X34.6066 Y25.2600
G01 X34.5696 Y25.0741
G01 X34.5696 Y24.5159
G01 X34.6066 Y24.3300
G01 X34.6437 Y24.2743
G01 X34.6520 Y24.2602
G01 X34.6623 Y24.2381
G01 X34.6697 Y24.2160
G01 X34.6736 Y24.1984
G01 X34.6767 Y24.1745
G01 X34.6770 Y24.1532
G01 X34.6751 Y24.1306
G01 X34.6707 Y24.1083
G01 X34.6607 Y24.0782
G01 X34.6520 Y24.0598
G01 X34.6437 Y24.0457
G01 X34.6066 Y23.9900
G01 X34.5696 Y23.8041
G01 X34.5696 Y23.2459
G01 X34.6066 Y23.0600
G01 X34.6437 Y23.0043
G01 X34.6520 Y22.9902
G01 X34.6623 Y22.9681
G01 X34.6697 Y22.9460
G01 X34.6736 Y22.9284
G01 X34.6767 Y22.9045
G01 X34.6770 Y22.8832
G01 X34.6751 Y22.8606
G01 X34.6707 Y22.8383
G01 X34.6607 Y22.8082
G01 X34.6520 Y22.7898
G01 X34.6437 Y22.7757
G01 X34.6066 Y22.7200
G01 X34.5696 Y22.5341
G01 X34.5696 Y22.1548
G01 X34.5685 Y22.1329
G01 X34.5634 Y22.1042
G01 X34.5564 Y22.0813
G01 X34.5464 Y22.0586
G01 X34.5380 Y22.0435
G01 X34.5240 Y22.0234
G01 X34.5075 Y22.0049
G01 X34.4589 Y21.9563
G01 X34.4449 Y21.9435
G01 X34.4302 Y21.9323
G01 X34.3838 Y21.9012
G00 Z2.0000
G00 X34.2450 Y20.6600
G01 F350.00
G01 Z-0.1306
G01 F400.00
G01 X34.2450 Y19.7600
G01 X34.2466 Y19.7270
G01 X34.2518 Y19.6928
G01 X34.2593 Y19.6630
G01 X34.2714 Y19.6298
G01 X34.2827 Y19.6058
G01 X34.3039 Y19.5705
G01 X34.3222 Y19.5461
G01 X34.3431 Y19.5231
G01 X34.3661 Y19.5022
G01 X34.3940 Y19.4814
G01 X34.4241 Y19.4635
G01 X34.4498 Y19.4514
G01 X34.4830 Y19.4393
G01 X34.5128 Y19.4318
G01 X34.5470 Y19.4266
G01 X34.5800 Y19.4250
G01 X35.2300 Y19.4250
G01 X35.2630 Y19.4266
G01 X35.2972 Y19.4318
G01 X35.3232 Y19.4383
G01 X35.3602 Y19.4514
G01 X35.3859 Y19.4635
G01 X35.4126 Y19.4792
G01 X35.4439 Y19.5022
G01 X35.4669 Y19.5231
G01 X35.4878 Y19.5461
G01 X35.5086 Y19.5740
G01 X35.5265 Y19.6041
G01 X35.5386 Y19.6298
G01 X35.5507 Y19.6630
G01 X35.5582 Y19.6928
G01 X35.5634 Y19.7270
G01 X35.5650 Y19.7600
G01 X35.5650 Y20.6600
G01 X35.5634 Y20.6930
G01 X35.5582 Y20.7272
G01 X35.5517 Y20.7532
G01 X35.5378 Y20.7920
G01 X35.5265 Y20.8159
G01 X35.5086 Y20.8460
G01 X35.4878 Y20.8739
G01 X35.4698 Y20.8939
G01 X35.4392 Y20.9215
G01 X35.4160 Y20.9386
G01 X35.3859 Y20.9565
G01 X35.3602 Y20.9686
G01 X35.3312 Y20.9793
G01 X35.2902 Y20.9894
G01 X35.2902 Y21.2205
G01 X35.9397 Y21.8700
G01 X36.5550 Y21.8700
G01 X36.5726 Y21.8719
G01 X36.5895 Y21.8773
G01 X36.6049 Y21.8862
G01 X36.6182 Y21.8981
G01 X36.6286 Y21.9125
G01 X36.6327 Y21.9205
G01 X36.6381 Y21.9374
G01 X36.6400 Y21.9550
G01 X36.6400 Y22.5550
G01 X36.6381 Y22.5726
G01 X36.6327 Y22.5895
G01 X36.6286 Y22.5975
G01 X36.6182 Y22.6119
G01 X36.6049 Y22.6238
G01 X36.5895 Y22.6327
G01 X36.5726 Y22.6381
G01 X36.5550 Y22.6400
G01 X35.0050 Y22.6400
G01 X34.9874 Y22.6381
G01 X34.9705 Y22.6327
G01 X34.9625 Y22.6286
G01 X34.9481 Y22.6182
G01 X34.9362 Y22.6049
G01 X34.9273 Y22.5895
G01 X34.9219 Y22.5726
G01 X34.9200 Y22.5550
G01 X34.9200 Y21.9550
G01 X34.9213 Y21.9410
G01 X34.6294 Y21.6489
G01 X34.6010 Y21.6163
G01 X34.5780 Y21.5834
G01 X34.5602 Y21.5513
G01 X34.5560 Y21.5428
G01 X34.5400 Y21.5027
G01 X34.5286 Y21.4610
G01 X34.5219 Y21.4184
G01 X34.5198 Y21.3800
G01 X34.5198 Y20.9894
G01 X34.4788 Y20.9793
G01 X34.4498 Y20.9686
G01 X34.4185 Y20.9534
G01 X34.3940 Y20.9386
G01 X34.3661 Y20.9178
G01 X34.3431 Y20.8969
G01 X34.3222 Y20.8739
G01 X34.3014 Y20.8460
G01 X34.2866 Y20.8215
G01 X34.2690 Y20.7843
G01 X34.2593 Y20.7570
G01 X34.2518 Y20.7272
G01 X34.2466 Y20.6930
G01 X34.2450 Y20.6600
G01 X34.2450 Y19.7600
G00 Z2.0000
G00 X34.7765 Y19.2686
G01 F350.00
G01 Z-0.1306
G01 F400.00
G01 X34.8141 Y19.2310
G01 X34.9959 Y19.2310
G01 X35.0335 Y19.2686
G01 X34.7765 Y19.2686
G01 X34.8141 Y19.2310
G00 Z2.0000
G00 X35.7214 Y19.9565
G01 F350.00
G01 Z-0.1306
G01 F400.00
G01 X35.7590 Y19.9941
G01 X35.7590 Y20.6237
G01 X35.7120 Y20.8597
G01 X35.6693 Y20.9237
G01 X35.6467 Y20.9623
G01 X35.6360 Y20.9858
G01 X35.6263 Y21.0116
G01 X35.6195 Y21.0340
G01 X35.6116 Y21.0721
G01 X35.6089 Y21.0940
G01 X35.6072 Y21.1263
G01 X35.6088 Y21.1627
G01 X35.6130 Y21.1926
G01 X35.6188 Y21.2196
G01 X35.6227 Y21.2336
G01 X35.6316 Y21.2598
G01 X35.6370 Y21.2732
G01 X35.6488 Y21.2982
G01 X35.6608 Y21.3197
G01 X35.6704 Y21.3345
G01 X35.6856 Y21.3556
G01 X35.7056 Y21.3789
G01 X35.8943 Y21.5681
G01 X35.9274 Y21.5975
G01 X35.9476 Y21.6120
G01 X35.9630 Y21.6221
G01 X35.9829 Y21.6333
G01 X36.0073 Y21.6451
G01 X36.0232 Y21.6516
G01 X36.0461 Y21.6595
G01 X36.0631 Y21.6643
G01 X36.1002 Y21.6718
G01 X36.1271 Y21.6748
G01 X36.1548 Y21.6760
G01 X36.5187 Y21.6760
G01 X36.6590 Y21.7039
G01 X36.6885 Y21.7232
G01 X36.6885 Y21.7542
G01 X36.6756 Y21.7459
G01 X36.6530 Y21.7344
G01 X36.6295 Y21.7254
G01 X36.6051 Y21.7189
G01 X36.5802 Y21.7149
G01 X36.5550 Y21.7136
G01 X36.0045 Y21.7136
G01 X35.4466 Y21.1557
G01 X35.4466 Y21.1008
G01 X35.4719 Y21.0875
G01 X35.5028 Y21.0687
G01 X35.5324 Y21.0471
G01 X35.5457 Y21.0365
G01 X35.5775 Y21.0075
G01 X35.6021 Y20.9807
G01 X35.6171 Y20.9624
G01 X35.6387 Y20.9328
G01 X35.6575 Y20.9019
G01 X35.6664 Y20.8858
G01 X35.6816 Y20.8537
G01 X35.6883 Y20.8370
G01 X35.7005 Y20.8019
G01 X35.7108 Y20.7611
G01 X35.7140 Y20.7442
G01 X35.7190 Y20.7085
G01 X35.7214 Y20.6600
G01 X35.7214 Y19.9565
G01 X35.7590 Y19.9941
G00 Z2.0000
G00 X37.7800 Y20.7000
G01 F350.00
G01 Z-0.1306
G01 F400.00
G01 X38.6800 Y20.7000
G01 X38.7170 Y20.7021
G01 X38.7472 Y20.7068
G01 X38.7732 Y20.7133
G01 X38.8120 Y20.7272
G01 X38.8359 Y20.7385
G01 X38.8660 Y20.7564
G01 X38.8939 Y20.7772
G01 X38.9139 Y20.7952
G01 X38.9415 Y20.8258
G01 X38.9586 Y20.8490
G01 X38.9734 Y20.8735
G01 X38.9910 Y20.9107
G01 X39.0006 Y20.9380
G01 X39.0082 Y20.9678
G01 X39.0134 Y21.0020
G01 X39.0146 Y21.0248
G01 X39.5506 Y21.0248
G01 X39.5607 Y20.9838
G01 X39.5714 Y20.9548
G01 X39.5835 Y20.9291
G01 X39.6014 Y20.8990
G01 X39.6185 Y20.8758
G01 X39.6461 Y20.8452
G01 X39.6661 Y20.8272
G01 X39.6940 Y20.8064
G01 X39.7241 Y20.7885
G01 X39.7480 Y20.7772
G01 X39.7868 Y20.7633
G01 X39.8128 Y20.7568
G01 X39.8430 Y20.7521
G01 X39.8800 Y20.7500
G01 X40.7800 Y20.7500
G01 X40.8130 Y20.7516
G01 X40.8412 Y20.7557
G01 X40.8812 Y20.7657
G01 X40.9102 Y20.7764
G01 X40.9342 Y20.7877
G01 X40.9660 Y20.8064
G01 X40.9957 Y20.8288
G01 X41.0169 Y20.8481
G01 X41.0362 Y20.8693
G01 X41.0586 Y20.8990
G01 X41.0773 Y20.9308
G01 X41.0886 Y20.9548
G01 X41.0993 Y20.9838
G01 X41.1082 Y21.0178
G01 X41.1134 Y21.0520
G01 X41.1150 Y21.0850
G01 X41.1150 Y21.7350
G01 X41.1134 Y21.7680
G01 X41.1093 Y21.7962
G01 X41.0993 Y21.8362
G01 X41.0886 Y21.8652
G01 X41.0765 Y21.8909
G01 X41.0561 Y21.9245
G01 X41.0378 Y21.9489
G01 X41.0169 Y21.9719
G01 X40.9939 Y21.9928
G01 X40.9695 Y22.0111
G01 X40.9342 Y22.0323
G01 X40.9102 Y22.0436
G01 X40.8770 Y22.0557
G01 X40.8412 Y22.0643
G01 X40.8130 Y22.0684
G01 X40.7842 Y22.0699
G01 X39.8800 Y22.0700
G01 X39.8470 Y22.0684
G01 X39.8128 Y22.0632
G01 X39.7788 Y22.0543
G01 X39.7498 Y22.0436
G01 X39.7241 Y22.0315
G01 X39.6905 Y22.0111
G01 X39.6661 Y21.9928
G01 X39.6431 Y21.9719
G01 X39.6222 Y21.9489
G01 X39.6039 Y21.9245
G01 X39.5835 Y21.8909
G01 X39.5714 Y21.8652
G01 X39.5607 Y21.8362
G01 X39.5506 Y21.7952
G01 X38.9961 Y21.7952
G01 X38.9886 Y21.8152
G01 X38.9765 Y21.8409
G01 X38.9561 Y21.8745
G01 X38.9378 Y21.8989
G01 X38.9198 Y21.9189
G01 X38.8892 Y21.9465
G01 X38.8660 Y21.9636
G01 X38.8415 Y21.9784
G01 X38.8102 Y21.9936
G01 X38.7732 Y22.0067
G01 X38.7472 Y22.0132
G01 X38.7130 Y22.0184
G01 X38.6800 Y22.0200
G01 X37.7800 Y22.0200
G01 X37.7470 Y22.0184
G01 X37.7188 Y22.0143
G01 X37.6788 Y22.0043
G01 X37.6498 Y21.9936
G01 X37.6258 Y21.9823
G01 X37.5940 Y21.9636
G01 X37.5643 Y21.9412
G01 X37.5431 Y21.9219
G01 X37.5238 Y21.9007
G01 X37.5014 Y21.8710
G01 X37.4827 Y21.8392
G01 X37.4714 Y21.8152
G01 X37.4607 Y21.7862
G01 X37.4518 Y21.7522
G01 X37.4466 Y21.7180
G01 X37.4450 Y21.6850
G01 X37.4450 Y21.0350
G01 X37.4466 Y21.0020
G01 X37.4518 Y20.9678
G01 X37.4594 Y20.9380
G01 X37.4714 Y20.9048
G01 X37.4835 Y20.8791
G01 X37.5014 Y20.8490
G01 X37.5222 Y20.8211
G01 X37.5431 Y20.7981
G01 X37.5643 Y20.7788
G01 X37.5974 Y20.7542
G01 X37.6241 Y20.7385
G01 X37.6557 Y20.7240
G01 X37.6830 Y20.7143
G01 X37.7128 Y20.7068
G01 X37.7470 Y20.7016
G01 X37.7800 Y20.7000
G01 X38.6800 Y20.7000
G00 Z2.0000
G00 X36.7928 Y22.5947
G01 F350.00
G01 Z-0.1306
G01 F400.00
G01 X36.8178 Y22.6222
G01 X37.2886 Y23.0930
G01 X37.2886 Y23.7350
G01 X37.2901 Y23.7714
G01 X37.2910 Y23.7835
G01 X37.2960 Y23.8192
G01 X37.2992 Y23.8361
G01 X37.3095 Y23.8769
G01 X37.3217 Y23.9120
G01 X37.3284 Y23.9287
G01 X37.3436 Y23.9608
G01 X37.3525 Y23.9769
G01 X37.3713 Y24.0078
G01 X37.3782 Y24.0177
G01 X37.4035 Y24.0507
G01 X37.4244 Y24.0739
G01 X37.4411 Y24.0906
G01 X37.4643 Y24.1115
G01 X37.4776 Y24.1221
G01 X37.5072 Y24.1437
G01 X37.5381 Y24.1625
G01 X37.5589 Y24.1737
G01 X37.5863 Y24.1866
G01 X37.6261 Y24.2015
G01 X37.6488 Y24.2084
G01 X37.6789 Y24.2158
G01 X37.6958 Y24.2190
G01 X37.7345 Y24.2242
G01 X37.7345 Y24.2515
G01 X37.4770 Y24.2515
G01 X37.3407 Y24.1951
G01 X37.3074 Y24.1834
G01 X37.2928 Y24.1796
G01 X37.2677 Y24.1740
G01 X37.2326 Y24.1694
G01 X37.1969 Y24.1683
G01 X37.1594 Y24.1708
G01 X37.1399 Y24.1735
G01 X37.1199 Y24.1777
G01 X37.1002 Y24.1827
G01 X37.0813 Y24.1888
G01 X37.0667 Y24.1941
G01 X37.0441 Y24.2040
G01 X37.0358 Y24.2080
G01 X37.0089 Y24.2233
G01 X36.9979 Y24.2301
G01 X36.9759 Y24.2462
G01 X36.9618 Y24.2576
G01 X36.9400 Y24.2781
G01 X36.9274 Y24.2916
G01 X36.9111 Y24.3111
G01 X36.8946 Y24.3344
G01 X36.8828 Y24.3535
G01 X36.8714 Y24.3750
G01 X36.8581 Y24.4059
G01 X36.8509 Y24.4264
G01 X36.8455 Y24.4456
G01 X36.8402 Y24.4698
G01 X36.8357 Y24.5009
G01 X36.8340 Y24.5366
G01 X36.8340 Y25.0587
G01 X36.8238 Y25.1105
G01 X36.8209 Y25.1301
G01 X36.8186 Y25.1567
G01 X36.8181 Y25.1781
G01 X36.8200 Y25.2113
G01 X36.8231 Y25.2353
G01 X36.8262 Y25.2515
G01 X36.8327 Y25.2774
G01 X36.8433 Y25.3089
G01 X36.8571 Y25.3401
G01 X36.8792 Y25.3782
G01 X36.8978 Y25.4038
G01 X36.9199 Y25.4292
G01 X36.9388 Y25.4476
G01 X36.9601 Y25.4657
G01 X36.9860 Y25.4840
G01 X37.0048 Y25.4954
G01 X37.0242 Y25.5058
G01 X37.0542 Y25.5187
G01 X37.0794 Y25.5274
G01 X37.0952 Y25.5319
G01 X37.1189 Y25.5371
G01 X37.1485 Y25.5415
G01 X37.1865 Y25.5435
G01 X37.2586 Y25.5431
G01 X37.2812 Y25.5417
G01 X37.3123 Y25.5372
G01 X37.3365 Y25.5319
G01 X37.3557 Y25.5265
G01 X37.3891 Y25.5142
G01 X37.4071 Y25.5061
G01 X37.4286 Y25.4946
G01 X37.4477 Y25.4829
G01 X37.4710 Y25.4664
G01 X37.4905 Y25.4500
G01 X37.5040 Y25.4375
G01 X37.5245 Y25.4156
G01 X37.5359 Y25.4015
G01 X37.5518 Y25.3797
G01 X37.6111 Y25.2911
G01 X37.7803 Y25.1780
G01 X38.0163 Y25.1310
G01 X38.5937 Y25.1310
G01 X38.8297 Y25.1780
G01 X38.9989 Y25.2911
G01 X39.0312 Y25.3387
G01 X39.0528 Y25.3660
G01 X39.0726 Y25.3869
G01 X39.0891 Y25.4019
G01 X39.1064 Y25.4161
G01 X39.1351 Y25.4358
G01 X39.1593 Y25.4497
G01 X39.1724 Y25.4562
G01 X39.1975 Y25.4670
G01 X39.2118 Y25.4722
G01 X39.2385 Y25.4801
G01 X39.2649 Y25.4860
G01 X39.2803 Y25.4883
G01 X39.3026 Y25.4907
G01 X39.3227 Y25.4916
G01 X39.3574 Y25.4907
G01 X39.3951 Y25.4860
G01 X39.4297 Y25.4780
G01 X39.4625 Y25.4670
G01 X39.4876 Y25.4562
G01 X39.5007 Y25.4497
G01 X39.5173 Y25.4406
G01 X39.5372 Y25.4278
G01 X39.5536 Y25.4161
G01 X39.5709 Y25.4019
