(G-CODE GENERATED BY FLATCAM v8.905 - www.flatcam.org - Version Date: 2019/01/29)

(Name: Alignment Drills_1_cnc)
(Type: G-code from Excellon)
(Units: MM)

(Created on Monday, 11 February 2019 at 18:04)

(Feedrate: 350.0 mm/min)
(Feedrate rapids 500.0 mm/min)

(Z_Cut: -7.0 mm)
(Z_Move: 2.0 mm)
(Z Toolchange: 10.0 mm)
(X,Y Toolchange: 0.0000, 0.0000 mm)
(Z Start: 50.0 mm)
(Z End: 50.0 mm)
(Steps per circle: 64)
(Postprocessor Excellon: default)
(Spindle Speed: 18000 RPM)
G94 ( Millimeters per minute feed rate. )
G21 ( Units == Millimeters. )
G90 ( Absolute coordinates. )
G64 P0.01000 ( set maximum deviation from commanded toolpath )
G21
G90
G94
G21
G90
G94

G01 F350.00
G00 Z2.0000
G00 Z50.0000
M03 S18000
G00 X-3.0000 Y37.0000
G01 Z-7.0000
G01 Z0
G00 Z2.0000
G00 X110.1000 Y37.0000
G01 Z-7.0000
G01 Z0
G00 Z2.0000
M05
G00 Z50.00
G00 X0.0Y0.0

G04 P0 ( dwell for no time -- G64 should not smooth over this point )
G00 Z10.000 ( retract )

M5 ( Spindle off. )
M9 ( Coolant off. )
M2 ( Program end. )