(G-CODE GENERATED BY FLATCAM v8.905 - www.flatcam.org - Version Date: 2019/01/29)

(Name: V2-B.Cu.gbr_iso_cnc)
(Type: G-code from Geometry)
(Units: MM)

(Created on Monday, 11 February 2019 at 18:02)

(TOOL DIAMETER: 0.17 mm)
(Feedrate: 400.0 mm/min)
(Feedrate_Z: 350.0 mm/min)
(Feedrate rapids 800.0 mm/min)

(Z_Cut: -0.1306 mm)
(Z_Move: 2.0 mm)
(Z Toolchange: 50.0 mm)
(X,Y Toolchange: 0.0000, 0.0000 mm)
(Z Start: 1.0 mm)
(Z End: 20.0 mm)
(Steps per circle: 64)
(Postprocessor Geometry: default)
(Spindle Speed: 18000 RPM)
G94 ( Millimeters per minute feed rate. )
G21 ( Units == Millimeters. )
G90 ( Absolute coordinates. )
G64 P0.01000 ( set maximum deviation from commanded toolpath )
G21
G90
G94
G21
G90
G94

G01 F400.00
G00 Z2.0000
G00 Z1.0000
M03 S18000
G00 X0.0315 Y0.6898
G01 F350.00
G01 Z-0.1306
G01 F400.00
G01 X0.0374 Y0.6279
G01 X0.0420 Y0.6016
G01 X0.0575 Y0.5396
G01 X0.0781 Y0.4810
G01 X0.0847 Y0.4648
G01 X0.1105 Y0.4118
G01 X0.1174 Y0.3993
G01 X0.1504 Y0.3467
G01 X0.1587 Y0.3351
G01 X0.1974 Y0.2865
G01 X0.2069 Y0.2759
G01 X0.2509 Y0.2319
G01 X0.2615 Y0.2224
G01 X0.2624 Y0.2234
G01 X0.2851 Y0.2044
G01 X0.2848 Y0.2040
G01 X0.3101 Y0.1837
G01 X0.3280 Y0.1710
G01 X0.3743 Y0.1424
G01 X0.3868 Y0.1355
G01 X0.4428 Y0.1085
G01 X0.4560 Y0.1031
G01 X0.5146 Y0.0825
G01 X0.5283 Y0.0786
G01 X0.5889 Y0.0648
G01 X0.6029 Y0.0624
G01 X0.6647 Y0.0554
G01 X0.6789 Y0.0546
G01 X0.7100 Y0.0537
G01 X17.8216 Y0.0537
G01 X17.8674 Y0.0554
G01 X17.8673 Y0.0565
G01 X17.9297 Y0.0625
G01 X17.9564 Y0.0673
G01 X18.0050 Y0.0791
G01 X18.0188 Y0.0831
G01 X18.0780 Y0.1040
G01 X18.0945 Y0.1109
G01 X18.1477 Y0.1370
G01 X18.1602 Y0.1440
G01 X18.2132 Y0.1777
G01 X18.2249 Y0.1861
G01 X18.2737 Y0.2255
G01 X18.2843 Y0.2352
G01 X18.3284 Y0.2799
G01 X18.3379 Y0.2907
G01 X18.3766 Y0.3401
G01 X18.3889 Y0.3579
G01 X18.4176 Y0.4054
G01 X18.4245 Y0.4180
G01 X18.4511 Y0.4748
G01 X18.4564 Y0.4882
G01 X18.4764 Y0.5477
G01 X18.4803 Y0.5615
G01 X18.4934 Y0.6229
G01 X18.4956 Y0.6371
G01 X18.5018 Y0.6995
G01 X18.5029 Y0.7369
G01 X18.5004 Y0.7910
G01 X18.4992 Y0.7909
G01 X18.4958 Y0.8218
G01 X18.5557 Y0.8237
G01 X18.5557 Y0.8246
G01 X18.6098 Y0.8290
G01 X18.6341 Y0.8326
G01 X18.6338 Y0.8344
G01 X18.6874 Y0.8432
G01 X18.7112 Y0.8492
G01 X18.7633 Y0.8650
G01 X18.7864 Y0.8732
G01 X18.8366 Y0.8940
G01 X18.8588 Y0.9045
G01 X18.9068 Y0.9302
G01 X18.9278 Y0.9428
G01 X18.9730 Y0.9730
G01 X18.9927 Y0.9876
G01 X19.0348 Y1.0221
G01 X19.0530 Y1.0386
G01 X19.0914 Y1.0770
G01 X19.1079 Y1.0952
G01 X19.1071 Y1.0959
G01 X19.1424 Y1.1373
G01 X19.1597 Y1.1607
G01 X19.1872 Y1.2022
G01 X19.2040 Y1.2311
G01 X19.2208 Y1.2022
G01 X19.2510 Y1.1570
G01 X19.2656 Y1.1373
G01 X19.3001 Y1.0952
G01 X19.3166 Y1.0770
G01 X19.3550 Y1.0386
G01 X19.3732 Y1.0221
G01 X19.3739 Y1.0229
G01 X19.4153 Y0.9876
G01 X19.4387 Y0.9703
G01 X19.4802 Y0.9428
G01 X19.5012 Y0.9302
G01 X19.5492 Y0.9045
G01 X19.5714 Y0.8940
G01 X19.6216 Y0.8732
G01 X19.6447 Y0.8650
G01 X19.6449 Y0.8656
G01 X19.6968 Y0.8492
G01 X19.7206 Y0.8432
G01 X19.7739 Y0.8326
G01 X19.7982 Y0.8290
G01 X19.8523 Y0.8237
G01 X19.9116 Y0.8218
G01 X19.9076 Y0.7910
G01 X19.9051 Y0.7369
G01 X19.9062 Y0.6995
G01 X19.9073 Y0.6996
G01 X19.9124 Y0.6371
G01 X19.9169 Y0.6093
G01 X19.9277 Y0.5615
G01 X19.9316 Y0.5477
G01 X19.9516 Y0.4882
G01 X19.9584 Y0.4711
G01 X19.9835 Y0.4180
G01 X19.9904 Y0.4054
G01 X20.0232 Y0.3519
G01 X20.0314 Y0.3401
G01 X20.0701 Y0.2907
G01 X20.0796 Y0.2799
G01 X20.1237 Y0.2352
G01 X20.1343 Y0.2255
G01 X20.1351 Y0.2264
G01 X20.1588 Y0.2059
G01 X20.1831 Y0.1861
G01 X20.1948 Y0.1777
G01 X20.2478 Y0.1440
G01 X20.2603 Y0.1370
G01 X20.3167 Y0.1095
G01 X20.3300 Y0.1040
G01 X20.3892 Y0.0831
G01 X20.4030 Y0.0791
G01 X20.4641 Y0.0650
G01 X20.4783 Y0.0625
G01 X20.5406 Y0.0554
G01 X20.5864 Y0.0537
G01 X74.0891 Y0.0537
G01 X74.1347 Y0.0554
G01 X74.1346 Y0.0565
G01 X74.1967 Y0.0624
G01 X74.2232 Y0.0671
G01 X74.2717 Y0.0788
G01 X74.2854 Y0.0828
G01 X74.3443 Y0.1035
G01 X74.3606 Y0.1103
G01 X74.4137 Y0.1362
G01 X74.4262 Y0.1432
G01 X74.4790 Y0.1765
G01 X74.4907 Y0.1848
G01 X74.5394 Y0.2239
G01 X74.5500 Y0.2335
G01 X74.5940 Y0.2778
G01 X74.6035 Y0.2885
G01 X74.6025 Y0.2894
G01 X74.6211 Y0.3119
G01 X74.6215 Y0.3116
G01 X74.6422 Y0.3375
G01 X74.6596 Y0.3633
G01 X74.7075 Y0.3336
G01 X74.7199 Y0.3267
G01 X74.7757 Y0.3000
G01 X74.7888 Y0.2946
G01 X74.8473 Y0.2743
G01 X74.8609 Y0.2704
G01 X74.9212 Y0.2567
G01 X74.9352 Y0.2543
G01 X74.9967 Y0.2474
G01 X75.0418 Y0.2457
G01 X83.6682 Y0.2457
G01 X83.7080 Y0.2240
G01 X83.7647 Y0.2009
G01 X83.8236 Y0.1843
G01 X83.8839 Y0.1742
G01 X83.9450 Y0.1708
G01 X84.5450 Y0.1708
G01 X84.6061 Y0.1742
G01 X84.6664 Y0.1843
G01 X84.7253 Y0.2009
G01 X84.7820 Y0.2240
G01 X84.8218 Y0.2457
G01 X84.9382 Y0.2457
G01 X84.9780 Y0.2240
G01 X85.0347 Y0.2009
G01 X85.0936 Y0.1843
G01 X85.1539 Y0.1742
G01 X85.2150 Y0.1708
G01 X85.8150 Y0.1708
G01 X85.8761 Y0.1742
G01 X85.9364 Y0.1843
G01 X85.9953 Y0.2009
G01 X86.0520 Y0.2240
G01 X86.0918 Y0.2457
G01 X86.2082 Y0.2457
G01 X86.2481 Y0.2240
G01 X86.3047 Y0.2009
G01 X86.3636 Y0.1843
G01 X86.4239 Y0.1742
G01 X86.4850 Y0.1708
G01 X87.0850 Y0.1708
G01 X87.1461 Y0.1742
G01 X87.2064 Y0.1843
G01 X87.2653 Y0.2009
G01 X87.3219 Y0.2240
G01 X87.3777 Y0.2544
G01 X87.4200 Y0.2842
G01 X87.4623 Y0.2544
G01 X87.5180 Y0.2240
G01 X87.5747 Y0.2009
G01 X87.6336 Y0.1843
G01 X87.6939 Y0.1742
G01 X87.7550 Y0.1708
G01 X88.3550 Y0.1708
G01 X88.4161 Y0.1742
G01 X88.4764 Y0.1843
G01 X88.5353 Y0.2009
G01 X88.5919 Y0.2240
G01 X88.6477 Y0.2544
G01 X88.6995 Y0.2909
G01 X88.7469 Y0.3331
G01 X88.7891 Y0.3805
G01 X88.8256 Y0.4324
G01 X88.8560 Y0.4881
G01 X88.8791 Y0.5447
G01 X88.8957 Y0.6036
G01 X88.9028 Y0.6456
G01 X89.9660 Y0.6456
G01 X90.0162 Y0.6118
G01 X90.0372 Y0.5992
G01 X90.0852 Y0.5735
G01 X90.1074 Y0.5630
G01 X90.1576 Y0.5422
G01 X90.1807 Y0.5340
G01 X90.1809 Y0.5346
G01 X90.2328 Y0.5182
G01 X90.2566 Y0.5122
G01 X90.3099 Y0.5016
G01 X90.3342 Y0.4980
G01 X90.3883 Y0.4927
G01 X90.4400 Y0.4908
G01 X91.3400 Y0.4908
G01 X91.3917 Y0.4927
G01 X91.3917 Y0.4936
G01 X91.4458 Y0.4980
G01 X91.4701 Y0.5016
G01 X91.4698 Y0.5034
G01 X91.5234 Y0.5122
G01 X91.5472 Y0.5182
G01 X91.5993 Y0.5340
G01 X91.6224 Y0.5422
G01 X91.6726 Y0.5630
G01 X91.6948 Y0.5735
G01 X91.7428 Y0.5992
G01 X91.7638 Y0.6118
G01 X91.8090 Y0.6420
G01 X91.8287 Y0.6566
G01 X91.8730 Y0.6931
G01 X92.0961 Y0.6940
G01 X92.1068 Y0.6762
G01 X92.1370 Y0.6310
G01 X92.1516 Y0.6113
G01 X92.1861 Y0.5692
G01 X92.2026 Y0.5510
G01 X92.2410 Y0.5126
G01 X92.2592 Y0.4961
G01 X92.2599 Y0.4969
G01 X92.3013 Y0.4616
G01 X92.3247 Y0.4443
G01 X92.3662 Y0.4168
G01 X92.3872 Y0.4042
G01 X92.4352 Y0.3785
G01 X92.4574 Y0.3680
G01 X92.5076 Y0.3472
G01 X92.5307 Y0.3390
G01 X92.5309 Y0.3396
G01 X92.5828 Y0.3232
G01 X92.6066 Y0.3172
G01 X92.6599 Y0.3066
G01 X92.6842 Y0.3030
G01 X92.7383 Y0.2977
G01 X92.7628 Y0.2965
G01 X92.7900 Y0.2958
G01 X93.4400 Y0.2958
G01 X93.4917 Y0.2977
G01 X93.4917 Y0.2986
G01 X93.5458 Y0.3030
G01 X93.5701 Y0.3066
G01 X93.5698 Y0.3084
G01 X93.6234 Y0.3172
G01 X93.6472 Y0.3232
G01 X93.6993 Y0.3390
G01 X93.7224 Y0.3472
G01 X93.7726 Y0.3680
G01 X93.7948 Y0.3785
G01 X93.8428 Y0.4042
G01 X93.8638 Y0.4168
G01 X93.9090 Y0.4470
G01 X93.9287 Y0.4616
G01 X93.9708 Y0.4961
G01 X93.9890 Y0.5126
G01 X94.0274 Y0.5510
G01 X94.0439 Y0.5692
G01 X94.0431 Y0.5699
G01 X94.0784 Y0.6113
G01 X94.0957 Y0.6347
G01 X94.1232 Y0.6762
G01 X94.1400 Y0.7051
G01 X94.1568 Y0.6762
G01 X94.1870 Y0.6310
G01 X94.2016 Y0.6113
G01 X94.2361 Y0.5692
G01 X94.2526 Y0.5510
G01 X94.2910 Y0.5126
G01 X94.3092 Y0.4961
G01 X94.3099 Y0.4969
G01 X94.3513 Y0.4616
G01 X94.3747 Y0.4443
G01 X94.4162 Y0.4168
G01 X94.4372 Y0.4042
G01 X94.4852 Y0.3785
G01 X94.5074 Y0.3680
G01 X94.5576 Y0.3472
G01 X94.5807 Y0.3390
G01 X94.5809 Y0.3396
G01 X94.6328 Y0.3232
G01 X94.6566 Y0.3172
G01 X94.7099 Y0.3066
G01 X94.7342 Y0.3030
G01 X94.7883 Y0.2977
G01 X94.8128 Y0.2965
G01 X94.8400 Y0.2958
G01 X95.4900 Y0.2958
G01 X95.5417 Y0.2977
G01 X95.5417 Y0.2986
G01 X95.5958 Y0.3030
G01 X95.6201 Y0.3066
G01 X95.6198 Y0.3084
G01 X95.6734 Y0.3172
G01 X95.6972 Y0.3232
G01 X95.7507 Y0.3395
G01 X95.7871 Y0.2923
G01 X95.7966 Y0.2814
G01 X95.8407 Y0.2364
G01 X95.8514 Y0.2267
G01 X95.8522 Y0.2275
G01 X95.9003 Y0.1870
G01 X95.9192 Y0.1734
G01 X95.9650 Y0.1447
G01 X95.9776 Y0.1376
G01 X96.0342 Y0.1099
G01 X96.0475 Y0.1043
G01 X96.1068 Y0.0833
G01 X96.1207 Y0.0792
G01 X96.1820 Y0.0650
G01 X96.1963 Y0.0626
G01 X96.2588 Y0.0555
G01 X96.2732 Y0.0546
G01 X96.3047 Y0.0537
G01 X106.3900 Y0.0537
G01 X106.4353 Y0.0554
G01 X106.4352 Y0.0565
G01 X106.4971 Y0.0624
G01 X106.5234 Y0.0670
G01 X106.5854 Y0.0825
G01 X106.6440 Y0.1031
G01 X106.6602 Y0.1097
G01 X106.7132 Y0.1355
G01 X106.7257 Y0.1424
G01 X106.7783 Y0.1754
G01 X106.7899 Y0.1837
G01 X106.8385 Y0.2224
G01 X106.8491 Y0.2319
G01 X106.8931 Y0.2759
G01 X106.9026 Y0.2865
G01 X106.9016 Y0.2874
G01 X106.9206 Y0.3101
G01 X106.9210 Y0.3098
G01 X106.9413 Y0.3351
G01 X106.9540 Y0.3530
G01 X106.9826 Y0.3993
G01 X106.9895 Y0.4118
G01 X107.0165 Y0.4678
G01 X107.0219 Y0.4810
G01 X107.0425 Y0.5396
G01 X107.0464 Y0.5533
G01 X107.0602 Y0.6139
G01 X107.0626 Y0.6279
G01 X107.0696 Y0.6897
G01 X107.0704 Y0.7039
G01 X107.0713 Y0.7350
G01 X107.0713 Y10.1408
G01 X107.0696 Y10.1854
G01 X107.0686 Y10.1853
G01 X107.0629 Y10.2462
G01 X107.0585 Y10.2719
G01 X107.0434 Y10.3332
G01 X107.0235 Y10.3911
G01 X107.0171 Y10.4066
G01 X106.9920 Y10.4594
G01 X106.9853 Y10.4717
G01 X106.9532 Y10.5238
G01 X106.9452 Y10.5353
G01 X106.9076 Y10.5835
G01 X106.8984 Y10.5941
G01 X106.8556 Y10.6379
G01 X106.8453 Y10.6474
G01 X106.8446 Y10.6466
G01 X106.7980 Y10.6862
G01 X106.7800 Y10.6993
G01 X106.7354 Y10.7278
G01 X106.7232 Y10.7348
G01 X106.6828 Y10.7552
G01 X106.6995 Y10.7898
G01 X106.7049 Y10.8030
G01 X106.7255 Y10.8616
G01 X106.7294 Y10.8753
G01 X106.7432 Y10.9359
G01 X106.7456 Y10.9499
G01 X106.7526 Y11.0117
G01 X106.7543 Y11.0570
G01 X106.7543 Y16.8912
G01 X106.7534 Y16.9218
G01 X106.7526 Y16.9358
G01 X106.7516 Y16.9358
G01 X106.7459 Y16.9966
G01 X106.7415 Y17.0223
G01 X106.7264 Y17.0837
G01 X106.7065 Y17.1415
G01 X106.7001 Y17.1570
G01 X106.6750 Y17.2098
G01 X106.6683 Y17.2221
G01 X106.6362 Y17.2742
G01 X106.6282 Y17.2857
G01 X106.5906 Y17.3340
G01 X106.5814 Y17.3445
G01 X106.5386 Y17.3883
G01 X106.5283 Y17.3978
G01 X106.5276 Y17.3970
G01 X106.4810 Y17.4366
G01 X106.4630 Y17.4497
G01 X106.4277 Y17.4723
G01 X106.4491 Y17.5247
G01 X106.4657 Y17.5836
G01 X106.4758 Y17.6439
G01 X106.4792 Y17.7050
G01 X106.4792 Y18.0781
G01 X106.4822 Y18.0784
G01 X106.4823 Y18.0779
G01 X106.5074 Y18.0811
G01 X106.5321 Y18.0858
G01 X106.5810 Y18.0983
G01 X106.5944 Y18.1024
G01 X106.6522 Y18.1234
G01 X106.6673 Y18.1299
G01 X106.7202 Y18.1563
G01 X106.7325 Y18.1633
G01 X106.7841 Y18.1966
G01 X106.7956 Y18.2048
G01 X106.8432 Y18.2436
G01 X106.8537 Y18.2531
G01 X106.8968 Y18.2970
G01 X106.9061 Y18.3076
G01 X106.9440 Y18.3559
G01 X106.9559 Y18.3730
G01 X106.9845 Y18.4197
G01 X106.9913 Y18.4321
G01 X107.0177 Y18.4876
G01 X107.0230 Y18.5006
G01 X107.0431 Y18.5587
G01 X107.0470 Y18.5723
G01 X107.0605 Y18.6322
G01 X107.0628 Y18.6461
G01 X107.0696 Y18.7072
G01 X107.0713 Y18.7520
G01 X107.0713 Y20.7172
G01 X107.1211 Y20.7876
G01 X107.1498 Y20.8339
G01 X107.2040 Y20.9320
G01 X107.2310 Y20.9880
G01 X107.2739 Y21.0916
G01 X107.2944 Y21.1503
G01 X107.3255 Y21.2581
G01 X107.3393 Y21.3186
G01 X107.3581 Y21.4292
G01 X107.3650 Y21.4910
G01 X107.3713 Y21.6029
G01 X107.3722 Y21.6340
G01 X107.3713 Y21.6651
G01 X107.3650 Y21.7770
G01 X107.3640 Y21.7770
G01 X107.3581 Y21.8388
G01 X107.3371 Y21.9616
G01 X107.3255 Y22.0099
G01 X107.2944 Y22.1177
G01 X107.2739 Y22.1764
G01 X107.2297 Y22.2829
G01 X107.2040 Y22.3360
G01 X107.1498 Y22.4341
G01 X107.1167 Y22.4867
G01 X107.0713 Y22.5508
G01 X107.0713 Y36.2900
G01 X107.0696 Y36.3353
G01 X107.0685 Y36.3352
G01 X107.0626 Y36.3971
G01 X107.0580 Y36.4234
G01 X107.0425 Y36.4854
G01 X107.0219 Y36.5440
G01 X107.0153 Y36.5602
G01 X106.9895 Y36.6132
G01 X106.9826 Y36.6257
G01 X106.9496 Y36.6783
G01 X106.9413 Y36.6899
G01 X106.9026 Y36.7385
G01 X106.8931 Y36.7491
G01 X106.8491 Y36.7931
G01 X106.8385 Y36.8026
G01 X106.8376 Y36.8016
G01 X106.8149 Y36.8206
G01 X106.8152 Y36.8210
G01 X106.7899 Y36.8413
G01 X106.7720 Y36.8540
G01 X106.7257 Y36.8826
G01 X106.7132 Y36.8895
G01 X106.6572 Y36.9165
G01 X106.6440 Y36.9219
G01 X106.5854 Y36.9425
G01 X106.5717 Y36.9464
G01 X106.5111 Y36.9602
G01 X106.4971 Y36.9626
G01 X106.4353 Y36.9696
G01 X106.3900 Y36.9713
G01 X79.6736 Y36.9713
G01 X79.6805 Y36.9837
G01 X79.7074 Y37.0397
G01 X79.7203 Y37.0708
G01 X79.7408 Y37.1294
G01 X79.7502 Y37.1618
G01 X79.7640 Y37.2224
G01 X79.7696 Y37.2556
G01 X79.7766 Y37.3173
G01 X79.7793 Y37.3820
G01 X79.7766 Y37.4467
G01 X79.7755 Y37.4466
G01 X79.7696 Y37.5084
G01 X79.7618 Y37.5539
G01 X79.7502 Y37.6022
G01 X79.7408 Y37.6346
G01 X79.7203 Y37.6932
G01 X79.7062 Y37.7273
G01 X79.6805 Y37.7803
G01 X79.6642 Y37.8098
G01 X79.6311 Y37.8624
G01 X79.6116 Y37.8898
G01 X79.5729 Y37.9384
G01 X79.5505 Y37.9635
G01 X79.5065 Y38.0075
G01 X79.4814 Y38.0299
G01 X79.4805 Y38.0289
G01 X79.4328 Y38.0687
G01 X79.4255 Y38.0739
G01 X79.4425 Y38.1216
G01 X79.4464 Y38.1353
G01 X79.4602 Y38.1959
G01 X79.4626 Y38.2099
G01 X79.4696 Y38.2717
G01 X79.4713 Y38.3170
G01 X79.4713 Y65.2900
G01 X79.4696 Y65.3353
G01 X79.4685 Y65.3352
G01 X79.4626 Y65.3971
G01 X79.4580 Y65.4234
G01 X79.4425 Y65.4854
G01 X79.4219 Y65.5440
G01 X79.4153 Y65.5602
G01 X79.3895 Y65.6132
G01 X79.3826 Y65.6257
G01 X79.3496 Y65.6783
G01 X79.3413 Y65.6899
G01 X79.3026 Y65.7385
G01 X79.2931 Y65.7491
G01 X79.2491 Y65.7931
G01 X79.2385 Y65.8026
G01 X79.2376 Y65.8016
G01 X79.2149 Y65.8206
G01 X79.2152 Y65.8210
G01 X79.1899 Y65.8413
G01 X79.1720 Y65.8540
G01 X79.1257 Y65.8826
G01 X79.1132 Y65.8895
G01 X79.0572 Y65.9165
G01 X79.0440 Y65.9219
G01 X78.9854 Y65.9425
G01 X78.9717 Y65.9464
G01 X78.9111 Y65.9602
G01 X78.8971 Y65.9626
G01 X78.8353 Y65.9696
G01 X78.7900 Y65.9713
G01 X69.5262 Y65.9713
G01 X69.4822 Y65.9697
G01 X69.4822 Y65.9687
G01 X69.4221 Y65.9631
G01 X69.3970 Y65.9588
G01 X69.3361 Y65.9440
G01 X69.2789 Y65.9246
G01 X69.2639 Y65.9186
G01 X69.2113 Y65.8939
G01 X69.1991 Y65.8874
G01 X69.1474 Y65.8560
G01 X69.1360 Y65.8482
G01 X69.0880 Y65.8114
G01 X69.0775 Y65.8024
G01 X69.0339 Y65.7606
G01 X69.0244 Y65.7505
G01 X69.0250 Y65.7500
G01 X68.9856 Y65.7042
G01 X68.9721 Y65.6862
G01 X68.9437 Y65.6429
G01 X68.9366 Y65.6310
G01 X68.9087 Y65.5774
G01 X68.9030 Y65.5648
G01 X68.8811 Y65.5085
G01 X68.8768 Y65.4953
G01 X68.8612 Y65.4369
G01 X68.8583 Y65.4234
G01 X68.8491 Y65.3637
G01 X68.8478 Y65.3499
G01 X68.8451 Y65.2955
G01 X68.8453 Y65.2756
G01 X68.8492 Y65.2153
G01 X68.8527 Y65.1881
G01 X68.8614 Y65.1421
G01 X68.8645 Y65.1286
G01 X68.8814 Y65.0706
G01 X68.8860 Y65.0575
G01 X68.8876 Y65.0581
G01 X68.8968 Y65.0293
G01 X69.1537 Y64.4091
G01 X69.1537 Y63.7909
G01 X68.9172 Y63.2199
G01 X68.4801 Y62.7828
G01 X67.9091 Y62.5463
G01 X67.2409 Y62.5463
G01 X66.6699 Y62.7828
G01 X66.2328 Y63.2199
G01 X65.9963 Y63.7909
G01 X65.9963 Y64.4091
G01 X66.2532 Y65.0293
G01 X66.2686 Y65.0706
G01 X66.2855 Y65.1286
G01 X66.2886 Y65.1421
G01 X66.2991 Y65.2016
G01 X66.3008 Y65.2153
G01 X66.3047 Y65.2756
G01 X66.3049 Y65.2955
G01 X66.3022 Y65.3499
G01 X66.3009 Y65.3637
G01 X66.2994 Y65.3635
G01 X66.2954 Y65.3949
G01 X66.2960 Y65.3950
G01 X66.2917 Y65.4234
G01 X66.2888 Y65.4369
G01 X66.2732 Y65.4953
G01 X66.2689 Y65.5085
G01 X66.2470 Y65.5648
G01 X66.2409 Y65.5782
G01 X66.2134 Y65.6310
G01 X66.2063 Y65.6429
G01 X66.1727 Y65.6932
G01 X66.1644 Y65.7042
G01 X66.1256 Y65.7505
G01 X66.1161 Y65.7606
G01 X66.0725 Y65.8024
G01 X66.0620 Y65.8114
G01 X66.0140 Y65.8482
G01 X66.0026 Y65.8560
G01 X65.9509 Y65.8874
G01 X65.9387 Y65.8939
G01 X65.8840 Y65.9195
G01 X65.8711 Y65.9246
G01 X65.8139 Y65.9440
G01 X65.8005 Y65.9478
G01 X65.7415 Y65.9608
G01 X65.7279 Y65.9631
G01 X65.6678 Y65.9697
G01 X65.6540 Y65.9704
G01 X65.6238 Y65.9713
G01 X58.0916 Y65.9713
G01 X58.0607 Y65.9704
G01 X58.0466 Y65.9696
G01 X58.0466 Y65.9686
G01 X57.9852 Y65.9627
G01 X57.9591 Y65.9582
G01 X57.9110 Y65.9467
G01 X57.8974 Y65.9428
G01 X57.8391 Y65.9226
G01 X57.8232 Y65.9160
G01 X57.7702 Y65.8905
G01 X57.7578 Y65.8837
G01 X57.7054 Y65.8510
G01 X57.6938 Y65.8429
G01 X57.6454 Y65.8046
G01 X57.6348 Y65.7952
G01 X57.5909 Y65.7517
G01 X57.5814 Y65.7412
G01 X57.5823 Y65.7404
G01 X57.5702 Y65.7260
G01 X57.5520 Y65.7360
G01 X57.4960 Y65.7630
G01 X57.3924 Y65.8059
G01 X57.3337 Y65.8264
G01 X57.2259 Y65.8575
G01 X57.1654 Y65.8713
G01 X57.0548 Y65.8901
G01 X56.9930 Y65.8970
G01 X56.8811 Y65.9033
G01 X56.8500 Y65.9042
G01 X56.8189 Y65.9033
G01 X56.7070 Y65.8970
G01 X56.7070 Y65.8960
G01 X56.6452 Y65.8901
G01 X56.5224 Y65.8691
G01 X56.4741 Y65.8575
G01 X56.3663 Y65.8264
G01 X56.3076 Y65.8059
G01 X56.2011 Y65.7617
G01 X56.1480 Y65.7360
G01 X56.0499 Y65.6818
G01 X55.9973 Y65.6487
G01 X55.9058 Y65.5838
G01 X55.8572 Y65.5451
G01 X55.7736 Y65.4703
G01 X55.7297 Y65.4264
G01 X55.6549 Y65.3428
G01 X55.6559 Y65.3419
G01 X55.6162 Y65.2942
G01 X55.5800 Y65.2432
G01 X55.5438 Y65.2942
G01 X55.5051 Y65.3428
G01 X55.4303 Y65.4264
G01 X55.3864 Y65.4703
G01 X55.3028 Y65.5451
G01 X55.3019 Y65.5441
G01 X55.2542 Y65.5838
G01 X55.1564 Y65.6531
G01 X55.1101 Y65.6818
G01 X55.0120 Y65.7360
G01 X54.9560 Y65.7630
G01 X54.8524 Y65.8059
G01 X54.7937 Y65.8264
G01 X54.6859 Y65.8575
G01 X54.6254 Y65.8713
G01 X54.5148 Y65.8901
G01 X54.4530 Y65.8970
G01 X54.3411 Y65.9033
G01 X54.3100 Y65.9042
G01 X54.2789 Y65.9033
G01 X54.1670 Y65.8970
G01 X54.1670 Y65.8960
G01 X54.1052 Y65.8901
G01 X53.9824 Y65.8691
G01 X53.9341 Y65.8575
G01 X53.8263 Y65.8264
G01 X53.7676 Y65.8059
G01 X53.6611 Y65.7617
G01 X53.6080 Y65.7360
G01 X53.5099 Y65.6818
G01 X53.4573 Y65.6487
G01 X53.3658 Y65.5838
G01 X53.3172 Y65.5451
G01 X53.2336 Y65.4703
G01 X53.1897 Y65.4264
G01 X53.1149 Y65.3428
G01 X53.1159 Y65.3419
G01 X53.0762 Y65.2942
G01 X53.0400 Y65.2432
G01 X53.0038 Y65.2942
G01 X52.9651 Y65.3428
G01 X52.8903 Y65.4264
G01 X52.8464 Y65.4703
G01 X52.7628 Y65.5451
G01 X52.7619 Y65.5441
G01 X52.7142 Y65.5838
G01 X52.6164 Y65.6531
G01 X52.5701 Y65.6818
G01 X52.4720 Y65.7360
G01 X52.4160 Y65.7630
G01 X52.3124 Y65.8059
G01 X52.2537 Y65.8264
G01 X52.1459 Y65.8575
G01 X52.0854 Y65.8713
G01 X51.9748 Y65.8901
G01 X51.9130 Y65.8970
G01 X51.8011 Y65.9033
G01 X51.7700 Y65.9042
G01 X51.7389 Y65.9033
G01 X51.6270 Y65.8970
G01 X51.6270 Y65.8960
G01 X51.5652 Y65.8901
G01 X51.4546 Y65.8713
G01 X51.4424 Y65.8691
G01 X51.3941 Y65.8575
G01 X51.2863 Y65.8264
G01 X51.2276 Y65.8059
G01 X51.1240 Y65.7630
G01 X51.0680 Y65.7360
G01 X50.9699 Y65.6818
G01 X50.9173 Y65.6487
G01 X50.8258 Y65.5838
G01 X50.7772 Y65.5451
G01 X50.6936 Y65.4703
G01 X50.6497 Y65.4264
G01 X50.5749 Y65.3428
G01 X50.5759 Y65.3419
G01 X50.5362 Y65.2942
G01 X50.5000 Y65.2432
G01 X50.4638 Y65.2942
G01 X50.4251 Y65.3428
G01 X50.3503 Y65.4264
G01 X50.3064 Y65.4703
G01 X50.2228 Y65.5451
G01 X50.2219 Y65.5441
G01 X50.1742 Y65.5838
G01 X50.0764 Y65.6531
G01 X50.0301 Y65.6818
G01 X49.9320 Y65.7360
G01 X49.8760 Y65.7630
G01 X49.7724 Y65.8059
G01 X49.7137 Y65.8264
G01 X49.6059 Y65.8575
G01 X49.5454 Y65.8713
G01 X49.4348 Y65.8901
G01 X49.3730 Y65.8970
G01 X49.2611 Y65.9033
G01 X49.2300 Y65.9042
G01 X49.1989 Y65.9033
G01 X49.0870 Y65.8970
G01 X49.0870 Y65.8960
G01 X49.0252 Y65.8901
G01 X48.9024 Y65.8691
G01 X48.8541 Y65.8575
G01 X48.7463 Y65.8264
G01 X48.6876 Y65.8059
G01 X48.5811 Y65.7617
G01 X48.5280 Y65.7360
G01 X48.4299 Y65.6818
G01 X48.4193 Y65.6751
G01 X48.4091 Y65.6899
G01 X48.3703 Y65.7385
G01 X48.3608 Y65.7491
G01 X48.3169 Y65.7931
G01 X48.3063 Y65.8026
G01 X48.3054 Y65.8016
G01 X48.2826 Y65.8206
G01 X48.2830 Y65.8210
G01 X48.2577 Y65.8413
G01 X48.2397 Y65.8540
G01 X48.1934 Y65.8826
G01 X48.1810 Y65.8895
G01 X48.1250 Y65.9165
G01 X48.1118 Y65.9219
G01 X48.0531 Y65.9425
G01 X48.0395 Y65.9464
G01 X47.9789 Y65.9602
G01 X47.9648 Y65.9626
G01 X47.9031 Y65.9696
G01 X47.8888 Y65.9704
G01 X47.8578 Y65.9713
G01 X40.5262 Y65.9713
G01 X40.4822 Y65.9697
G01 X40.4822 Y65.9687
G01 X40.4221 Y65.9631
G01 X40.3969 Y65.9588
G01 X40.3361 Y65.9440
G01 X40.2789 Y65.9246
G01 X40.2639 Y65.9186
G01 X40.2113 Y65.8939
G01 X40.1991 Y65.8874
G01 X40.1474 Y65.8560
G01 X40.1360 Y65.8482
G01 X40.0880 Y65.8114
G01 X40.0775 Y65.8024
G01 X40.0339 Y65.7606
G01 X40.0244 Y65.7505
G01 X40.0250 Y65.7500
G01 X39.9856 Y65.7042
G01 X39.9721 Y65.6862
G01 X39.9437 Y65.6429
G01 X39.9366 Y65.6310
G01 X39.9087 Y65.5774
G01 X39.9030 Y65.5648
G01 X39.8811 Y65.5085
G01 X39.8768 Y65.4953
G01 X39.8612 Y65.4369
G01 X39.8583 Y65.4234
G01 X39.8491 Y65.3637
G01 X39.8478 Y65.3499
G01 X39.8451 Y65.2955
G01 X39.8453 Y65.2756
G01 X39.8492 Y65.2153
G01 X39.8509 Y65.2016
G01 X39.8527 Y65.1881
G01 X39.8645 Y65.1286
G01 X39.8814 Y65.0706
G01 X39.8860 Y65.0575
G01 X39.8876 Y65.0581
G01 X39.8968 Y65.0293
G01 X40.1537 Y64.4091
G01 X40.1537 Y63.7909
G01 X39.9172 Y63.2199
G01 X39.4801 Y62.7828
G01 X38.9091 Y62.5463
G01 X38.2409 Y62.5463
G01 X37.6699 Y62.7828
G01 X37.2328 Y63.2199
G01 X36.9963 Y63.7909
G01 X36.9963 Y64.4091
G01 X37.2532 Y65.0293
G01 X37.2686 Y65.0706
G01 X37.2855 Y65.1286
G01 X37.2886 Y65.1421
G01 X37.2991 Y65.2016
G01 X37.3008 Y65.2153
G01 X37.3047 Y65.2756
G01 X37.3049 Y65.2955
G01 X37.3022 Y65.3499
G01 X37.3009 Y65.3637
G01 X37.2994 Y65.3635
G01 X37.2954 Y65.3949
G01 X37.2960 Y65.3950
G01 X37.2917 Y65.4234
G01 X37.2869 Y65.4457
G01 X37.2732 Y65.4953
G01 X37.2689 Y65.5085
G01 X37.2470 Y65.5648
G01 X37.2409 Y65.5782
G01 X37.2134 Y65.6310
G01 X37.2063 Y65.6429
G01 X37.1727 Y65.6932
G01 X37.1644 Y65.7042
G01 X37.1256 Y65.7505
G01 X37.1161 Y65.7606
G01 X37.0725 Y65.8024
G01 X37.0620 Y65.8114
G01 X37.0140 Y65.8482
G01 X36.9983 Y65.8589
G01 X36.9509 Y65.8874
G01 X36.9387 Y65.8939
G01 X36.8840 Y65.9195
G01 X36.8711 Y65.9246
G01 X36.8139 Y65.9440
G01 X36.8005 Y65.9478
G01 X36.7415 Y65.9608
G01 X36.7279 Y65.9631
G01 X36.6678 Y65.9697
G01 X36.6238 Y65.9713
G01 X0.7100 Y65.9713
G01 X0.6647 Y65.9696
G01 X0.6648 Y65.9685
G01 X0.6029 Y65.9626
G01 X0.5766 Y65.9580
G01 X0.5146 Y65.9425
G01 X0.4559 Y65.9219
G01 X0.4428 Y65.9165
G01 X0.3868 Y65.8895
G01 X0.3743 Y65.8826
G01 X0.3217 Y65.8496
G01 X0.3101 Y65.8413
G01 X0.2615 Y65.8026
G01 X0.2509 Y65.7931
G01 X0.2134 Y65.7556
G01 X0.1974 Y65.7385
G01 X0.1984 Y65.7376
G01 X0.1794 Y65.7149
G01 X0.1790 Y65.7152
G01 X0.1587 Y65.6899
G01 X0.1460 Y65.6720
G01 X0.1174 Y65.6257
G01 X0.1105 Y65.6132
G01 X0.0835 Y65.5572
G01 X0.0781 Y65.5440
G01 X0.0575 Y65.4854
G01 X0.0536 Y65.4717
G01 X0.0398 Y65.4111
G01 X0.0374 Y65.3971
G01 X0.0304 Y65.3353
G01 X0.0287 Y65.2900
G01 X0.0287 Y0.7350
G01 X0.0304 Y0.6897
G01 X0.0315 Y0.6898
G01 X0.0374 Y0.6279
G00 Z2.0000
G00 X0.1873 Y0.6985
G01 F350.00
G01 Z-0.1306
G01 F400.00
G01 X0.1916 Y0.6541
G01 X0.1955 Y0.6313
G01 X0.2039 Y0.5966
G01 X0.2078 Y0.5829
G01 X0.2225 Y0.5408
G01 X0.2289 Y0.5255
G01 X0.2474 Y0.4874
G01 X0.2542 Y0.4750
G01 X0.2780 Y0.4372
G01 X0.2862 Y0.4256
G01 X0.3140 Y0.3907
G01 X0.3235 Y0.3801
G01 X0.3551 Y0.3485
G01 X0.3657 Y0.3390
G01 X0.3663 Y0.3397
G01 X0.4006 Y0.3112
G01 X0.4168 Y0.2998
G01 X0.4500 Y0.2792
G01 X0.4624 Y0.2724
G01 X0.5026 Y0.2530
G01 X0.5158 Y0.2475
G01 X0.5579 Y0.2328
G01 X0.5716 Y0.2289
G01 X0.6151 Y0.2189
G01 X0.6291 Y0.2166
G01 X0.6735 Y0.2116
G01 X0.7100 Y0.2101
G01 X17.8216 Y0.2101
G01 X17.8585 Y0.2116
G01 X17.8585 Y0.2124
G01 X17.9033 Y0.2167
G01 X17.9264 Y0.2208
G01 X17.9613 Y0.2292
G01 X17.9751 Y0.2332
G01 X18.0176 Y0.2483
G01 X18.0332 Y0.2548
G01 X18.0714 Y0.2735
G01 X18.0839 Y0.2806
G01 X18.1219 Y0.3047
G01 X18.1336 Y0.3131
G01 X18.1686 Y0.3414
G01 X18.1793 Y0.3511
G01 X18.2109 Y0.3832
G01 X18.2204 Y0.3940
G01 X18.2482 Y0.4294
G01 X18.2593 Y0.4455
G01 X18.2800 Y0.4796
G01 X18.2868 Y0.4923
G01 X18.3059 Y0.5330
G01 X18.3113 Y0.5464
G01 X18.3256 Y0.5891
G01 X18.3294 Y0.6030
G01 X18.3389 Y0.6470
G01 X18.3411 Y0.6612
G01 X18.3455 Y0.7060
G01 X18.3465 Y0.7369
G01 X18.3444 Y0.7798
G01 X18.3435 Y0.7797
G01 X18.3387 Y0.8245
G01 X18.3360 Y0.8386
G01 X18.3252 Y0.8823
G01 X18.3210 Y0.8961
G01 X18.3053 Y0.9383
G01 X18.2987 Y0.9534
G01 X18.2861 Y0.9782
G01 X18.5040 Y0.9782
G01 X18.5480 Y0.9799
G01 X18.5480 Y0.9805
G01 X18.5869 Y0.9837
G01 X18.6111 Y0.9873
G01 X18.6110 Y0.9886
G01 X18.6494 Y0.9949
G01 X18.6732 Y1.0009
G01 X18.7106 Y1.0122
G01 X18.7337 Y1.0205
G01 X18.7698 Y1.0354
G01 X18.7919 Y1.0459
G01 X18.8264 Y1.0643
G01 X18.8474 Y1.0769
G01 X18.8799 Y1.0986
G01 X18.8996 Y1.1132
G01 X18.9297 Y1.1380
G01 X18.9479 Y1.1545
G01 X18.9755 Y1.1821
G01 X18.9920 Y1.2003
G01 X18.9914 Y1.2008
G01 X19.0168 Y1.2304
G01 X19.0333 Y1.2528
G01 X19.0531 Y1.2826
G01 X19.0657 Y1.3036
G01 X19.0841 Y1.3381
G01 X19.0946 Y1.3602
G01 X19.1095 Y1.3963
G01 X19.1178 Y1.4194
G01 X19.1291 Y1.4568
G01 X19.1351 Y1.4806
G01 X19.1427 Y1.5189
G01 X19.1463 Y1.5431
G01 X19.1501 Y1.5820
G01 X19.1513 Y1.6065
G01 X19.1518 Y2.5260
G01 X19.1501 Y2.5700
G01 X19.1495 Y2.5700
G01 X19.1463 Y2.6089
G01 X19.1427 Y2.6331
G01 X19.1414 Y2.6330
G01 X19.1351 Y2.6714
G01 X19.1291 Y2.6952
G01 X19.1178 Y2.7326
G01 X19.1095 Y2.7557
G01 X19.0946 Y2.7918
G01 X19.0841 Y2.8139
G01 X19.0657 Y2.8484
G01 X19.0531 Y2.8694
G01 X19.0314 Y2.9019
G01 X19.0168 Y2.9216
G01 X18.9920 Y2.9517
G01 X18.9755 Y2.9699
G01 X18.9479 Y2.9975
G01 X18.9297 Y3.0140
G01 X18.9292 Y3.0134
G01 X18.8996 Y3.0388
G01 X18.8799 Y3.0534
G01 X18.8474 Y3.0751
G01 X18.8264 Y3.0877
G01 X18.7919 Y3.1061
G01 X18.7698 Y3.1166
G01 X18.7337 Y3.1315
G01 X18.7106 Y3.1398
G01 X18.6732 Y3.1511
G01 X18.6494 Y3.1571
G01 X18.6111 Y3.1647
G01 X18.5869 Y3.1683
G01 X18.5480 Y3.1721
G01 X18.5040 Y3.1738
G01 X17.8345 Y3.1733
G01 X17.8100 Y3.1721
G01 X17.8100 Y3.1715
G01 X17.7711 Y3.1683
G01 X17.7469 Y3.1647
G01 X17.7470 Y3.1634
G01 X17.7086 Y3.1571
G01 X17.6848 Y3.1511
G01 X17.6474 Y3.1398
G01 X17.6243 Y3.1315
G01 X17.5882 Y3.1166
G01 X17.5661 Y3.1061
G01 X17.5316 Y3.0877
G01 X17.5106 Y3.0751
G01 X17.4781 Y3.0534
G01 X17.4584 Y3.0388
G01 X17.4283 Y3.0140
G01 X17.4101 Y2.9975
G01 X17.3825 Y2.9699
G01 X17.3660 Y2.9517
G01 X17.3666 Y2.9512
G01 X17.3412 Y2.9216
G01 X17.3247 Y2.8992
G01 X17.3049 Y2.8694
G01 X17.2923 Y2.8484
G01 X17.2739 Y2.8139
G01 X17.2634 Y2.7918
G01 X17.2560 Y2.7740
G01 X16.1911 Y2.7740
G01 X16.0920 Y2.8731
G01 X16.0920 Y7.8893
G01 X16.1267 Y7.9170
G01 X16.1894 Y7.9731
G01 X16.2209 Y8.0046
G01 X16.2770 Y8.0673
G01 X16.2763 Y8.0679
G01 X16.3048 Y8.1022
G01 X16.3535 Y8.1708
G01 X16.3772 Y8.2086
G01 X16.4179 Y8.2822
G01 X16.4372 Y8.3224
G01 X16.4694 Y8.4001
G01 X16.4842 Y8.4422
G01 X16.5074 Y8.5230
G01 X16.5174 Y8.5665
G01 X16.5315 Y8.6494
G01 X16.5365 Y8.6937
G01 X16.5418 Y8.8000
G01 X16.5418 Y9.3000
G01 X16.5365 Y9.4063
G01 X16.5357 Y9.4062
G01 X16.5315 Y9.4506
G01 X16.5158 Y9.5423
G01 X16.5074 Y9.5770
G01 X16.4842 Y9.6578
G01 X16.4694 Y9.6999
G01 X16.4364 Y9.7798
G01 X16.4179 Y9.8178
G01 X16.3772 Y9.8914
G01 X16.3535 Y9.9292
G01 X16.3048 Y9.9978
G01 X16.2770 Y10.0327
G01 X16.2209 Y10.0954
G01 X16.1894 Y10.1269
G01 X16.1267 Y10.1830
G01 X16.1261 Y10.1823
G01 X16.0920 Y10.2107
G01 X16.0920 Y11.8031
G01 X16.1098 Y11.8104
G01 X16.1319 Y11.8209
G01 X16.1664 Y11.8393
G01 X16.1874 Y11.8519
G01 X16.2199 Y11.8736
G01 X16.2396 Y11.8882
G01 X16.2697 Y11.9130
G01 X16.2879 Y11.9295
G01 X16.3155 Y11.9571
G01 X16.3320 Y11.9753
G01 X16.3314 Y11.9758
G01 X16.3568 Y12.0054
G01 X16.3733 Y12.0278
G01 X16.3931 Y12.0576
G01 X16.4057 Y12.0786
G01 X16.4241 Y12.1131
G01 X16.4346 Y12.1352
G01 X16.4495 Y12.1713
G01 X16.4578 Y12.1944
G01 X16.4691 Y12.2318
G01 X16.4751 Y12.2556
G01 X16.4827 Y12.2939
G01 X16.4863 Y12.3181
G01 X16.4901 Y12.3570
G01 X16.4918 Y12.4010
G01 X16.4918 Y13.0510
G01 X16.4901 Y13.0950
G01 X16.4895 Y13.0950
G01 X16.4863 Y13.1339
G01 X16.4827 Y13.1581
G01 X16.4814 Y13.1580
G01 X16.4751 Y13.1964
G01 X16.4691 Y13.2202
G01 X16.4578 Y13.2576
G01 X16.4495 Y13.2807
G01 X16.4346 Y13.3168
G01 X16.4241 Y13.3389
G01 X16.4057 Y13.3734
G01 X16.3931 Y13.3944
G01 X16.3714 Y13.4269
G01 X16.3568 Y13.4466
G01 X16.3320 Y13.4767
G01 X16.3155 Y13.4949
G01 X16.2879 Y13.5225
G01 X16.2697 Y13.5390
G01 X16.2692 Y13.5384
G01 X16.2396 Y13.5638
G01 X16.2199 Y13.5784
G01 X16.1874 Y13.6001
G01 X16.1664 Y13.6127
G01 X16.1319 Y13.6311
G01 X16.1098 Y13.6416
G01 X16.0737 Y13.6565
G01 X16.0506 Y13.6648
G01 X16.0132 Y13.6761
G01 X15.9894 Y13.6821
G01 X15.9511 Y13.6897
G01 X15.9269 Y13.6933
G01 X15.8880 Y13.6971
G01 X15.8635 Y13.6983
G01 X14.9440 Y13.6988
G01 X14.9000 Y13.6971
G01 X14.9000 Y13.6965
G01 X14.8611 Y13.6933
G01 X14.8369 Y13.6897
G01 X14.8370 Y13.6884
G01 X14.8354 Y13.6882
G01 X14.8336 Y13.7288
G01 X14.8328 Y13.7288
G01 X14.8282 Y13.7724
G01 X14.8242 Y13.7941
G01 X14.8188 Y13.8159
G01 X14.8369 Y13.8123
G01 X14.8611 Y13.8087
G01 X14.9000 Y13.8049
G01 X14.9440 Y13.8032
G01 X15.8440 Y13.8032
G01 X15.8880 Y13.8049
G01 X15.8880 Y13.8055
G01 X15.9269 Y13.8087
G01 X15.9511 Y13.8123
G01 X15.9510 Y13.8136
G01 X15.9894 Y13.8199
G01 X16.0132 Y13.8259
G01 X16.0506 Y13.8372
G01 X16.0737 Y13.8455
G01 X16.1098 Y13.8604
G01 X16.1319 Y13.8709
G01 X16.1664 Y13.8893
G01 X16.1874 Y13.9019
G01 X16.2199 Y13.9236
G01 X16.2396 Y13.9382
G01 X16.2697 Y13.9630
G01 X16.2879 Y13.9795
G01 X16.3155 Y14.0071
G01 X16.3320 Y14.0253
G01 X16.3314 Y14.0258
G01 X16.3568 Y14.0554
G01 X16.3733 Y14.0778
G01 X16.3924 Y14.1066
G01 X16.4164 Y14.0926
G01 X16.4566 Y14.0733
G01 X16.4698 Y14.0678
G01 X16.5119 Y14.0531
G01 X16.5256 Y14.0491
G01 X16.5691 Y14.0392
G01 X16.5831 Y14.0368
G01 X16.6275 Y14.0318
G01 X16.6640 Y14.0304
G01 X16.7005 Y14.0318
G01 X16.7005 Y14.0326
G01 X16.7449 Y14.0368
G01 X16.7677 Y14.0408
G01 X16.8024 Y14.0491
G01 X16.8161 Y14.0531
G01 X16.8582 Y14.0678
G01 X16.8735 Y14.0741
G01 X16.9116 Y14.0926
G01 X16.9355 Y14.1067
G01 X16.9566 Y14.0751
G01 X16.9712 Y14.0554
G01 X16.9960 Y14.0253
G01 X17.0125 Y14.0071
G01 X17.0401 Y13.9795
G01 X17.0583 Y13.9630
G01 X17.0588 Y13.9636
G01 X17.0884 Y13.9382
G01 X17.1108 Y13.9217
G01 X17.1406 Y13.9019
G01 X17.1616 Y13.8893
G01 X17.1961 Y13.8709
G01 X17.2182 Y13.8604
G01 X17.2543 Y13.8455
G01 X17.2774 Y13.8372
G01 X17.3148 Y13.8259
G01 X17.3386 Y13.8199
G01 X17.3769 Y13.8123
G01 X17.4011 Y13.8087
G01 X17.4400 Y13.8049
G01 X17.4840 Y13.8032
G01 X18.3840 Y13.8032
G01 X18.4280 Y13.8049
G01 X18.4280 Y13.8055
G01 X18.4669 Y13.8087
G01 X18.4911 Y13.8123
G01 X18.4910 Y13.8136
G01 X18.5294 Y13.8199
G01 X18.5532 Y13.8259
G01 X18.5906 Y13.8372
G01 X18.6137 Y13.8455
G01 X18.6498 Y13.8604
G01 X18.6719 Y13.8709
G01 X18.7064 Y13.8893
G01 X18.7274 Y13.9019
G01 X18.7599 Y13.9236
G01 X18.7796 Y13.9382
G01 X18.8097 Y13.9630
G01 X18.8279 Y13.9795
G01 X18.8555 Y14.0071
G01 X18.8720 Y14.0253
G01 X18.8714 Y14.0258
G01 X18.8968 Y14.0554
G01 X18.9133 Y14.0778
G01 X18.9331 Y14.1076
G01 X18.9457 Y14.1286
G01 X18.9641 Y14.1631
G01 X18.9746 Y14.1852
G01 X18.9895 Y14.2213
G01 X18.9978 Y14.2444
G01 X19.0091 Y14.2818
G01 X19.0151 Y14.3056
G01 X19.0227 Y14.3439
G01 X19.0263 Y14.3681
G01 X19.0301 Y14.4070
G01 X19.0313 Y14.4315
G01 X19.0318 Y15.1010
G01 X19.0301 Y15.1450
G01 X19.0295 Y15.1450
G01 X19.0263 Y15.1839
G01 X19.0227 Y15.2081
G01 X19.0214 Y15.2080
G01 X19.0151 Y15.2464
G01 X19.0091 Y15.2702
G01 X18.9933 Y15.3202
G01 X19.0152 Y15.3182
G01 X19.0437 Y15.3175
G01 X19.0904 Y15.3199
G01 X19.0904 Y15.3209
G01 X19.1078 Y15.3229
G01 X19.0881 Y15.2086
G01 X19.0831 Y15.1643
G01 X19.0768 Y15.0523
G01 X19.0762 Y15.0300
G01 X19.0768 Y15.0077
G01 X19.0831 Y14.8957
G01 X19.0839 Y14.8958
G01 X19.0881 Y14.8514
G01 X19.1085 Y14.7320
G01 X19.1168 Y14.6974
G01 X19.1479 Y14.5896
G01 X19.1626 Y14.5475
G01 X19.2064 Y14.4418
G01 X19.2249 Y14.4037
G01 X19.2791 Y14.3055
G01 X19.3028 Y14.2678
G01 X19.3677 Y14.1763
G01 X19.3956 Y14.1414
G01 X19.4703 Y14.0578
G01 X19.5018 Y14.0263
G01 X19.5854 Y13.9516
G01 X19.5861 Y13.9523
G01 X19.6203 Y13.9237
G01 X19.7163 Y13.8557
G01 X19.7495 Y13.8351
G01 X19.7760 Y13.8205
G01 X19.7760 Y10.2107
G01 X19.7413 Y10.1830
G01 X19.6786 Y10.1269
G01 X19.6471 Y10.0954
G01 X19.5910 Y10.0327
G01 X19.5917 Y10.0321
G01 X19.5632 Y9.9978
G01 X19.5113 Y9.9247
G01 X19.4908 Y9.8914
G01 X19.4501 Y9.8178
G01 X19.4308 Y9.7776
G01 X19.3986 Y9.6999
G01 X19.3838 Y9.6578
G01 X19.3606 Y9.5770
G01 X19.3506 Y9.5335
G01 X19.3365 Y9.4506
G01 X19.3315 Y9.4063
G01 X19.3262 Y9.3000
G01 X19.3262 Y8.8000
G01 X19.3268 Y8.7777
G01 X19.3315 Y8.6937
G01 X19.3323 Y8.6938
G01 X19.3365 Y8.6494
G01 X19.3522 Y8.5577
G01 X19.3606 Y8.5230
G01 X19.3838 Y8.4422
G01 X19.3986 Y8.4001
G01 X19.4316 Y8.3202
G01 X19.4501 Y8.2822
G01 X19.4908 Y8.2086
G01 X19.5145 Y8.1708
G01 X19.5632 Y8.1022
G01 X19.5910 Y8.0673
G01 X19.6471 Y8.0046
G01 X19.6786 Y7.9731
G01 X19.7413 Y7.9170
G01 X19.7419 Y7.9177
G01 X19.7762 Y7.8892
G01 X19.8493 Y7.8373
G01 X19.8826 Y7.8168
G01 X19.9562 Y7.7761
G01 X19.9964 Y7.7568
G01 X20.0741 Y7.7246
G01 X20.1162 Y7.7098
G01 X20.1970 Y7.6866
G01 X20.2405 Y7.6766
G01 X20.3234 Y7.6625
G01 X20.3677 Y7.6575
G01 X20.4740 Y7.6522
G01 X20.5803 Y7.6575
G01 X20.5802 Y7.6583
G01 X20.6246 Y7.6625
G01 X20.7075 Y7.6766
G01 X20.7510 Y7.6866
G01 X20.8318 Y7.7098
G01 X20.8739 Y7.7246
G01 X20.9538 Y7.7576
G01 X20.9918 Y7.7761
G01 X21.0654 Y7.8168
G01 X21.1032 Y7.8405
G01 X21.1718 Y7.8892
G01 X21.2067 Y7.9170
G01 X21.2694 Y7.9731
G01 X21.3009 Y8.0046
G01 X21.3570 Y8.0673
G01 X21.3563 Y8.0679
G01 X21.3848 Y8.1022
G01 X21.4367 Y8.1753
G01 X21.4572 Y8.2086
G01 X21.4979 Y8.2822
G01 X21.5172 Y8.3224
G01 X21.5494 Y8.4001
G01 X21.5642 Y8.4422
G01 X21.5874 Y8.5230
G01 X21.5974 Y8.5665
G01 X21.6115 Y8.6494
G01 X21.6165 Y8.6937
G01 X21.6218 Y8.8000
G01 X21.6218 Y9.3000
G01 X21.6165 Y9.4063
G01 X21.6157 Y9.4062
G01 X21.6115 Y9.4506
G01 X21.5958 Y9.5423
G01 X21.5874 Y9.5770
G01 X21.5642 Y9.6578
G01 X21.5494 Y9.6999
G01 X21.5164 Y9.7798
G01 X21.4979 Y9.8178
G01 X21.4572 Y9.8914
G01 X21.4335 Y9.9292
G01 X21.3848 Y9.9978
G01 X21.3570 Y10.0327
G01 X21.3009 Y10.0954
G01 X21.2694 Y10.1269
G01 X21.2067 Y10.1830
G01 X21.2061 Y10.1823
G01 X21.1720 Y10.2107
G01 X21.1720 Y13.8205
G01 X21.1985 Y13.8351
G01 X21.2362 Y13.8588
G01 X21.3277 Y13.9237
G01 X21.3626 Y13.9516
G01 X21.4462 Y14.0263
G01 X21.4777 Y14.0578
G01 X21.5524 Y14.1414
G01 X21.5517 Y14.1421
G01 X21.5803 Y14.1763
G01 X21.6395 Y14.2599
G01 X21.6281 Y14.1926
G01 X21.6231 Y14.1483
G01 X21.6168 Y14.0363
G01 X21.6162 Y14.0140
G01 X21.6168 Y13.9917
G01 X21.6231 Y13.8797
G01 X21.6239 Y13.8798
G01 X21.6281 Y13.8354
G01 X21.6485 Y13.7160
G01 X21.6568 Y13.6814
G01 X21.6879 Y13.5736
G01 X21.7026 Y13.5315
G01 X21.7464 Y13.4258
G01 X21.7649 Y13.3877
G01 X21.8191 Y13.2895
G01 X21.8428 Y13.2518
G01 X21.9077 Y13.1603
G01 X21.9356 Y13.1254
G01 X22.0103 Y13.0418
G01 X22.0418 Y13.0103
G01 X22.1254 Y12.9356
G01 X22.1261 Y12.9363
G01 X22.1603 Y12.9077
G01 X22.2563 Y12.8397
G01 X22.2895 Y12.8191
G01 X22.3160 Y12.8045
G01 X22.3160 Y10.2107
G01 X22.2813 Y10.1830
G01 X22.2186 Y10.1269
G01 X22.1871 Y10.0954
G01 X22.1310 Y10.0327
G01 X22.1317 Y10.0321
G01 X22.1032 Y9.9978
G01 X22.0513 Y9.9247
G01 X22.0308 Y9.8914
G01 X21.9901 Y9.8178
G01 X21.9708 Y9.7776
G01 X21.9386 Y9.6999
G01 X21.9238 Y9.6578
G01 X21.9006 Y9.5770
G01 X21.8906 Y9.5335
G01 X21.8765 Y9.4506
G01 X21.8715 Y9.4063
G01 X21.8662 Y9.3000
G01 X21.8662 Y8.8000
G01 X21.8668 Y8.7777
G01 X21.8715 Y8.6937
G01 X21.8723 Y8.6938
G01 X21.8765 Y8.6494
G01 X21.8922 Y8.5577
G01 X21.9006 Y8.5230
G01 X21.9238 Y8.4422
G01 X21.9386 Y8.4001
G01 X21.9716 Y8.3202
G01 X21.9901 Y8.2822
G01 X22.0308 Y8.2086
G01 X22.0545 Y8.1708
G01 X22.1032 Y8.1022
G01 X22.1310 Y8.0673
G01 X22.1871 Y8.0046
G01 X22.2186 Y7.9731
G01 X22.2813 Y7.9170
G01 X22.2819 Y7.9177
G01 X22.3162 Y7.8892
G01 X22.3893 Y7.8373
G01 X22.4226 Y7.8168
G01 X22.4962 Y7.7761
G01 X22.5364 Y7.7568
G01 X22.6141 Y7.7246
G01 X22.6562 Y7.7098
G01 X22.7370 Y7.6866
G01 X22.7805 Y7.6766
G01 X22.8634 Y7.6625
G01 X22.9077 Y7.6575
G01 X23.0140 Y7.6522
G01 X23.1203 Y7.6575
G01 X23.1202 Y7.6583
G01 X23.1646 Y7.6625
G01 X23.2563 Y7.6782
G01 X23.2910 Y7.6866
G01 X23.3718 Y7.7098
G01 X23.4139 Y7.7246
G01 X23.4938 Y7.7576
G01 X23.5318 Y7.7761
G01 X23.6054 Y7.8168
G01 X23.6432 Y7.8405
G01 X23.7118 Y7.8892
G01 X23.7467 Y7.9170
G01 X23.8094 Y7.9731
G01 X23.8409 Y8.0046
G01 X23.8970 Y8.0673
G01 X23.8963 Y8.0679
G01 X23.9248 Y8.1022
G01 X23.9767 Y8.1753
G01 X23.9972 Y8.2086
G01 X24.0379 Y8.2822
G01 X24.0572 Y8.3224
G01 X24.0894 Y8.4001
G01 X24.1042 Y8.4422
G01 X24.1274 Y8.5230
G01 X24.1374 Y8.5665
G01 X24.1515 Y8.6494
G01 X24.1565 Y8.6937
G01 X24.1612 Y8.7777
G01 X24.1618 Y8.8000
G01 X24.1618 Y9.3000
G01 X24.1612 Y9.3223
G01 X24.1565 Y9.4063
G01 X24.1557 Y9.4062
G01 X24.1515 Y9.4506
G01 X24.1358 Y9.5423
G01 X24.1274 Y9.5770
G01 X24.1042 Y9.6578
G01 X24.0894 Y9.6999
G01 X24.0564 Y9.7798
G01 X24.0379 Y9.8178
G01 X23.9972 Y9.8914
G01 X23.9735 Y9.9292
G01 X23.9248 Y9.9978
G01 X23.8970 Y10.0327
G01 X23.8409 Y10.0954
G01 X23.8094 Y10.1269
G01 X23.7467 Y10.1830
G01 X23.7461 Y10.1823
G01 X23.7120 Y10.2107
G01 X23.7120 Y12.8045
G01 X23.7385 Y12.8191
G01 X23.7762 Y12.8428
G01 X23.8677 Y12.9077
G01 X23.9026 Y12.9356
G01 X23.9862 Y13.0103
G01 X24.0177 Y13.0418
G01 X24.0924 Y13.1254
G01 X24.0917 Y13.1261
G01 X24.1203 Y13.1603
G01 X24.1883 Y13.2563
G01 X24.2089 Y13.2895
G01 X24.2631 Y13.3877
G01 X24.2825 Y13.4279
G01 X24.3254 Y13.5315
G01 X24.3401 Y13.5736
G01 X24.3712 Y13.6814
G01 X24.3811 Y13.7248
G01 X24.3999 Y13.8354
G01 X24.4049 Y13.8797
G01 X24.4078 Y13.9315
G01 X24.4475 Y13.9158
G01 X24.4613 Y13.9112
G01 X24.5053 Y13.8994
G01 X24.5196 Y13.8965
G01 X24.5646 Y13.8898
G01 X24.5791 Y13.8885
G01 X24.6148 Y13.8869
G01 X24.6391 Y13.8873
G01 X24.6845 Y13.8911
G01 X24.7031 Y13.8937
G01 X24.7436 Y13.9020
G01 X24.7577 Y13.9056
G01 X24.8010 Y13.9195
G01 X24.8179 Y13.9261
G01 X24.8560 Y13.9435
G01 X24.8560 Y10.2107
G01 X24.8213 Y10.1830
G01 X24.7586 Y10.1269
G01 X24.7271 Y10.0954
G01 X24.6710 Y10.0327
G01 X24.6717 Y10.0321
G01 X24.6432 Y9.9978
G01 X24.5913 Y9.9247
G01 X24.5708 Y9.8914
G01 X24.5301 Y9.8178
G01 X24.5108 Y9.7776
G01 X24.4786 Y9.6999
G01 X24.4638 Y9.6578
G01 X24.4406 Y9.5770
G01 X24.4306 Y9.5335
G01 X24.4165 Y9.4506
G01 X24.4115 Y9.4063
G01 X24.4062 Y9.3000
G01 X24.4062 Y8.8000
G01 X24.4115 Y8.6937
G01 X24.4123 Y8.6938
G01 X24.4165 Y8.6494
G01 X24.4322 Y8.5577
G01 X24.4406 Y8.5230
G01 X24.4638 Y8.4422
G01 X24.4786 Y8.4001
G01 X24.5116 Y8.3202
G01 X24.5301 Y8.2822
G01 X24.5708 Y8.2086
G01 X24.5945 Y8.1708
G01 X24.6432 Y8.1022
G01 X24.6710 Y8.0673
G01 X24.7271 Y8.0046
G01 X24.7586 Y7.9731
G01 X24.8213 Y7.9170
G01 X24.8219 Y7.9177
G01 X24.8562 Y7.8892
G01 X24.9293 Y7.8373
G01 X24.9626 Y7.8168
G01 X25.0362 Y7.7761
G01 X25.0764 Y7.7568
G01 X25.1541 Y7.7246
G01 X25.1962 Y7.7098
G01 X25.2770 Y7.6866
G01 X25.3205 Y7.6766
G01 X25.4034 Y7.6625
G01 X25.4477 Y7.6575
G01 X25.5540 Y7.6522
G01 X25.6603 Y7.6575
G01 X25.6602 Y7.6583
G01 X25.7046 Y7.6625
G01 X25.7963 Y7.6782
G01 X25.8310 Y7.6866
G01 X25.9118 Y7.7098
G01 X25.9539 Y7.7246
G01 X26.0338 Y7.7576
G01 X26.0718 Y7.7761
G01 X26.1454 Y7.8168
G01 X26.1832 Y7.8405
G01 X26.2518 Y7.8892
G01 X26.2867 Y7.9170
G01 X26.3494 Y7.9731
G01 X26.3809 Y8.0046
G01 X26.4370 Y8.0673
G01 X26.4363 Y8.0679
G01 X26.4648 Y8.1022
G01 X26.5167 Y8.1753
G01 X26.5372 Y8.2086
G01 X26.5779 Y8.2822
G01 X26.5972 Y8.3224
G01 X26.6294 Y8.4001
G01 X26.6442 Y8.4422
G01 X26.6674 Y8.5230
G01 X26.6774 Y8.5665
G01 X26.6915 Y8.6494
G01 X26.6965 Y8.6937
G01 X26.7012 Y8.7777
G01 X26.7018 Y8.8000
G01 X26.7018 Y9.3000
G01 X26.6965 Y9.4063
G01 X26.6957 Y9.4062
G01 X26.6915 Y9.4506
G01 X26.6758 Y9.5423
G01 X26.6674 Y9.5770
G01 X26.6442 Y9.6578
G01 X26.6294 Y9.6999
G01 X26.5964 Y9.7798
G01 X26.5779 Y9.8178
G01 X26.5372 Y9.8914
G01 X26.5135 Y9.9292
G01 X26.4648 Y9.9978
G01 X26.4370 Y10.0327
G01 X26.3809 Y10.0954
G01 X26.3494 Y10.1269
G01 X26.2867 Y10.1830
G01 X26.2861 Y10.1823
G01 X26.2520 Y10.2107
G01 X26.2520 Y14.2329
G01 X31.9391 Y19.9200
G01 X33.0130 Y19.9200
G01 X27.6005 Y14.5075
G01 X27.5627 Y14.4662
G01 X27.5634 Y14.4656
G01 X27.5349 Y14.4313
G01 X27.5122 Y14.3993
G01 X27.4917 Y14.3661
G01 X27.4754 Y14.3367
G01 X27.4561 Y14.2965
G01 X27.4432 Y14.2654
G01 X27.4284 Y14.2233
G01 X27.4191 Y14.1909
G01 X27.4092 Y14.1474
G01 X27.4036 Y14.1142
G01 X27.3986 Y14.0699
G01 X27.3960 Y14.0140
G01 X27.3960 Y10.2107
G01 X27.3613 Y10.1830
G01 X27.2986 Y10.1269
G01 X27.2671 Y10.0954
G01 X27.2110 Y10.0327
G01 X27.2117 Y10.0321
G01 X27.1832 Y9.9978
G01 X27.1313 Y9.9247
G01 X27.1108 Y9.8914
G01 X27.0701 Y9.8178
G01 X27.0508 Y9.7776
G01 X27.0186 Y9.6999
G01 X27.0038 Y9.6578
G01 X26.9806 Y9.5770
G01 X26.9706 Y9.5335
G01 X26.9565 Y9.4506
G01 X26.9515 Y9.4063
G01 X26.9462 Y9.3000
G01 X26.9462 Y8.8000
G01 X26.9468 Y8.7777
G01 X26.9515 Y8.6937
G01 X26.9523 Y8.6938
G01 X26.9565 Y8.6494
G01 X26.9722 Y8.5577
G01 X26.9806 Y8.5230
G01 X27.0038 Y8.4422
G01 X27.0186 Y8.4001
G01 X27.0516 Y8.3202
G01 X27.0701 Y8.2822
G01 X27.1108 Y8.2086
G01 X27.1345 Y8.1708
G01 X27.1832 Y8.1022
G01 X27.2110 Y8.0673
G01 X27.2671 Y8.0046
G01 X27.2986 Y7.9731
G01 X27.3613 Y7.9170
G01 X27.3619 Y7.9177
G01 X27.3962 Y7.8892
G01 X27.4693 Y7.8373
G01 X27.5026 Y7.8168
G01 X27.5762 Y7.7761
G01 X27.6164 Y7.7568
G01 X27.6941 Y7.7246
G01 X27.7362 Y7.7098
G01 X27.8170 Y7.6866
G01 X27.8605 Y7.6766
G01 X27.9434 Y7.6625
G01 X27.9877 Y7.6575
G01 X28.0717 Y7.6528
G01 X28.0940 Y7.6522
G01 X28.1163 Y7.6528
G01 X28.2003 Y7.6575
G01 X28.2002 Y7.6583
G01 X28.2446 Y7.6625
G01 X28.3275 Y7.6766
G01 X28.3710 Y7.6866
G01 X28.4518 Y7.7098
G01 X28.4939 Y7.7246
G01 X28.5738 Y7.7576
G01 X28.6118 Y7.7761
G01 X28.6854 Y7.8168
G01 X28.7232 Y7.8405
G01 X28.7918 Y7.8892
G01 X28.8267 Y7.9170
G01 X28.8894 Y7.9731
G01 X28.9209 Y8.0046
G01 X28.9770 Y8.0673
G01 X28.9763 Y8.0679
G01 X29.0048 Y8.1022
G01 X29.0567 Y8.1753
G01 X29.0772 Y8.2086
G01 X29.1179 Y8.2822
G01 X29.1372 Y8.3224
G01 X29.1694 Y8.4001
G01 X29.1842 Y8.4422
G01 X29.2074 Y8.5230
G01 X29.2174 Y8.5665
G01 X29.2315 Y8.6494
G01 X29.2365 Y8.6937
G01 X29.2412 Y8.7777
G01 X29.2418 Y8.8000
G01 X29.2418 Y9.3000
G01 X29.2365 Y9.4063
G01 X29.2357 Y9.4062
G01 X29.2315 Y9.4506
G01 X29.2158 Y9.5423
G01 X29.2074 Y9.5770
G01 X29.1842 Y9.6578
G01 X29.1694 Y9.6999
G01 X29.1364 Y9.7798
G01 X29.1179 Y9.8178
G01 X29.0772 Y9.8914
G01 X29.0535 Y9.9292
G01 X29.0048 Y9.9978
G01 X28.9770 Y10.0327
G01 X28.9209 Y10.0954
G01 X28.8894 Y10.1269
G01 X28.8267 Y10.1830
G01 X28.8261 Y10.1823
G01 X28.7920 Y10.2107
G01 X28.7920 Y13.7249
G01 X33.9711 Y18.9040
G01 X36.8230 Y18.9040
G01 X32.6805 Y14.7615
G01 X32.6427 Y14.7202
G01 X32.6434 Y14.7196
G01 X32.6149 Y14.6853
G01 X32.5922 Y14.6533
G01 X32.5717 Y14.6201
G01 X32.5554 Y14.5907
G01 X32.5361 Y14.5505
G01 X32.5232 Y14.5194
G01 X32.5084 Y14.4773
G01 X32.4991 Y14.4449
G01 X32.4892 Y14.4014
G01 X32.4836 Y14.3682
G01 X32.4786 Y14.3239
G01 X32.4760 Y14.2680
G01 X32.4760 Y10.2107
G01 X32.4413 Y10.1830
G01 X32.3786 Y10.1269
G01 X32.3471 Y10.0954
G01 X32.2910 Y10.0327
G01 X32.2917 Y10.0321
G01 X32.2632 Y9.9978
G01 X32.2113 Y9.9247
G01 X32.1908 Y9.8914
G01 X32.1501 Y9.8178
G01 X32.1308 Y9.7776
G01 X32.0986 Y9.6999
G01 X32.0838 Y9.6578
G01 X32.0606 Y9.5770
G01 X32.0506 Y9.5335
G01 X32.0365 Y9.4506
G01 X32.0315 Y9.4063
G01 X32.0262 Y9.3000
G01 X32.0262 Y8.8000
G01 X32.0268 Y8.7777
G01 X32.0315 Y8.6937
G01 X32.0323 Y8.6938
G01 X32.0365 Y8.6494
G01 X32.0522 Y8.5577
G01 X32.0606 Y8.5230
G01 X32.0838 Y8.4422
G01 X32.0986 Y8.4001
G01 X32.1316 Y8.3202
G01 X32.1501 Y8.2822
G01 X32.1908 Y8.2086
G01 X32.2145 Y8.1708
G01 X32.2632 Y8.1022
G01 X32.2910 Y8.0673
G01 X32.3471 Y8.0046
G01 X32.3786 Y7.9731
G01 X32.4413 Y7.9170
G01 X32.4419 Y7.9177
G01 X32.4762 Y7.8892
G01 X32.5493 Y7.8373
G01 X32.5826 Y7.8168
G01 X32.6562 Y7.7761
G01 X32.6964 Y7.7568
G01 X32.7741 Y7.7246
G01 X32.8162 Y7.7098
G01 X32.8970 Y7.6866
G01 X32.9405 Y7.6766
G01 X33.0234 Y7.6625
G01 X33.0677 Y7.6575
G01 X33.1517 Y7.6528
G01 X33.1740 Y7.6522
G01 X33.1963 Y7.6528
G01 X33.2803 Y7.6575
G01 X33.2802 Y7.6583
G01 X33.3246 Y7.6625
G01 X33.4075 Y7.6766
G01 X33.4510 Y7.6866
G01 X33.5318 Y7.7098
G01 X33.5739 Y7.7246
G01 X33.6538 Y7.7576
G01 X33.6918 Y7.7761
G01 X33.7654 Y7.8168
G01 X33.8032 Y7.8405
G01 X33.8718 Y7.8892
G01 X33.9067 Y7.9170
G01 X33.9694 Y7.9731
G01 X34.0009 Y8.0046
G01 X34.0570 Y8.0673
G01 X34.0563 Y8.0679
G01 X34.0848 Y8.1022
G01 X34.1367 Y8.1753
G01 X34.1572 Y8.2086
G01 X34.1979 Y8.2822
G01 X34.2172 Y8.3224
G01 X34.2494 Y8.4001
G01 X34.2642 Y8.4422
G01 X34.2874 Y8.5230
G01 X34.2974 Y8.5665
G01 X34.3115 Y8.6494
G01 X34.3165 Y8.6937
G01 X34.3218 Y8.8000
G01 X34.3218 Y9.3000
G01 X34.3212 Y9.3223
G01 X34.3165 Y9.4063
G01 X34.3157 Y9.4062
G01 X34.3115 Y9.4506
G01 X34.2958 Y9.5423
G01 X34.2874 Y9.5770
G01 X34.2642 Y9.6578
G01 X34.2494 Y9.6999
G01 X34.2164 Y9.7798
G01 X34.1979 Y9.8178
G01 X34.1572 Y9.8914
G01 X34.1335 Y9.9292
G01 X34.0848 Y9.9978
G01 X34.0570 Y10.0327
G01 X34.0009 Y10.0954
G01 X33.9694 Y10.1269
G01 X33.9067 Y10.1830
G01 X33.9061 Y10.1823
G01 X33.8720 Y10.2107
G01 X33.8720 Y13.9789
G01 X37.8191 Y17.9261
G01 X42.4490 Y17.9261
G01 X40.3005 Y15.7775
G01 X40.2851 Y15.7613
G01 X40.2627 Y15.7362
G01 X40.2634 Y15.7356
G01 X40.2349 Y15.7013
G01 X40.2122 Y15.6693
G01 X40.1917 Y15.6361
G01 X40.1754 Y15.6067
G01 X40.1561 Y15.5665
G01 X40.1432 Y15.5354
G01 X40.1284 Y15.4933
G01 X40.1191 Y15.4609
G01 X40.1092 Y15.4174
G01 X40.1036 Y15.3842
G01 X40.0986 Y15.3399
G01 X40.0960 Y15.2840
G01 X40.0960 Y10.2107
G01 X40.0613 Y10.1830
G01 X39.9986 Y10.1269
G01 X39.9671 Y10.0954
G01 X39.9110 Y10.0327
G01 X39.9117 Y10.0321
G01 X39.8832 Y9.9978
G01 X39.8313 Y9.9247
G01 X39.8108 Y9.8914
G01 X39.7701 Y9.8178
G01 X39.7508 Y9.7776
G01 X39.7186 Y9.6999
G01 X39.7038 Y9.6578
G01 X39.6806 Y9.5770
G01 X39.6706 Y9.5335
G01 X39.6565 Y9.4506
G01 X39.6515 Y9.4063
G01 X39.6462 Y9.3000
G01 X39.6462 Y8.8000
G01 X39.6515 Y8.6937
G01 X39.6523 Y8.6938
G01 X39.6565 Y8.6494
G01 X39.6722 Y8.5577
G01 X39.6806 Y8.5230
G01 X39.7038 Y8.4422
G01 X39.7186 Y8.4001
G01 X39.7516 Y8.3202
G01 X39.7701 Y8.2822
G01 X39.8108 Y8.2086
G01 X39.8345 Y8.1708
G01 X39.8832 Y8.1022
G01 X39.9110 Y8.0673
G01 X39.9671 Y8.0046
G01 X39.9986 Y7.9731
G01 X40.0613 Y7.9170
G01 X40.0619 Y7.9177
G01 X40.0962 Y7.8892
G01 X40.1693 Y7.8373
G01 X40.2026 Y7.8168
G01 X40.2762 Y7.7761
G01 X40.3164 Y7.7568
G01 X40.3941 Y7.7246
G01 X40.4362 Y7.7098
G01 X40.5170 Y7.6866
G01 X40.5605 Y7.6766
G01 X40.6434 Y7.6625
G01 X40.6877 Y7.6575
G01 X40.7940 Y7.6522
G01 X40.9003 Y7.6575
G01 X40.9002 Y7.6583
G01 X40.9446 Y7.6625
G01 X41.0363 Y7.6782
G01 X41.0710 Y7.6866
G01 X41.1518 Y7.7098
G01 X41.1939 Y7.7246
G01 X41.2738 Y7.7576
G01 X41.3118 Y7.7761
G01 X41.3854 Y7.8168
G01 X41.4232 Y7.8405
G01 X41.4918 Y7.8892
G01 X41.5267 Y7.9170
G01 X41.5894 Y7.9731
G01 X41.6209 Y8.0046
G01 X41.6770 Y8.0673
G01 X41.6763 Y8.0679
G01 X41.7048 Y8.1022
G01 X41.7567 Y8.1753
G01 X41.7772 Y8.2086
G01 X41.8179 Y8.2822
G01 X41.8372 Y8.3224
G01 X41.8694 Y8.4001
G01 X41.8842 Y8.4422
G01 X41.9074 Y8.5230
G01 X41.9174 Y8.5665
G01 X41.9315 Y8.6494
G01 X41.9365 Y8.6937
G01 X41.9418 Y8.8000
G01 X41.9418 Y9.3000
G01 X41.9365 Y9.4063
G01 X41.9357 Y9.4062
G01 X41.9315 Y9.4506
G01 X41.9158 Y9.5423
G01 X41.9074 Y9.5770
G01 X41.8842 Y9.6578
G01 X41.8694 Y9.6999
G01 X41.8364 Y9.7798
G01 X41.8179 Y9.8178
G01 X41.7772 Y9.8914
G01 X41.7535 Y9.9292
G01 X41.7048 Y9.9978
G01 X41.6770 Y10.0327
G01 X41.6209 Y10.0954
G01 X41.5894 Y10.1269
G01 X41.5267 Y10.1830
G01 X41.5261 Y10.1823
G01 X41.4920 Y10.2107
G01 X41.4920 Y14.9949
G01 X43.6231 Y17.1260
G01 X44.0061 Y17.1260
G01 X42.8405 Y15.9604
G01 X42.8027 Y15.9191
G01 X42.8034 Y15.9185
G01 X42.7749 Y15.8843
G01 X42.7522 Y15.8523
G01 X42.7317 Y15.8190
G01 X42.7154 Y15.7896
G01 X42.6961 Y15.7494
G01 X42.6832 Y15.7183
G01 X42.6684 Y15.6762
G01 X42.6591 Y15.6438
G01 X42.6492 Y15.6003
G01 X42.6436 Y15.5672
G01 X42.6386 Y15.5228
G01 X42.6360 Y15.4669
G01 X42.6360 Y10.2107
G01 X42.6013 Y10.1830
G01 X42.5386 Y10.1269
G01 X42.5071 Y10.0954
G01 X42.4510 Y10.0327
G01 X42.4517 Y10.0321
G01 X42.4232 Y9.9978
G01 X42.3713 Y9.9247
G01 X42.3508 Y9.8914
G01 X42.3101 Y9.8178
G01 X42.2908 Y9.7776
G01 X42.2586 Y9.6999
G01 X42.2438 Y9.6578
G01 X42.2206 Y9.5770
G01 X42.2106 Y9.5335
G01 X42.1965 Y9.4506
G01 X42.1915 Y9.4063
G01 X42.1862 Y9.3000
G01 X42.1862 Y8.8000
G01 X42.1915 Y8.6937
G01 X42.1923 Y8.6938
G01 X42.1965 Y8.6494
G01 X42.2106 Y8.5665
G01 X42.2206 Y8.5230
G01 X42.2438 Y8.4422
G01 X42.2586 Y8.4001
G01 X42.2916 Y8.3202
G01 X42.3101 Y8.2822
G01 X42.3508 Y8.2086
G01 X42.3745 Y8.1708
G01 X42.4232 Y8.1022
G01 X42.4510 Y8.0673
G01 X42.5071 Y8.0046
G01 X42.5386 Y7.9731
G01 X42.6013 Y7.9170
G01 X42.6019 Y7.9177
G01 X42.6362 Y7.8892
G01 X42.7093 Y7.8373
G01 X42.7426 Y7.8168
G01 X42.8162 Y7.7761
G01 X42.8564 Y7.7568
G01 X42.9341 Y7.7246
G01 X42.9762 Y7.7098
G01 X43.0570 Y7.6866
G01 X43.1005 Y7.6766
G01 X43.1834 Y7.6625
G01 X43.2277 Y7.6575
G01 X43.3340 Y7.6522
G01 X43.4403 Y7.6575
G01 X43.4402 Y7.6583
G01 X43.4846 Y7.6625
G01 X43.5763 Y7.6782
G01 X43.6110 Y7.6866
G01 X43.6918 Y7.7098
G01 X43.7339 Y7.7246
G01 X43.8138 Y7.7576
G01 X43.8518 Y7.7761
G01 X43.9254 Y7.8168
G01 X43.9632 Y7.8405
G01 X44.0318 Y7.8892
G01 X44.0667 Y7.9170
G01 X44.1294 Y7.9731
G01 X44.1609 Y8.0046
G01 X44.2170 Y8.0673
G01 X44.2163 Y8.0679
G01 X44.2448 Y8.1022
G01 X44.2967 Y8.1753
G01 X44.3172 Y8.2086
G01 X44.3579 Y8.2822
G01 X44.3772 Y8.3224
G01 X44.4094 Y8.4001
G01 X44.4242 Y8.4422
G01 X44.4474 Y8.5230
G01 X44.4574 Y8.5665
G01 X44.4715 Y8.6494
G01 X44.4765 Y8.6937
G01 X44.4812 Y8.7777
G01 X44.4818 Y8.8000
G01 X44.4818 Y9.3000
G01 X44.4765 Y9.4063
G01 X44.4757 Y9.4062
G01 X44.4715 Y9.4506
G01 X44.4558 Y9.5423
G01 X44.4474 Y9.5770
G01 X44.4242 Y9.6578
G01 X44.4094 Y9.6999
G01 X44.3764 Y9.7798
G01 X44.3579 Y9.8178
G01 X44.3172 Y9.8914
G01 X44.2935 Y9.9292
G01 X44.2448 Y9.9978
G01 X44.2170 Y10.0327
G01 X44.1609 Y10.0954
G01 X44.1294 Y10.1269
G01 X44.0667 Y10.1830
G01 X44.0661 Y10.1823
G01 X44.0320 Y10.2107
G01 X44.0320 Y14.9514
G01 X44.0590 Y14.8576
G01 X44.0737 Y14.8155
G01 X44.1175 Y14.7098
G01 X44.1360 Y14.6717
G01 X44.1902 Y14.5736
G01 X44.2140 Y14.5358
G01 X44.2788 Y14.4443
G01 X44.3067 Y14.4095
G01 X44.3814 Y14.3258
G01 X44.4129 Y14.2943
G01 X44.4965 Y14.2196
G01 X44.4972 Y14.2203
G01 X44.5314 Y14.1918
G01 X44.6229 Y14.1269
G01 X44.6606 Y14.1031
G01 X44.7588 Y14.0489
G01 X44.7990 Y14.0295
G01 X44.9026 Y13.9866
G01 X44.9447 Y13.9719
G01 X45.0525 Y13.9408
G01 X45.0960 Y13.9309
G01 X45.1760 Y13.9173
G01 X45.1760 Y10.2107
G01 X45.1413 Y10.1830
G01 X45.0786 Y10.1269
G01 X45.0471 Y10.0954
G01 X44.9910 Y10.0327
G01 X44.9917 Y10.0321
G01 X44.9632 Y9.9978
G01 X44.9113 Y9.9247
G01 X44.8908 Y9.8914
G01 X44.8501 Y9.8178
G01 X44.8308 Y9.7776
G01 X44.7986 Y9.6999
G01 X44.7838 Y9.6578
G01 X44.7606 Y9.5770
G01 X44.7506 Y9.5335
G01 X44.7365 Y9.4506
G01 X44.7315 Y9.4063
G01 X44.7262 Y9.3000
G01 X44.7262 Y8.8000
G01 X44.7315 Y8.6937
G01 X44.7323 Y8.6938
G01 X44.7365 Y8.6494
G01 X44.7522 Y8.5577
G01 X44.7606 Y8.5230
G01 X44.7838 Y8.4422
G01 X44.7986 Y8.4001
G01 X44.8316 Y8.3202
G01 X44.8501 Y8.2822
G01 X44.8908 Y8.2086
G01 X44.9145 Y8.1708
G01 X44.9632 Y8.1022
G01 X44.9910 Y8.0673
G01 X45.0471 Y8.0046
G01 X45.0786 Y7.9731
G01 X45.1413 Y7.9170
G01 X45.1419 Y7.9177
G01 X45.1762 Y7.8892
G01 X45.2493 Y7.8373
G01 X45.2826 Y7.8168
G01 X45.3562 Y7.7761
G01 X45.3964 Y7.7568
G01 X45.4741 Y7.7246
G01 X45.5162 Y7.7098
G01 X45.5970 Y7.6866
G01 X45.6405 Y7.6766
G01 X45.7234 Y7.6625
G01 X45.7677 Y7.6575
G01 X45.8740 Y7.6522
G01 X45.9803 Y7.6575
G01 X45.9802 Y7.6583
G01 X46.0246 Y7.6625
G01 X46.1075 Y7.6766
G01 X46.1510 Y7.6866
G01 X46.2318 Y7.7098
G01 X46.2739 Y7.7246
G01 X46.3538 Y7.7576
G01 X46.3918 Y7.7761
G01 X46.4654 Y7.8168
G01 X46.5032 Y7.8405
G01 X46.5718 Y7.8892
G01 X46.6067 Y7.9170
G01 X46.6694 Y7.9731
G01 X46.7009 Y8.0046
G01 X46.7570 Y8.0673
G01 X46.7563 Y8.0679
G01 X46.7848 Y8.1022
G01 X46.8367 Y8.1753
G01 X46.8572 Y8.2086
G01 X46.8979 Y8.2822
G01 X46.9172 Y8.3224
G01 X46.9494 Y8.4001
G01 X46.9642 Y8.4422
G01 X46.9874 Y8.5230
G01 X46.9974 Y8.5665
G01 X47.0115 Y8.6494
G01 X47.0165 Y8.6937
G01 X47.0218 Y8.8000
G01 X47.0218 Y9.3000
G01 X47.0178 Y9.3832
G01 X47.0517 Y9.3757
G01 X47.0654 Y9.3734
G01 X47.1085 Y9.3687
G01 X47.1440 Y9.3674
G01 X47.1795 Y9.3687
G01 X47.1795 Y9.3695
G01 X47.2226 Y9.3734
G01 X47.2446 Y9.3772
G01 X47.2702 Y9.3831
G01 X47.2662 Y9.3000
G01 X47.2662 Y8.8000
G01 X47.2715 Y8.6937
G01 X47.2723 Y8.6938
G01 X47.2765 Y8.6494
G01 X47.2922 Y8.5577
G01 X47.3006 Y8.5230
G01 X47.3238 Y8.4422
G01 X47.3386 Y8.4001
G01 X47.3716 Y8.3202
G01 X47.3901 Y8.2822
G01 X47.4308 Y8.2086
G01 X47.4545 Y8.1708
G01 X47.5032 Y8.1022
G01 X47.5310 Y8.0673
G01 X47.5871 Y8.0046
G01 X47.6186 Y7.9731
G01 X47.6813 Y7.9170
G01 X47.6819 Y7.9177
G01 X47.7160 Y7.8893
G01 X47.7160 Y7.1560
G01 X47.7186 Y7.1001
G01 X47.7193 Y7.1001
G01 X47.7236 Y7.0558
G01 X47.7292 Y7.0226
G01 X47.7391 Y6.9791
G01 X47.7484 Y6.9467
G01 X47.7632 Y6.9046
G01 X47.7769 Y6.8714
G01 X47.7954 Y6.8333
G01 X47.8117 Y6.8039
G01 X47.8354 Y6.7661
G01 X47.8549 Y6.7387
G01 X47.8827 Y6.7038
G01 X47.9205 Y6.6625
G01 X48.9306 Y5.6524
G01 X48.9108 Y5.6459
G01 X48.8957 Y5.6401
G01 X48.8579 Y5.6229
G01 X48.8456 Y5.6165
G01 X48.8079 Y5.5942
G01 X48.7963 Y5.5865
G01 X48.7614 Y5.5602
G01 X48.7507 Y5.5512
G01 X48.7253 Y5.5280
G01 X48.7092 Y5.5112
G01 X48.6808 Y5.4780
G01 X48.6723 Y5.4669
G01 X48.6477 Y5.4307
G01 X48.6405 Y5.4187
G01 X48.6166 Y5.3725
G01 X48.5406 Y5.4404
G01 X48.5399 Y5.4397
G01 X48.5057 Y5.4683
G01 X48.4142 Y5.5332
G01 X48.3765 Y5.5569
G01 X48.2783 Y5.6111
G01 X48.2381 Y5.6305
G01 X48.1345 Y5.6734
G01 X48.0924 Y5.6881
G01 X47.9846 Y5.7192
G01 X47.9412 Y5.7291
G01 X47.8306 Y5.7479
G01 X47.7863 Y5.7529
G01 X47.6743 Y5.7592
G01 X47.6520 Y5.7598
G01 X47.6297 Y5.7592
G01 X47.5177 Y5.7529
G01 X47.5178 Y5.7521
G01 X47.4734 Y5.7479
G01 X47.3628 Y5.7291
G01 X47.3194 Y5.7192
G01 X47.2116 Y5.6881
G01 X47.1695 Y5.6734
G01 X47.0638 Y5.6296
G01 X47.0257 Y5.6111
G01 X46.9275 Y5.5569
G01 X46.8898 Y5.5332
G01 X46.7983 Y5.4683
G01 X46.7634 Y5.4404
G01 X46.6798 Y5.3657
G01 X46.6483 Y5.3342
G01 X46.5736 Y5.2506
G01 X46.5743 Y5.2499
G01 X46.5457 Y5.2157
G01 X46.4777 Y5.1197
G01 X46.4571 Y5.0865
G01 X46.4029 Y4.9883
G01 X46.3835 Y4.9481
G01 X46.3406 Y4.8445
G01 X46.3259 Y4.8024
G01 X46.2948 Y4.6946
G01 X46.2849 Y4.6512
G01 X46.2661 Y4.5406
G01 X46.2611 Y4.4963
G01 X46.2548 Y4.3843
G01 X46.2542 Y4.3620
G01 X46.2548 Y4.3397
G01 X46.2611 Y4.2277
G01 X46.2619 Y4.2278
G01 X46.2661 Y4.1834
G01 X46.2865 Y4.0640
G01 X46.2948 Y4.0294
G01 X46.3259 Y3.9216
G01 X46.3406 Y3.8795
G01 X46.3844 Y3.7738
G01 X46.4029 Y3.7357
G01 X46.4571 Y3.6375
G01 X46.4808 Y3.5998
G01 X46.5457 Y3.5083
G01 X46.5736 Y3.4734
G01 X46.6483 Y3.3898
G01 X46.6798 Y3.3583
G01 X46.7634 Y3.2836
G01 X46.7641 Y3.2843
G01 X46.7983 Y3.2557
G01 X46.9008 Y3.1836
G01 X46.4911 Y2.7740
G01 X21.1519 Y2.7740
G01 X21.1446 Y2.7918
G01 X21.1341 Y2.8139
G01 X21.1157 Y2.8484
G01 X21.1031 Y2.8694
G01 X21.0814 Y2.9019
G01 X21.0668 Y2.9216
G01 X21.0420 Y2.9517
G01 X21.0255 Y2.9699
G01 X20.9979 Y2.9975
G01 X20.9797 Y3.0140
G01 X20.9792 Y3.0134
G01 X20.9496 Y3.0388
G01 X20.9272 Y3.0553
G01 X20.8974 Y3.0751
G01 X20.8764 Y3.0877
G01 X20.8419 Y3.1061
G01 X20.8198 Y3.1166
G01 X20.7837 Y3.1315
G01 X20.7606 Y3.1398
G01 X20.7232 Y3.1511
G01 X20.6994 Y3.1571
G01 X20.6611 Y3.1647
G01 X20.6369 Y3.1683
G01 X20.5980 Y3.1721
G01 X20.5540 Y3.1738
G01 X19.9040 Y3.1738
G01 X19.8600 Y3.1721
G01 X19.8600 Y3.1715
G01 X19.8211 Y3.1683
G01 X19.7969 Y3.1647
G01 X19.7970 Y3.1634
G01 X19.7586 Y3.1571
G01 X19.7348 Y3.1511
G01 X19.6974 Y3.1398
G01 X19.6743 Y3.1315
G01 X19.6382 Y3.1166
G01 X19.6161 Y3.1061
G01 X19.5816 Y3.0877
G01 X19.5606 Y3.0751
G01 X19.5281 Y3.0534
G01 X19.5084 Y3.0388
G01 X19.4783 Y3.0140
G01 X19.4601 Y2.9975
G01 X19.4325 Y2.9699
G01 X19.4160 Y2.9517
G01 X19.4166 Y2.9512
G01 X19.3912 Y2.9216
G01 X19.3747 Y2.8992
G01 X19.3549 Y2.8694
G01 X19.3423 Y2.8484
G01 X19.3239 Y2.8139
G01 X19.3134 Y2.7918
G01 X19.2985 Y2.7557
G01 X19.2902 Y2.7326
G01 X19.2789 Y2.6952
G01 X19.2729 Y2.6714
G01 X19.2653 Y2.6331
G01 X19.2617 Y2.6089
G01 X19.2579 Y2.5700
G01 X19.2562 Y2.5260
G01 X19.2562 Y1.6260
G01 X19.2579 Y1.5820
G01 X19.2585 Y1.5820
G01 X19.2617 Y1.5431
G01 X19.2653 Y1.5189
G01 X19.2666 Y1.5190
G01 X19.2729 Y1.4806
G01 X19.2789 Y1.4568
G01 X19.2902 Y1.4194
G01 X19.2985 Y1.3963
G01 X19.3134 Y1.3602
G01 X19.3239 Y1.3381
G01 X19.3423 Y1.3036
G01 X19.3549 Y1.2826
G01 X19.3766 Y1.2501
G01 X19.3912 Y1.2304
G01 X19.4160 Y1.2003
G01 X19.4325 Y1.1821
G01 X19.4601 Y1.1545
G01 X19.4783 Y1.1380
G01 X19.4788 Y1.1386
G01 X19.5084 Y1.1132
G01 X19.5308 Y1.0967
G01 X19.5606 Y1.0769
G01 X19.5816 Y1.0643
G01 X19.6161 Y1.0459
G01 X19.6382 Y1.0354
G01 X19.6743 Y1.0205
G01 X19.6974 Y1.0122
G01 X19.7348 Y1.0009
G01 X19.7586 Y0.9949
G01 X19.7969 Y0.9873
G01 X19.8211 Y0.9837
G01 X19.8600 Y0.9799
G01 X19.8845 Y0.9787
G01 X20.1219 Y0.9782
G01 X20.1084 Y0.9515
G01 X20.1027 Y0.9383
G01 X20.0870 Y0.8961
G01 X20.0828 Y0.8823
G01 X20.0720 Y0.8386
G01 X20.0693 Y0.8245
G01 X20.0636 Y0.7798
G01 X20.0615 Y0.7369
G01 X20.0625 Y0.7060
G01 X20.0633 Y0.7061
G01 X20.0669 Y0.6612
G01 X20.0707 Y0.6373
G01 X20.0786 Y0.6030
G01 X20.0824 Y0.5891
G01 X20.0967 Y0.5464
G01 X20.1032 Y0.5304
G01 X20.1212 Y0.4923
G01 X20.1280 Y0.4796
G01 X20.1516 Y0.4412
G01 X20.1598 Y0.4294
G01 X20.1876 Y0.3940
G01 X20.1971 Y0.3832
G01 X20.2287 Y0.3511
G01 X20.2394 Y0.3414
G01 X20.2399 Y0.3421
G01 X20.2744 Y0.3131
G01 X20.2911 Y0.3012
G01 X20.3241 Y0.2806
G01 X20.3366 Y0.2735
G01 X20.3771 Y0.2538
G01 X20.3904 Y0.2483
G01 X20.4329 Y0.2332
G01 X20.4467 Y0.2292
G01 X20.4906 Y0.2191
G01 X20.5047 Y0.2167
G01 X20.5495 Y0.2116
G01 X20.5864 Y0.2101
G01 X74.0891 Y0.2101
G01 X74.1258 Y0.2116
G01 X74.1258 Y0.2123
G01 X74.1704 Y0.2166
G01 X74.1934 Y0.2206
G01 X74.2419 Y0.2330
G01 X74.2842 Y0.2479
G01 X74.2996 Y0.2543
G01 X74.3378 Y0.2729
G01 X74.3503 Y0.2799
G01 X74.3882 Y0.3038
G01 X74.3998 Y0.3121
G01 X74.4348 Y0.3402
G01 X74.4454 Y0.3498
G01 X74.4770 Y0.3816
G01 X74.4865 Y0.3923
G01 X74.4857 Y0.3929
G01 X74.5143 Y0.4274
G01 X74.5256 Y0.4436
G01 X74.5462 Y0.4772
G01 X74.5530 Y0.4898
G01 X74.5723 Y0.5302
G01 X74.5777 Y0.5435
G01 X74.5922 Y0.5859
G01 X74.5961 Y0.5997
G01 X74.6045 Y0.6376
G01 X74.6194 Y0.6157
G01 X74.6472 Y0.5811
G01 X74.6567 Y0.5706
G01 X74.6882 Y0.5393
G01 X74.6988 Y0.5299
G01 X74.6994 Y0.5306
G01 X74.7336 Y0.5023
G01 X74.7495 Y0.4912
G01 X74.7828 Y0.4706
G01 X74.7953 Y0.4638
G01 X74.8353 Y0.4446
G01 X74.8484 Y0.4392
G01 X74.8904 Y0.4246
G01 X74.9040 Y0.4207
G01 X74.9473 Y0.4109
G01 X74.9613 Y0.4085
G01 X75.0054 Y0.4035
G01 X75.0418 Y0.4021
G01 X83.7137 Y0.4021
G01 X83.7349 Y0.3872
G01 X83.7749 Y0.3654
G01 X83.8156 Y0.3488
G01 X83.8578 Y0.3369
G01 X83.9012 Y0.3296
G01 X83.9450 Y0.3272
G01 X84.5450 Y0.3272
G01 X84.5888 Y0.3296
G01 X84.6322 Y0.3369
G01 X84.6744 Y0.3488
G01 X84.7151 Y0.3654
G01 X84.7551 Y0.3872
G01 X84.7763 Y0.4021
G01 X84.9837 Y0.4021
G01 X85.0049 Y0.3872
G01 X85.0449 Y0.3654
G01 X85.0856 Y0.3488
G01 X85.1278 Y0.3369
G01 X85.1712 Y0.3296
G01 X85.2150 Y0.3272
G01 X85.8150 Y0.3272
G01 X85.8588 Y0.3296
G01 X85.9022 Y0.3369
G01 X85.9444 Y0.3488
G01 X85.9851 Y0.3654
G01 X86.0251 Y0.3872
G01 X86.0463 Y0.4021
G01 X86.2537 Y0.4021
G01 X86.2749 Y0.3872
G01 X86.3149 Y0.3654
G01 X86.3556 Y0.3488
G01 X86.3978 Y0.3369
G01 X86.4412 Y0.3296
G01 X86.4850 Y0.3272
G01 X87.0850 Y0.3272
G01 X87.1288 Y0.3296
G01 X87.1722 Y0.3369
G01 X87.2144 Y0.3488
G01 X87.2551 Y0.3654
G01 X87.2951 Y0.3872
G01 X87.3323 Y0.4134
G01 X87.3663 Y0.4437
G01 X87.3966 Y0.4777
G01 X87.4200 Y0.5109
G01 X87.4434 Y0.4777
G01 X87.4737 Y0.4437
G01 X87.5077 Y0.4134
G01 X87.5449 Y0.3872
G01 X87.5849 Y0.3654
G01 X87.6256 Y0.3488
G01 X87.6678 Y0.3369
G01 X87.7112 Y0.3296
G01 X87.7550 Y0.3272
G01 X88.3550 Y0.3272
G01 X88.3988 Y0.3296
G01 X88.4422 Y0.3369
G01 X88.4844 Y0.3488
G01 X88.5251 Y0.3654
G01 X88.5651 Y0.3872
G01 X88.6023 Y0.4134
G01 X88.6363 Y0.4437
G01 X88.6666 Y0.4777
G01 X88.6928 Y0.5149
G01 X88.7146 Y0.5549
G01 X88.7312 Y0.5956
G01 X88.7431 Y0.6378
G01 X88.7504 Y0.6812
G01 X88.7528 Y0.7250
G01 X88.7528 Y0.8020
G01 X90.0212 Y0.8020
G01 X90.0444 Y0.7822
G01 X90.0668 Y0.7657
G01 X90.0966 Y0.7459
G01 X90.1176 Y0.7333
G01 X90.1521 Y0.7149
G01 X90.1742 Y0.7044
G01 X90.2103 Y0.6895
G01 X90.2334 Y0.6812
G01 X90.2708 Y0.6699
G01 X90.2946 Y0.6639
G01 X90.3329 Y0.6563
G01 X90.3571 Y0.6527
G01 X90.3960 Y0.6489
G01 X90.4400 Y0.6472
G01 X91.3400 Y0.6472
G01 X91.3840 Y0.6489
G01 X91.3840 Y0.6495
G01 X91.4229 Y0.6527
G01 X91.4471 Y0.6563
G01 X91.4470 Y0.6576
G01 X91.4854 Y0.6639
G01 X91.5092 Y0.6699
G01 X91.5466 Y0.6812
G01 X91.5697 Y0.6895
G01 X91.6058 Y0.7044
G01 X91.6279 Y0.7149
G01 X91.6624 Y0.7333
G01 X91.6834 Y0.7459
G01 X91.7159 Y0.7676
G01 X91.7356 Y0.7822
G01 X91.7657 Y0.8070
G01 X91.7839 Y0.8235
G01 X91.8097 Y0.8493
G01 X92.1926 Y0.8507
G01 X92.1994 Y0.8342
G01 X92.2099 Y0.8121
G01 X92.2283 Y0.7776
G01 X92.2409 Y0.7566
G01 X92.2626 Y0.7241
G01 X92.2772 Y0.7044
G01 X92.3020 Y0.6743
G01 X92.3185 Y0.6561
G01 X92.3461 Y0.6285
G01 X92.3643 Y0.6120
G01 X92.3648 Y0.6126
G01 X92.3944 Y0.5872
G01 X92.4168 Y0.5707
G01 X92.4466 Y0.5509
G01 X92.4676 Y0.5383
G01 X92.5021 Y0.5199
G01 X92.5242 Y0.5094
G01 X92.5603 Y0.4945
G01 X92.5834 Y0.4862
G01 X92.6208 Y0.4749
G01 X92.6446 Y0.4689
G01 X92.6829 Y0.4613
G01 X92.7071 Y0.4577
G01 X92.7460 Y0.4539
G01 X92.7705 Y0.4527
G01 X93.4400 Y0.4522
G01 X93.4840 Y0.4539
G01 X93.4840 Y0.4545
G01 X93.5229 Y0.4577
G01 X93.5471 Y0.4613
G01 X93.5470 Y0.4626
G01 X93.5854 Y0.4689
G01 X93.6092 Y0.4749
G01 X93.6466 Y0.4862
G01 X93.6697 Y0.4945
G01 X93.7058 Y0.5094
G01 X93.7279 Y0.5199
G01 X93.7624 Y0.5383
G01 X93.7834 Y0.5509
G01 X93.8159 Y0.5726
G01 X93.8356 Y0.5872
G01 X93.8657 Y0.6120
G01 X93.8839 Y0.6285
G01 X93.9115 Y0.6561
G01 X93.9280 Y0.6743
G01 X93.9274 Y0.6748
G01 X93.9528 Y0.7044
G01 X93.9693 Y0.7268
G01 X93.9891 Y0.7566
G01 X94.0017 Y0.7776
G01 X94.0201 Y0.8121
G01 X94.0306 Y0.8342
G01 X94.0455 Y0.8703
G01 X94.0538 Y0.8934
G01 X94.0651 Y0.9308
G01 X94.0711 Y0.9546
G01 X94.0787 Y0.9929
G01 X94.0823 Y1.0171
G01 X94.0861 Y1.0560
G01 X94.0873 Y1.0805
G01 X94.0874 Y2.0150
G01 X94.1045 Y2.0132
G01 X94.1400 Y2.0118
G01 X94.1755 Y2.0132
G01 X94.1755 Y2.0139
G01 X94.1926 Y2.0155
G01 X94.1922 Y1.1000
G01 X94.1939 Y1.0560
G01 X94.1945 Y1.0560
G01 X94.1977 Y1.0171
G01 X94.2013 Y0.9929
G01 X94.2026 Y0.9930
G01 X94.2089 Y0.9546
G01 X94.2149 Y0.9308
G01 X94.2262 Y0.8934
G01 X94.2345 Y0.8703
G01 X94.2494 Y0.8342
G01 X94.2599 Y0.8121
G01 X94.2783 Y0.7776
G01 X94.2909 Y0.7566
G01 X94.3126 Y0.7241
G01 X94.3272 Y0.7044
G01 X94.3520 Y0.6743
G01 X94.3685 Y0.6561
G01 X94.3961 Y0.6285
G01 X94.4143 Y0.6120
G01 X94.4148 Y0.6126
G01 X94.4444 Y0.5872
G01 X94.4641 Y0.5726
G01 X94.4966 Y0.5509
G01 X94.5176 Y0.5383
G01 X94.5521 Y0.5199
G01 X94.5742 Y0.5094
G01 X94.6103 Y0.4945
G01 X94.6334 Y0.4862
G01 X94.6708 Y0.4749
G01 X94.6946 Y0.4689
G01 X94.7329 Y0.4613
G01 X94.7571 Y0.4577
G01 X94.7960 Y0.4539
G01 X94.8400 Y0.4522
G01 X95.4900 Y0.4522
G01 X95.5340 Y0.4539
G01 X95.5340 Y0.4545
G01 X95.5729 Y0.4577
G01 X95.5971 Y0.4613
G01 X95.5970 Y0.4626
G01 X95.6354 Y0.4689
G01 X95.6592 Y0.4749
G01 X95.6966 Y0.4862
G01 X95.7197 Y0.4945
G01 X95.7558 Y0.5094
G01 X95.7779 Y0.5199
G01 X95.8172 Y0.5412
G01 X95.8386 Y0.4940
G01 X95.8454 Y0.4813
G01 X95.8689 Y0.4427
G01 X95.8772 Y0.4309
G01 X95.9049 Y0.3952
G01 X95.9144 Y0.3843
G01 X95.9460 Y0.3520
G01 X95.9567 Y0.3423
G01 X95.9573 Y0.3429
G01 X95.9918 Y0.3138
G01 X96.0087 Y0.3017
G01 X96.0416 Y0.2810
G01 X96.0542 Y0.2740
G01 X96.0948 Y0.2541
G01 X96.1081 Y0.2485
G01 X96.1507 Y0.2334
G01 X96.1645 Y0.2294
G01 X96.2086 Y0.2192
G01 X96.2228 Y0.2167
G01 X96.2677 Y0.2116
G01 X96.3047 Y0.2101
G01 X106.3900 Y0.2101
G01 X106.4265 Y0.2116
G01 X106.4265 Y0.2123
G01 X106.4709 Y0.2166
G01 X106.4937 Y0.2205
G01 X106.5421 Y0.2328
G01 X106.5842 Y0.2475
G01 X106.5995 Y0.2539
G01 X106.6376 Y0.2724
G01 X106.6500 Y0.2792
G01 X106.6878 Y0.3030
G01 X106.6994 Y0.3112
G01 X106.7343 Y0.3390
G01 X106.7449 Y0.3485
G01 X106.7765 Y0.3801
G01 X106.7860 Y0.3907
G01 X106.7853 Y0.3913
G01 X106.8138 Y0.4256
G01 X106.8252 Y0.4418
G01 X106.8458 Y0.4750
G01 X106.8526 Y0.4874
G01 X106.8720 Y0.5276
G01 X106.8775 Y0.5408
G01 X106.8922 Y0.5829
G01 X106.8961 Y0.5966
G01 X106.9061 Y0.6401
G01 X106.9084 Y0.6541
G01 X106.9134 Y0.6985
G01 X106.9142 Y0.7127
G01 X106.9149 Y0.7350
G01 X106.9149 Y10.1408
G01 X106.9135 Y10.1768
G01 X106.9127 Y10.1767
G01 X106.9086 Y10.2204
G01 X106.9048 Y10.2427
G01 X106.8929 Y10.2906
G01 X106.8786 Y10.3321
G01 X106.8726 Y10.3469
G01 X106.8545 Y10.3848
G01 X106.8478 Y10.3971
G01 X106.8248 Y10.4345
G01 X106.8168 Y10.4460
G01 X106.7898 Y10.4806
G01 X106.7806 Y10.4912
G01 X106.7499 Y10.5226
G01 X106.7396 Y10.5321
G01 X106.7390 Y10.5316
G01 X106.7056 Y10.5600
G01 X106.6895 Y10.5717
G01 X106.6575 Y10.5922
G01 X106.6453 Y10.5992
G01 X106.6061 Y10.6189
G01 X106.5932 Y10.6246
G01 X106.5521 Y10.6399
G01 X106.5387 Y10.6440
G01 X106.4961 Y10.6547
G01 X106.4823 Y10.6573
G01 X106.4388 Y10.6632
G01 X106.4212 Y10.6645
G01 X106.4595 Y10.7021
G01 X106.4690 Y10.7127
G01 X106.4683 Y10.7133
G01 X106.4968 Y10.7476
G01 X106.5082 Y10.7638
G01 X106.5288 Y10.7970
G01 X106.5356 Y10.8094
G01 X106.5550 Y10.8496
G01 X106.5605 Y10.8628
G01 X106.5752 Y10.9049
G01 X106.5791 Y10.9186
G01 X106.5891 Y10.9621
G01 X106.5914 Y10.9761
G01 X106.5964 Y11.0205
G01 X106.5972 Y11.0347
G01 X106.5979 Y11.0570
G01 X106.5979 Y16.8912
G01 X106.5973 Y16.9132
G01 X106.5965 Y16.9272
G01 X106.5957 Y16.9272
G01 X106.5916 Y16.9708
G01 X106.5878 Y16.9932
G01 X106.5759 Y17.0410
G01 X106.5616 Y17.0825
G01 X106.5556 Y17.0973
G01 X106.5375 Y17.1352
G01 X106.5308 Y17.1476
G01 X106.5078 Y17.1850
G01 X106.4998 Y17.1965
G01 X106.4728 Y17.2311
G01 X106.4636 Y17.2417
G01 X106.4329 Y17.2731
G01 X106.4226 Y17.2826
G01 X106.4220 Y17.2820
G01 X106.3886 Y17.3104
G01 X106.3773 Y17.3187
G01 X106.3405 Y17.3427
G01 X106.3283 Y17.3496
G01 X106.2891 Y17.3694
G01 X106.2762 Y17.3750
G01 X106.2351 Y17.3903
G01 X106.2217 Y17.3944
G01 X106.1840 Y17.4039
G01 X106.2063 Y17.4237
G01 X106.2366 Y17.4577
G01 X106.2628 Y17.4949
G01 X106.2846 Y17.5349
G01 X106.3012 Y17.5756
G01 X106.3131 Y17.6178
G01 X106.3204 Y17.6612
G01 X106.3228 Y17.7050
G01 X106.3228 Y18.2318
G01 X106.3628 Y18.2280
G01 X106.3769 Y18.2275
G01 X106.3922 Y18.2272
G01 X106.4210 Y18.2282
G01 X106.4351 Y18.2293
G01 X106.4350 Y18.2301
G01 X106.4788 Y18.2349
G01 X106.5005 Y18.2390
G01 X106.5490 Y18.2520
G01 X106.5905 Y18.2671
G01 X106.6050 Y18.2734
G01 X106.6430 Y18.2923
G01 X106.6552 Y18.2993
G01 X106.6923 Y18.3232
G01 X106.7037 Y18.3315
G01 X106.7380 Y18.3593
G01 X106.7484 Y18.3688
G01 X106.7793 Y18.4003
G01 X106.7886 Y18.4108
G01 X106.8159 Y18.4455
G01 X106.8267 Y18.4611
G01 X106.8472 Y18.4946
G01 X106.8540 Y18.5070
G01 X106.8729 Y18.5468
G01 X106.8783 Y18.5599
G01 X106.8927 Y18.6016
G01 X106.8965 Y18.6151
G01 X106.9062 Y18.6582
G01 X106.9086 Y18.6721
G01 X106.9135 Y18.7159
G01 X106.9149 Y18.7520
G01 X106.9149 Y20.7690
G01 X106.9243 Y20.7803
G01 X106.9923 Y20.8763
G01 X107.0129 Y20.9095
G01 X107.0671 Y21.0077
G01 X107.0865 Y21.0479
G01 X107.1294 Y21.1515
G01 X107.1441 Y21.1936
G01 X107.1752 Y21.3014
G01 X107.1851 Y21.3448
G01 X107.2039 Y21.4554
G01 X107.2089 Y21.4997
G01 X107.2152 Y21.6117
G01 X107.2158 Y21.6340
G01 X107.2152 Y21.6563
G01 X107.2089 Y21.7683
G01 X107.2081 Y21.7682
G01 X107.2039 Y21.8126
G01 X107.1835 Y21.9320
G01 X107.1752 Y21.9666
G01 X107.1441 Y22.0744
G01 X107.1294 Y22.1165
G01 X107.0856 Y22.2222
G01 X107.0671 Y22.2603
G01 X107.0129 Y22.3585
G01 X106.9892 Y22.3962
G01 X106.9243 Y22.4877
G01 X106.9149 Y22.4995
G01 X106.9149 Y36.2900
G01 X106.9134 Y36.3265
G01 X106.9127 Y36.3265
G01 X106.9084 Y36.3709
G01 X106.9045 Y36.3937
G01 X106.8922 Y36.4421
G01 X106.8775 Y36.4842
G01 X106.8711 Y36.4995
G01 X106.8526 Y36.5376
G01 X106.8458 Y36.5500
G01 X106.8220 Y36.5878
G01 X106.8138 Y36.5994
G01 X106.7860 Y36.6343
G01 X106.7765 Y36.6449
G01 X106.7449 Y36.6765
G01 X106.7343 Y36.6860
G01 X106.7337 Y36.6853
G01 X106.6994 Y36.7138
G01 X106.6832 Y36.7252
G01 X106.6500 Y36.7458
G01 X106.6376 Y36.7526
G01 X106.5974 Y36.7720
G01 X106.5842 Y36.7775
G01 X106.5421 Y36.7922
G01 X106.5284 Y36.7961
G01 X106.4849 Y36.8061
G01 X106.4709 Y36.8084
G01 X106.4265 Y36.8134
G01 X106.3900 Y36.8149
G01 X79.5699 Y36.8149
G01 X79.5380 Y36.8138
G01 X79.5380 Y36.8131
G01 X79.5043 Y36.8104
G01 X79.4278 Y36.8256
G01 X79.3828 Y36.8557
G01 X79.4023 Y36.8731
G01 X79.4338 Y36.9047
G01 X79.4563 Y36.9298
G01 X79.4556 Y36.9304
G01 X79.4841 Y36.9647
G01 X79.5067 Y36.9967
G01 X79.5273 Y37.0299
G01 X79.5436 Y37.0593
G01 X79.5629 Y37.0995
G01 X79.5758 Y37.1306
G01 X79.5905 Y37.1727
G01 X79.5999 Y37.2051
G01 X79.6098 Y37.2486
G01 X79.6154 Y37.2818
G01 X79.6204 Y37.3261
G01 X79.6229 Y37.3820
G01 X79.6204 Y37.4379
G01 X79.6197 Y37.4379
G01 X79.6154 Y37.4822
G01 X79.6082 Y37.5242
G01 X79.5999 Y37.5589
G01 X79.5905 Y37.5913
G01 X79.5758 Y37.6334
G01 X79.5620 Y37.6666
G01 X79.5436 Y37.7047
G01 X79.5273 Y37.7341
G01 X79.5036 Y37.7719
G01 X79.4841 Y37.7993
G01 X79.4563 Y37.8342
G01 X79.4338 Y37.8593
G01 X79.4023 Y37.8909
G01 X79.3772 Y37.9133
G01 X79.3766 Y37.9126
G01 X79.3423 Y37.9411
G01 X79.3103 Y37.9638
G01 X79.2771 Y37.9843
G01 X79.2476 Y38.0006
G01 X79.2187 Y38.0145
G01 X79.2252 Y38.0238
G01 X79.2458 Y38.0570
G01 X79.2526 Y38.0694
G01 X79.2720 Y38.1096
G01 X79.2775 Y38.1228
G01 X79.2922 Y38.1649
G01 X79.2961 Y38.1786
G01 X79.3061 Y38.2221
G01 X79.3084 Y38.2361
G01 X79.3134 Y38.2805
G01 X79.3149 Y38.3170
G01 X79.3149 Y65.2900
G01 X79.3134 Y65.3265
G01 X79.3127 Y65.3265
G01 X79.3084 Y65.3709
G01 X79.3045 Y65.3937
G01 X79.2922 Y65.4421
G01 X79.2775 Y65.4842
G01 X79.2711 Y65.4995
G01 X79.2526 Y65.5376
G01 X79.2458 Y65.5500
G01 X79.2220 Y65.5878
G01 X79.2138 Y65.5994
G01 X79.1860 Y65.6343
G01 X79.1765 Y65.6449
G01 X79.1449 Y65.6765
G01 X79.1343 Y65.6860
G01 X79.1337 Y65.6853
G01 X79.0994 Y65.7138
G01 X79.0832 Y65.7252
G01 X79.0500 Y65.7458
G01 X79.0376 Y65.7526
G01 X78.9974 Y65.7720
G01 X78.9842 Y65.7775
G01 X78.9421 Y65.7922
G01 X78.9284 Y65.7961
G01 X78.8849 Y65.8061
G01 X78.8709 Y65.8084
G01 X78.8265 Y65.8134
G01 X78.7900 Y65.8149
G01 X69.5262 Y65.8149
G01 X69.4907 Y65.8135
G01 X69.4908 Y65.8128
G01 X69.4476 Y65.8088
G01 X69.4257 Y65.8051
G01 X69.3782 Y65.7934
G01 X69.3372 Y65.7795
G01 X69.3228 Y65.7737
G01 X69.2850 Y65.7560
G01 X69.2728 Y65.7495
G01 X69.2357 Y65.7270
G01 X69.2243 Y65.7191
G01 X69.1899 Y65.6927
G01 X69.1794 Y65.6837
G01 X69.1480 Y65.6537
G01 X69.1386 Y65.6436
G01 X69.1390 Y65.6432
G01 X69.1107 Y65.6104
G01 X69.0987 Y65.5943
G01 X69.0712 Y65.5513
G01 X69.0512 Y65.5128
G01 X69.0455 Y65.5002
G01 X69.0297 Y65.4598
G01 X69.0254 Y65.4466
G01 X69.0142 Y65.4047
G01 X69.0114 Y65.3912
G01 X69.0048 Y65.3483
G01 X69.0034 Y65.3345
G01 X69.0015 Y65.2955
G01 X69.0017 Y65.2774
G01 X69.0045 Y65.2341
G01 X69.0074 Y65.2106
G01 X69.0137 Y65.1776
G01 X69.0168 Y65.1641
G01 X69.0290 Y65.1225
G01 X69.0336 Y65.1094
G01 X69.0347 Y65.1098
G01 X69.0413 Y65.0891
G01 X69.3101 Y64.4402
G01 X69.3101 Y63.7598
G01 X69.0498 Y63.1313
G01 X68.5687 Y62.6502
G01 X67.9402 Y62.3899
G01 X67.2098 Y62.3899
G01 X66.5813 Y62.6502
G01 X66.1002 Y63.1313
G01 X65.8399 Y63.7598
G01 X65.8399 Y64.4402
G01 X66.1087 Y65.0891
G01 X66.1210 Y65.1225
G01 X66.1332 Y65.1641
G01 X66.1363 Y65.1776
G01 X66.1438 Y65.2203
G01 X66.1455 Y65.2341
G01 X66.1483 Y65.2774
G01 X66.1485 Y65.2955
G01 X66.1466 Y65.3345
G01 X66.1452 Y65.3483
G01 X66.1442 Y65.3482
G01 X66.1386 Y65.3912
G01 X66.1344 Y65.4110
G01 X66.1203 Y65.4598
G01 X66.1045 Y65.5002
G01 X66.0986 Y65.5134
G01 X66.0788 Y65.5513
G01 X66.0717 Y65.5632
G01 X66.0476 Y65.5993
G01 X66.0393 Y65.6104
G01 X66.0114 Y65.6436
G01 X66.0020 Y65.6537
G01 X65.9706 Y65.6837
G01 X65.9601 Y65.6927
G01 X65.9257 Y65.7191
G01 X65.9112 Y65.7290
G01 X65.8772 Y65.7495
G01 X65.8650 Y65.7560
G01 X65.8257 Y65.7743
G01 X65.8128 Y65.7795
G01 X65.7718 Y65.7934
G01 X65.7584 Y65.7972
G01 X65.7161 Y65.8065
G01 X65.7024 Y65.8088
G01 X65.6593 Y65.8135
G01 X65.6455 Y65.8143
G01 X65.6238 Y65.8149
G01 X58.0916 Y65.8149
G01 X58.0694 Y65.8142
G01 X58.0553 Y65.8135
G01 X58.0553 Y65.8127
G01 X58.0112 Y65.8085
G01 X57.9886 Y65.8046
G01 X57.9404 Y65.7925
G01 X57.8985 Y65.7779
G01 X57.8835 Y65.7717
G01 X57.8455 Y65.7534
G01 X57.8330 Y65.7466
G01 X57.7954 Y65.7231
G01 X57.7838 Y65.7150
G01 X57.7491 Y65.6875
G01 X57.7385 Y65.6781
G01 X57.7070 Y65.6469
G01 X57.6975 Y65.6364
G01 X57.6981 Y65.6358
G01 X57.6696 Y65.6019
G01 X57.6581 Y65.5858
G01 X57.6376 Y65.5530
G01 X57.6306 Y65.5407
G01 X57.6188 Y65.5165
G01 X57.6077 Y65.5243
G01 X57.5745 Y65.5449
G01 X57.4763 Y65.5991
G01 X57.4361 Y65.6185
G01 X57.3325 Y65.6614
G01 X57.2904 Y65.6761
G01 X57.1826 Y65.7072
G01 X57.1392 Y65.7171
G01 X57.0286 Y65.7359
G01 X56.9843 Y65.7409
G01 X56.8723 Y65.7472
G01 X56.8500 Y65.7478
G01 X56.8277 Y65.7472
G01 X56.7157 Y65.7409
G01 X56.7158 Y65.7401
G01 X56.6714 Y65.7359
G01 X56.5520 Y65.7155
G01 X56.5174 Y65.7072
G01 X56.4096 Y65.6761
G01 X56.3675 Y65.6614
G01 X56.2618 Y65.6176
G01 X56.2237 Y65.5991
G01 X56.1255 Y65.5449
G01 X56.0878 Y65.5212
G01 X55.9963 Y65.4563
G01 X55.9614 Y65.4284
G01 X55.8778 Y65.3537
G01 X55.8463 Y65.3222
G01 X55.7716 Y65.2386
G01 X55.7723 Y65.2379
G01 X55.7437 Y65.2037
G01 X55.6757 Y65.1077
G01 X55.6551 Y65.0745
G01 X55.6009 Y64.9763
G01 X55.5800 Y64.9325
G01 X55.5591 Y64.9763
G01 X55.5049 Y65.0745
G01 X55.4812 Y65.1122
G01 X55.4163 Y65.2037
G01 X55.3884 Y65.2386
G01 X55.3137 Y65.3222
G01 X55.2822 Y65.3537
G01 X55.1986 Y65.4284
G01 X55.1979 Y65.4277
G01 X55.1637 Y65.4563
G01 X55.0677 Y65.5243
G01 X55.0345 Y65.5449
G01 X54.9363 Y65.5991
G01 X54.8961 Y65.6185
G01 X54.7925 Y65.6614
G01 X54.7504 Y65.6761
G01 X54.6426 Y65.7072
G01 X54.5992 Y65.7171
G01 X54.4886 Y65.7359
G01 X54.4443 Y65.7409
G01 X54.3323 Y65.7472
G01 X54.3100 Y65.7478
G01 X54.2877 Y65.7472
G01 X54.1757 Y65.7409
G01 X54.1758 Y65.7401
G01 X54.1314 Y65.7359
G01 X54.0120 Y65.7155
G01 X53.9774 Y65.7072
G01 X53.8696 Y65.6761
G01 X53.8275 Y65.6614
G01 X53.7218 Y65.6176
G01 X53.6837 Y65.5991
G01 X53.5855 Y65.5449
G01 X53.5478 Y65.5212
G01 X53.4563 Y65.4563
G01 X53.4214 Y65.4284
G01 X53.3378 Y65.3537
G01 X53.3063 Y65.3222
G01 X53.2316 Y65.2386
G01 X53.2323 Y65.2379
G01 X53.2037 Y65.2037
G01 X53.1357 Y65.1077
G01 X53.1151 Y65.0745
G01 X53.0609 Y64.9763
G01 X53.0400 Y64.9325
G01 X53.0191 Y64.9763
G01 X52.9649 Y65.0745
G01 X52.9412 Y65.1122
G01 X52.8763 Y65.2037
G01 X52.8484 Y65.2386
G01 X52.7737 Y65.3222
G01 X52.7422 Y65.3537
G01 X52.6586 Y65.4284
G01 X52.6579 Y65.4277
G01 X52.6237 Y65.4563
G01 X52.5277 Y65.5243
G01 X52.4945 Y65.5449
G01 X52.3963 Y65.5991
G01 X52.3561 Y65.6185
G01 X52.2525 Y65.6614
G01 X52.2104 Y65.6761
G01 X52.1026 Y65.7072
G01 X52.0592 Y65.7171
G01 X51.9486 Y65.7359
G01 X51.9043 Y65.7409
G01 X51.7923 Y65.7472
G01 X51.7700 Y65.7478
G01 X51.7477 Y65.7472
G01 X51.6357 Y65.7409
G01 X51.6358 Y65.7401
G01 X51.5914 Y65.7359
G01 X51.4720 Y65.7155
G01 X51.4374 Y65.7072
G01 X51.3296 Y65.6761
G01 X51.2875 Y65.6614
G01 X51.1818 Y65.6176
G01 X51.1437 Y65.5991
G01 X51.0455 Y65.5449
G01 X51.0078 Y65.5212
G01 X50.9163 Y65.4563
G01 X50.8814 Y65.4284
G01 X50.7978 Y65.3537
G01 X50.7663 Y65.3222
G01 X50.6916 Y65.2386
G01 X50.6923 Y65.2379
G01 X50.6637 Y65.2037
G01 X50.5957 Y65.1077
G01 X50.5751 Y65.0745
G01 X50.5209 Y64.9763
G01 X50.5000 Y64.9325
G01 X50.4791 Y64.9763
G01 X50.4249 Y65.0745
G01 X50.4012 Y65.1122
G01 X50.3363 Y65.2037
G01 X50.3084 Y65.2386
G01 X50.2337 Y65.3222
G01 X50.2022 Y65.3537
G01 X50.1186 Y65.4284
G01 X50.1179 Y65.4277
G01 X50.0837 Y65.4563
G01 X49.9877 Y65.5243
G01 X49.9545 Y65.5449
G01 X49.8563 Y65.5991
G01 X49.8161 Y65.6185
G01 X49.7125 Y65.6614
G01 X49.6704 Y65.6761
G01 X49.5626 Y65.7072
G01 X49.5192 Y65.7171
G01 X49.4086 Y65.7359
G01 X49.3643 Y65.7409
G01 X49.2523 Y65.7472
G01 X49.2300 Y65.7478
G01 X49.2077 Y65.7472
G01 X49.0957 Y65.7409
G01 X49.0958 Y65.7401
G01 X49.0514 Y65.7359
G01 X48.9320 Y65.7155
G01 X48.8974 Y65.7072
G01 X48.7896 Y65.6761
G01 X48.7475 Y65.6614
G01 X48.6418 Y65.6176
G01 X48.6037 Y65.5991
G01 X48.5055 Y65.5449
G01 X48.4678 Y65.5212
G01 X48.3763 Y65.4563
G01 X48.3596 Y65.4430
G01 X48.3452 Y65.4842
G01 X48.3398 Y65.4974
G01 X48.3204 Y65.5376
G01 X48.3135 Y65.5500
G01 X48.2898 Y65.5878
G01 X48.2815 Y65.5994
G01 X48.2537 Y65.6343
G01 X48.2442 Y65.6449
G01 X48.2127 Y65.6765
G01 X48.2021 Y65.6860
G01 X48.2014 Y65.6853
G01 X48.1672 Y65.7138
G01 X48.1510 Y65.7252
G01 X48.1178 Y65.7458
G01 X48.1053 Y65.7526
G01 X48.0651 Y65.7720
G01 X48.0520 Y65.7775
G01 X48.0099 Y65.7922
G01 X47.9962 Y65.7961
G01 X47.9527 Y65.8061
G01 X47.9386 Y65.8084
G01 X47.8943 Y65.8134
G01 X47.8801 Y65.8142
G01 X47.8578 Y65.8149
G01 X40.5262 Y65.8149
G01 X40.4907 Y65.8135
G01 X40.4908 Y65.8128
G01 X40.4476 Y65.8088
G01 X40.4257 Y65.8051
G01 X40.3782 Y65.7934
G01 X40.3372 Y65.7795
G01 X40.3228 Y65.7737
G01 X40.2850 Y65.7560
G01 X40.2728 Y65.7495
G01 X40.2357 Y65.7270
G01 X40.2243 Y65.7191
G01 X40.1899 Y65.6927
G01 X40.1794 Y65.6837
G01 X40.1480 Y65.6537
G01 X40.1386 Y65.6436
G01 X40.1390 Y65.6432
G01 X40.1107 Y65.6104
G01 X40.0987 Y65.5943
G01 X40.0712 Y65.5513
G01 X40.0512 Y65.5128
G01 X40.0455 Y65.5002
G01 X40.0297 Y65.4598
G01 X40.0254 Y65.4466
G01 X40.0142 Y65.4047
G01 X40.0114 Y65.3912
G01 X40.0048 Y65.3483
G01 X40.0034 Y65.3345
G01 X40.0015 Y65.2955
G01 X40.0017 Y65.2774
G01 X40.0045 Y65.2341
G01 X40.0074 Y65.2106
G01 X40.0137 Y65.1776
G01 X40.0168 Y65.1641
G01 X40.0290 Y65.1225
G01 X40.0336 Y65.1094
G01 X40.0347 Y65.1098
G01 X40.0413 Y65.0891
G01 X40.3101 Y64.4402
G01 X40.3101 Y63.7598
G01 X40.0498 Y63.1313
G01 X39.5687 Y62.6502
G01 X38.9402 Y62.3899
G01 X38.2098 Y62.3899
G01 X37.5813 Y62.6502
G01 X37.1002 Y63.1313
G01 X36.8399 Y63.7598
G01 X36.8399 Y64.4402
G01 X37.1087 Y65.0891
G01 X37.1210 Y65.1225
G01 X37.1332 Y65.1641
G01 X37.1363 Y65.1776
G01 X37.1438 Y65.2203
G01 X37.1455 Y65.2341
G01 X37.1483 Y65.2774
G01 X37.1485 Y65.2955
G01 X37.1466 Y65.3345
G01 X37.1452 Y65.3483
G01 X37.1442 Y65.3482
G01 X37.1386 Y65.3912
G01 X37.1344 Y65.4110
G01 X37.1203 Y65.4598
G01 X37.1045 Y65.5002
G01 X37.0986 Y65.5134
G01 X37.0788 Y65.5513
G01 X37.0717 Y65.5632
G01 X37.0476 Y65.5993
G01 X37.0393 Y65.6104
G01 X37.0114 Y65.6436
G01 X37.0020 Y65.6537
G01 X36.9706 Y65.6837
G01 X36.9601 Y65.6927
G01 X36.9257 Y65.7191
G01 X36.9112 Y65.7290
G01 X36.8772 Y65.7495
G01 X36.8650 Y65.7560
G01 X36.8257 Y65.7743
G01 X36.8128 Y65.7795
G01 X36.7718 Y65.7934
G01 X36.7584 Y65.7972
G01 X36.7161 Y65.8065
G01 X36.7024 Y65.8088
G01 X36.6593 Y65.8135
G01 X36.6238 Y65.8149
G01 X0.7100 Y65.8149
G01 X0.6735 Y65.8134
G01 X0.6735 Y65.8127
G01 X0.6291 Y65.8084
G01 X0.6063 Y65.8045
G01 X0.5579 Y65.7922
G01 X0.5158 Y65.7775
G01 X0.5026 Y65.7720
G01 X0.4624 Y65.7526
G01 X0.4500 Y65.7458
G01 X0.4122 Y65.7220
G01 X0.4006 Y65.7138
G01 X0.3657 Y65.6860
G01 X0.3551 Y65.6765
G01 X0.3235 Y65.6449
G01 X0.3140 Y65.6343
G01 X0.3147 Y65.6337
G01 X0.2862 Y65.5994
G01 X0.2748 Y65.5832
G01 X0.2542 Y65.5500
G01 X0.2474 Y65.5376
G01 X0.2280 Y65.4974
G01 X0.2225 Y65.4842
G01 X0.2078 Y65.4421
G01 X0.2039 Y65.4284
G01 X0.1939 Y65.3849
G01 X0.1916 Y65.3709
G01 X0.1866 Y65.3265
G01 X0.1851 Y65.2900
G01 X0.1851 Y0.7350
G01 X0.1866 Y0.6985
G01 X0.1873 Y0.6985
G01 X0.1916 Y0.6541
G00 Z2.0000
G00 X0.3432 Y0.7073
G01 F350.00
G01 Z-0.1306
G01 F400.00
G01 X0.3457 Y0.6803
G01 X0.3491 Y0.6609
G01 X0.3542 Y0.6399
G01 X0.3581 Y0.6262
G01 X0.3670 Y0.6007
G01 X0.3730 Y0.5862
G01 X0.3911 Y0.5506
G01 X0.4055 Y0.5277
G01 X0.4138 Y0.5161
G01 X0.4307 Y0.4949
G01 X0.4402 Y0.4843
G01 X0.4593 Y0.4652
G01 X0.4699 Y0.4557
G01 X0.4703 Y0.4561
G01 X0.4911 Y0.4388
G01 X0.5055 Y0.4286
G01 X0.5381 Y0.4092
G01 X0.5625 Y0.3975
G01 X0.5757 Y0.3920
G01 X0.6012 Y0.3831
G01 X0.6149 Y0.3792
G01 X0.6413 Y0.3731
G01 X0.6553 Y0.3707
G01 X0.6822 Y0.3677
G01 X0.7100 Y0.3665
G01 X17.8216 Y0.3665
G01 X17.8497 Y0.3677
G01 X17.8768 Y0.3708
G01 X17.8964 Y0.3743
G01 X17.9314 Y0.3834
G01 X17.9572 Y0.3925
G01 X17.9719 Y0.3987
G01 X18.0076 Y0.4171
G01 X18.0307 Y0.4317
G01 X18.0423 Y0.4401
G01 X18.0636 Y0.4573
G01 X18.0743 Y0.4670
G01 X18.0934 Y0.4864
G01 X18.1029 Y0.4972
G01 X18.1198 Y0.5188
G01 X18.1298 Y0.5332
G01 X18.1492 Y0.5665
G01 X18.1607 Y0.5913
G01 X18.1661 Y0.6046
G01 X18.1748 Y0.6305
G01 X18.1786 Y0.6444
G01 X18.1844 Y0.6711
G01 X18.1866 Y0.6853
G01 X18.1893 Y0.7125
G01 X18.1901 Y0.7369
G01 X18.1884 Y0.7686
G01 X18.1879 Y0.7685
G01 X18.1849 Y0.7957
G01 X18.1813 Y0.8149
G01 X18.1757 Y0.8364
G01 X18.1715 Y0.8501
G01 X18.1620 Y0.8757
G01 X18.1557 Y0.8901
G01 X18.1439 Y0.9133
G01 X18.1367 Y0.9258
G01 X18.1217 Y0.9486
G01 X18.1131 Y0.9601
G01 X18.0956 Y0.9811
G01 X18.0858 Y0.9917
G01 X18.0660 Y1.0105
G01 X18.0551 Y1.0199
G01 X18.0333 Y1.0364
G01 X18.0193 Y1.0459
G01 X17.9851 Y1.0650
G01 X17.9602 Y1.0763
G01 X17.9468 Y1.0814
G01 X17.9208 Y1.0897
G01 X17.8935 Y1.0964
G01 X17.6543 Y1.1440
G01 X17.4851 Y1.2571
G01 X17.4258 Y1.3457
G01 X17.4099 Y1.3675
G01 X17.3835 Y1.3978
G01 X17.3540 Y1.4250
G01 X17.3331 Y1.4410
G01 X17.3198 Y1.4501
G01 X17.2870 Y1.4691
G01 X17.2502 Y1.4853
G01 X17.2253 Y1.4938
G01 X17.1863 Y1.5032
G01 X17.1465 Y1.5083
G01 X17.1195 Y1.5095
G01 X15.9941 Y1.5095
G01 X15.9698 Y1.5086
G01 X15.9462 Y1.5062
G01 X15.9020 Y1.4984
G01 X15.6809 Y1.5423
G01 X15.4936 Y1.6676
G01 X15.4679 Y1.7044
G01 X15.4528 Y1.7227
G01 X15.4363 Y1.7405
G01 X15.0585 Y2.1183
G01 X15.0407 Y2.1348
G01 X15.0224 Y2.1499
G01 X14.9856 Y2.1756
G01 X14.8603 Y2.3629
G01 X14.8164 Y2.5840
G01 X14.8242 Y2.6282
G01 X14.8266 Y2.6518
G01 X14.8275 Y2.6761
G01 X14.8275 Y7.7590
G01 X14.8263 Y7.7860
G01 X14.8235 Y7.8122
G01 X14.8203 Y7.8309
G01 X14.8118 Y7.8649
G01 X14.8033 Y7.8898
G01 X14.7978 Y7.9036
G01 X14.7871 Y7.9265
G01 X14.7669 Y7.9612
G01 X14.7430 Y7.9936
G01 X14.7158 Y8.0231
G01 X14.6855 Y8.0495
G01 X14.6611 Y8.0671
G01 X14.4223 Y8.4238
G01 X14.4135 Y8.4355
G01 X14.3954 Y8.4568
G01 X14.3814 Y8.4714
G01 X14.3536 Y8.4958
G01 X14.3312 Y8.5123
G01 X14.3170 Y8.5215
G01 X14.2947 Y8.5341
G01 X14.2816 Y8.5407
G01 X14.2560 Y8.5516
G01 X14.2422 Y8.5566
G01 X14.2155 Y8.5645
G01 X14.2012 Y8.5679
G01 X14.1737 Y8.5727
G01 X14.1592 Y8.5744
G01 X14.1313 Y8.5760
G01 X14.1167 Y8.5760
G01 X14.0888 Y8.5744
G01 X14.0674 Y8.5718
G01 X14.0468 Y8.5679
G01 X14.0325 Y8.5645
G01 X14.0058 Y8.5566
G01 X13.9896 Y8.5507
G01 X13.9533 Y8.5341
G01 X13.9291 Y8.5203
G01 X13.9168 Y8.5123
G01 X13.8944 Y8.4958
G01 X13.8666 Y8.4714
G01 X13.8526 Y8.4568
G01 X13.8345 Y8.4355
G01 X13.8176 Y8.4125
G01 X13.5869 Y8.0671
G01 X13.2506 Y7.8424
G01 X12.8540 Y7.7635
G01 X12.4574 Y7.8424
G01 X12.1211 Y8.0671
G01 X11.8823 Y8.4238
G01 X11.8735 Y8.4355
G01 X11.8554 Y8.4568
G01 X11.8453 Y8.4674
G01 X11.8249 Y8.4864
G01 X11.8136 Y8.4958
G01 X11.7912 Y8.5123
G01 X11.7770 Y8.5215
G01 X11.7547 Y8.5341
G01 X11.7416 Y8.5407
G01 X11.7160 Y8.5516
G01 X11.7022 Y8.5566
G01 X11.6755 Y8.5645
G01 X11.6612 Y8.5679
G01 X11.6337 Y8.5727
G01 X11.6192 Y8.5744
G01 X11.5913 Y8.5760
G01 X11.5767 Y8.5760
G01 X11.5488 Y8.5744
G01 X11.5274 Y8.5718
G01 X11.4925 Y8.5645
G01 X11.4658 Y8.5566
G01 X11.4496 Y8.5507
G01 X11.4264 Y8.5407
G01 X11.4133 Y8.5341
G01 X11.3891 Y8.5203
G01 X11.3768 Y8.5123
G01 X11.3544 Y8.4958
G01 X11.3431 Y8.4864
G01 X11.3266 Y8.4714
G01 X11.3126 Y8.4568
G01 X11.2945 Y8.4355
G01 X11.2776 Y8.4125
G01 X11.0469 Y8.0671
G01 X10.7106 Y7.8424
G01 X10.3140 Y7.7635
G01 X9.9174 Y7.8424
G01 X9.5811 Y8.0671
G01 X9.3423 Y8.4238
G01 X9.3335 Y8.4355
G01 X9.3154 Y8.4568
G01 X9.3053 Y8.4674
G01 X9.2849 Y8.4864
G01 X9.2736 Y8.4958
G01 X9.2512 Y8.5123
G01 X9.2370 Y8.5215
G01 X9.2147 Y8.5341
G01 X9.2016 Y8.5407
G01 X9.1760 Y8.5516
G01 X9.1622 Y8.5566
G01 X9.1355 Y8.5645
G01 X9.1212 Y8.5679
G01 X9.0937 Y8.5727
G01 X9.0792 Y8.5744
G01 X9.0513 Y8.5760
G01 X9.0367 Y8.5760
G01 X9.0088 Y8.5744
G01 X8.9874 Y8.5718
G01 X8.9525 Y8.5645
G01 X8.9258 Y8.5566
G01 X8.9096 Y8.5507
G01 X8.8733 Y8.5341
G01 X8.8491 Y8.5203
G01 X8.8368 Y8.5123
G01 X8.8144 Y8.4958
G01 X8.8031 Y8.4864
G01 X8.7866 Y8.4714
G01 X8.7726 Y8.4568
G01 X8.7545 Y8.4355
G01 X8.7376 Y8.4125
G01 X8.5069 Y8.0671
G01 X8.1706 Y7.8424
G01 X7.7740 Y7.7635
G01 X7.3774 Y7.8424
G01 X7.0411 Y8.0671
G01 X6.8023 Y8.4238
G01 X6.7935 Y8.4355
G01 X6.7754 Y8.4568
G01 X6.7653 Y8.4674
G01 X6.7449 Y8.4864
G01 X6.7336 Y8.4958
G01 X6.7112 Y8.5123
G01 X6.6970 Y8.5215
G01 X6.6747 Y8.5341
G01 X6.6616 Y8.5407
G01 X6.6360 Y8.5516
G01 X6.6222 Y8.5566
G01 X6.5955 Y8.5645
G01 X6.5812 Y8.5679
G01 X6.5537 Y8.5727
G01 X6.5392 Y8.5744
G01 X6.5113 Y8.5760
G01 X6.4967 Y8.5760
G01 X6.4688 Y8.5744
G01 X6.4474 Y8.5718
G01 X6.4125 Y8.5645
G01 X6.3858 Y8.5566
G01 X6.3696 Y8.5507
G01 X6.3333 Y8.5341
G01 X6.3091 Y8.5203
G01 X6.2968 Y8.5123
G01 X6.2744 Y8.4958
G01 X6.2631 Y8.4864
G01 X6.2466 Y8.4714
G01 X6.2326 Y8.4568
G01 X6.2145 Y8.4355
G01 X6.1976 Y8.4125
G01 X5.9669 Y8.0671
G01 X5.6306 Y7.8424
G01 X5.2340 Y7.7635
G01 X4.8374 Y7.8424
G01 X4.5011 Y8.0671
G01 X4.2764 Y8.4034
G01 X4.2175 Y8.6999
G01 X4.2175 Y9.4001
G01 X4.2764 Y9.6966
G01 X4.5011 Y10.0329
G01 X4.8374 Y10.2576
G01 X5.2340 Y10.3365
G01 X5.6306 Y10.2576
G01 X5.9669 Y10.0329
G01 X6.2052 Y9.6768
G01 X6.2305 Y9.6455
G01 X6.2590 Y9.6172
G01 X6.2695 Y9.6082
G01 X6.2904 Y9.5922
G01 X6.3036 Y9.5831
G01 X6.3365 Y9.5642
G01 X6.3732 Y9.5479
G01 X6.4115 Y9.5357
G01 X6.4508 Y9.5278
G01 X6.4908 Y9.5241
G01 X6.5040 Y9.5238
G01 X6.5310 Y9.5249
G01 X6.5572 Y9.5278
G01 X6.5758 Y9.5309
G01 X6.6099 Y9.5394
G01 X6.6348 Y9.5479
G01 X6.6486 Y9.5534
G01 X6.6837 Y9.5707
G01 X6.7062 Y9.5844
G01 X6.7385 Y9.6082
G01 X6.7681 Y9.6354
G01 X6.7775 Y9.6455
G01 X6.7944 Y9.6657
G01 X6.8104 Y9.6875
G01 X7.0411 Y10.0329
G01 X7.3774 Y10.2576
G01 X7.7740 Y10.3365
G01 X8.1706 Y10.2576
G01 X8.5069 Y10.0329
G01 X8.7452 Y9.6768
G01 X8.7705 Y9.6455
G01 X8.7990 Y9.6172
G01 X8.8095 Y9.6082
G01 X8.8304 Y9.5922
G01 X8.8436 Y9.5831
G01 X8.8643 Y9.5707
G01 X8.9004 Y9.5531
G01 X8.9381 Y9.5394
G01 X8.9772 Y9.5300
G01 X8.9908 Y9.5278
G01 X9.0308 Y9.5241
G01 X9.0440 Y9.5238
G01 X9.0710 Y9.5249
G01 X9.0972 Y9.5278
G01 X9.1158 Y9.5309
G01 X9.1365 Y9.5357
G01 X9.1748 Y9.5479
G01 X9.1886 Y9.5534
G01 X9.2237 Y9.5707
G01 X9.2462 Y9.5844
G01 X9.2785 Y9.6082
G01 X9.2890 Y9.6172
G01 X9.3175 Y9.6455
G01 X9.3344 Y9.6657
G01 X9.3504 Y9.6875
G01 X9.5811 Y10.0329
G01 X9.9174 Y10.2576
G01 X10.3140 Y10.3365
G01 X10.7106 Y10.2576
G01 X11.0469 Y10.0329
G01 X11.2852 Y9.6768
G01 X11.3105 Y9.6455
G01 X11.3390 Y9.6172
G01 X11.3495 Y9.6082
G01 X11.3704 Y9.5922
G01 X11.3836 Y9.5831
G01 X11.4043 Y9.5707
G01 X11.4404 Y9.5531
G01 X11.4781 Y9.5394
G01 X11.5172 Y9.5300
G01 X11.5308 Y9.5278
G01 X11.5708 Y9.5241
G01 X11.5840 Y9.5238
G01 X11.6110 Y9.5249
G01 X11.6372 Y9.5278
G01 X11.6558 Y9.5309
G01 X11.6765 Y9.5357
G01 X11.7148 Y9.5479
G01 X11.7286 Y9.5534
G01 X11.7637 Y9.5707
G01 X11.7862 Y9.5844
G01 X11.8185 Y9.6082
G01 X11.8290 Y9.6172
G01 X11.8575 Y9.6455
G01 X11.8744 Y9.6657
G01 X11.8904 Y9.6875
G01 X12.1211 Y10.0329
G01 X12.4574 Y10.2576
G01 X12.8540 Y10.3365
G01 X13.2506 Y10.2576
G01 X13.5869 Y10.0329
G01 X13.8176 Y9.6875
G01 X13.8336 Y9.6657
G01 X13.8599 Y9.6354
G01 X13.8895 Y9.6082
G01 X13.9104 Y9.5922
G01 X13.9236 Y9.5831
G01 X13.9443 Y9.5707
G01 X13.9804 Y9.5531
G01 X14.0181 Y9.5394
G01 X14.0315 Y9.5357
G01 X14.0708 Y9.5278
G01 X14.1108 Y9.5241
G01 X14.1240 Y9.5238
G01 X14.1510 Y9.5249
G01 X14.1772 Y9.5278
G01 X14.1958 Y9.5309
G01 X14.2299 Y9.5394
G01 X14.2548 Y9.5479
G01 X14.2686 Y9.5534
G01 X14.3037 Y9.5707
G01 X14.3376 Y9.5922
G01 X14.3690 Y9.6172
G01 X14.3975 Y9.6455
G01 X14.4144 Y9.6657
G01 X14.4304 Y9.6875
G01 X14.6611 Y10.0329
G01 X14.6855 Y10.0505
G01 X14.7158 Y10.0769
G01 X14.7430 Y10.1065
G01 X14.7590 Y10.1273
G01 X14.7681 Y10.1406
G01 X14.7871 Y10.1735
G01 X14.8033 Y10.2102
G01 X14.8118 Y10.2351
G01 X14.8212 Y10.2742
G01 X14.8235 Y10.2878
G01 X14.8271 Y10.3278
G01 X14.8275 Y11.6665
G01 X14.8263 Y11.6935
G01 X14.8235 Y11.7196
G01 X14.8203 Y11.7383
G01 X14.8118 Y11.7723
G01 X14.8033 Y11.7972
G01 X14.7978 Y11.8110
G01 X14.7871 Y11.8340
G01 X14.7669 Y11.8687
G01 X14.7430 Y11.9010
G01 X14.7158 Y11.9305
G01 X14.6855 Y11.9569
G01 X14.6637 Y11.9728
G01 X14.5751 Y12.0321
G01 X14.4620 Y12.2013
G01 X14.4150 Y12.4373
G01 X14.4150 Y13.0147
G01 X14.4620 Y13.2507
G01 X14.6208 Y13.4876
G01 X14.6397 Y13.5211
G01 X14.6508 Y13.5453
G01 X14.6560 Y13.5583
G01 X14.6643 Y13.5836
G01 X14.6680 Y13.5972
G01 X14.6735 Y13.6232
G01 X14.6756 Y13.6371
G01 X14.6782 Y13.6636
G01 X14.6791 Y13.6880
G01 X14.6776 Y13.7183
G01 X14.6770 Y13.7182
G01 X14.6743 Y13.7447
G01 X14.6709 Y13.7633
G01 X14.6656 Y13.7844
G01 X14.6617 Y13.7979
G01 X14.6527 Y13.8230
G01 X14.6468 Y13.8368
G01 X14.6287 Y13.8721
G01 X14.6144 Y13.8946
G01 X14.6063 Y13.9060
G01 X14.5897 Y13.9268
G01 X14.5803 Y13.9372
G01 X14.4680 Y14.0500
G01 X14.4275 Y14.1480
G01 X14.4275 Y14.2805
G01 X14.4834 Y14.2805
G01 X14.4948 Y14.2521
G01 X14.5053 Y14.2299
G01 X14.5165 Y14.2091
G01 X14.5291 Y14.1880
G01 X14.5422 Y14.1683
G01 X14.5569 Y14.1486
G01 X14.5719 Y14.1303
G01 X14.5884 Y14.1121
G01 X14.6051 Y14.0954
G01 X14.6233 Y14.0789
G01 X14.6416 Y14.0639
G01 X14.6629 Y14.0481
G01 X14.6810 Y14.0361
G01 X14.7021 Y14.0235
G01 X14.7229 Y14.0123
G01 X14.7451 Y14.0018
G01 X14.7670 Y13.9927
G01 X14.7901 Y13.9845
G01 X14.8128 Y13.9776
G01 X14.8366 Y13.9716
G01 X14.8598 Y13.9670
G01 X14.8841 Y13.9634
G01 X14.9076 Y13.9611
G01 X14.9440 Y13.9596
G01 X15.8440 Y13.9596
G01 X15.8804 Y13.9611
G01 X15.9039 Y13.9634
G01 X15.9282 Y13.9670
G01 X15.9281 Y13.9678
G01 X15.9514 Y13.9716
G01 X15.9752 Y13.9776
G01 X15.9979 Y13.9845
G01 X16.0210 Y13.9927
G01 X16.0429 Y14.0018
G01 X16.0651 Y14.0123
G01 X16.0859 Y14.0235
G01 X16.1070 Y14.0361
G01 X16.1267 Y14.0492
G01 X16.1464 Y14.0639
G01 X16.1647 Y14.0789
G01 X16.1829 Y14.0954
G01 X16.1996 Y14.1121
G01 X16.2161 Y14.1303
G01 X16.2311 Y14.1486
G01 X16.2469 Y14.1699
G01 X16.2589 Y14.1880
G01 X16.2715 Y14.2091
G01 X16.2827 Y14.2299
G01 X16.2932 Y14.2521
G01 X16.3046 Y14.2805
G01 X16.4187 Y14.2805
G01 X16.4451 Y14.2590
G01 X16.4595 Y14.2489
G01 X16.4796 Y14.2364
G01 X16.4921 Y14.2295
G01 X16.5165 Y14.2177
G01 X16.5297 Y14.2123
G01 X16.5552 Y14.2034
G01 X16.5689 Y14.1994
G01 X16.5953 Y14.1934
G01 X16.6093 Y14.1910
G01 X16.6362 Y14.1880
G01 X16.6640 Y14.1868
G01 X16.6918 Y14.1880
G01 X16.7187 Y14.1910
G01 X16.7381 Y14.1944
G01 X16.7728 Y14.2034
G01 X16.7983 Y14.2123
G01 X16.8128 Y14.2183
G01 X16.8484 Y14.2364
G01 X16.8713 Y14.2508
G01 X16.8829 Y14.2590
G01 X16.9093 Y14.2805
G01 X17.0234 Y14.2805
G01 X17.0348 Y14.2521
G01 X17.0453 Y14.2299
G01 X17.0565 Y14.2091
G01 X17.0691 Y14.1880
G01 X17.0822 Y14.1683
G01 X17.0969 Y14.1486
G01 X17.1119 Y14.1303
G01 X17.1284 Y14.1121
G01 X17.1451 Y14.0954
G01 X17.1633 Y14.0789
G01 X17.1816 Y14.0639
G01 X17.2029 Y14.0481
G01 X17.2210 Y14.0361
G01 X17.2421 Y14.0235
G01 X17.2629 Y14.0123
G01 X17.2851 Y14.0018
G01 X17.3070 Y13.9927
G01 X17.3301 Y13.9845
G01 X17.3528 Y13.9776
G01 X17.3766 Y13.9716
G01 X17.3998 Y13.9670
G01 X17.4241 Y13.9634
G01 X17.4476 Y13.9611
G01 X17.4840 Y13.9596
G01 X18.3840 Y13.9596
G01 X18.4204 Y13.9611
G01 X18.4439 Y13.9634
G01 X18.4682 Y13.9670
G01 X18.4681 Y13.9678
G01 X18.4914 Y13.9716
G01 X18.5152 Y13.9776
G01 X18.5379 Y13.9845
G01 X18.5610 Y13.9927
G01 X18.5829 Y14.0018
G01 X18.6051 Y14.0123
G01 X18.6259 Y14.0235
G01 X18.6470 Y14.0361
G01 X18.6667 Y14.0492
G01 X18.6864 Y14.0639
G01 X18.7047 Y14.0789
G01 X18.7229 Y14.0954
G01 X18.7396 Y14.1121
G01 X18.7561 Y14.1303
G01 X18.7711 Y14.1486
G01 X18.7858 Y14.1683
G01 X18.7989 Y14.1880
G01 X18.8115 Y14.2091
G01 X18.8227 Y14.2299
G01 X18.8332 Y14.2521
G01 X18.8423 Y14.2740
G01 X18.8505 Y14.2971
G01 X18.8574 Y14.3198
G01 X18.8634 Y14.3436
G01 X18.8680 Y14.3668
G01 X18.8716 Y14.3911
G01 X18.8739 Y14.4146
G01 X18.8754 Y14.4510
G01 X18.8754 Y15.1010
G01 X18.8739 Y15.1374
G01 X18.8716 Y15.1609
G01 X18.8680 Y15.1852
G01 X18.8672 Y15.1851
G01 X18.8634 Y15.2084
G01 X18.8574 Y15.2322
G01 X18.8505 Y15.2549
G01 X18.8423 Y15.2780
G01 X18.8332 Y15.2999
G01 X18.8227 Y15.3221
G01 X18.8115 Y15.3429
G01 X18.7989 Y15.3640
G01 X18.7858 Y15.3837
G01 X18.7711 Y15.4034
G01 X18.7561 Y15.4217
G01 X18.7396 Y15.4399
G01 X18.7229 Y15.4566
G01 X18.7047 Y15.4731
G01 X18.6864 Y15.4881
G01 X18.6667 Y15.5028
G01 X18.6470 Y15.5159
G01 X18.6259 Y15.5285
G01 X18.6051 Y15.5397
G01 X18.5829 Y15.5502
G01 X18.5610 Y15.5593
G01 X18.5379 Y15.5675
G01 X18.5152 Y15.5744
G01 X18.4914 Y15.5804
G01 X18.4682 Y15.5850
G01 X18.4295 Y15.5900
G01 X18.4295 Y15.6175
G01 X18.6870 Y15.6175
G01 X18.7855 Y15.5767
G01 X18.8013 Y15.5624
G01 X18.8017 Y15.5629
G01 X18.8231 Y15.5451
G01 X18.8381 Y15.5346
G01 X18.8588 Y15.5220
G01 X18.8717 Y15.5150
G01 X18.8970 Y15.5032
G01 X18.9106 Y15.4977
G01 X18.9370 Y15.4889
G01 X18.9511 Y15.4850
G01 X18.9784 Y15.4793
G01 X18.9929 Y15.4771
G01 X19.0207 Y15.4745
G01 X19.0437 Y15.4739
G01 X19.0778 Y15.4758
G01 X19.0777 Y15.4764
G01 X19.1054 Y15.4797
G01 X19.1249 Y15.4836
G01 X19.1468 Y15.4895
G01 X19.1607 Y15.4940
G01 X19.1867 Y15.5041
G01 X19.2000 Y15.5102
G01 X19.2247 Y15.5232
G01 X19.2373 Y15.5308
G01 X19.2602 Y15.5465
G01 X19.2718 Y15.5555
G01 X19.2929 Y15.5738
G01 X19.3053 Y15.5860
G01 X19.3314 Y15.6160
G01 X19.3476 Y15.6386
G01 X19.3565 Y15.6526
G01 X19.3691 Y15.6754
G01 X19.3755 Y15.6886
G01 X19.4003 Y15.7474
G01 X19.7566 Y16.1037
G01 X20.2221 Y16.2965
G01 X20.7259 Y16.2965
G01 X21.1914 Y16.1037
G01 X21.5477 Y15.7474
G01 X21.7496 Y15.2600
G01 X21.7613 Y15.2348
G01 X21.7744 Y15.2111
G01 X21.7820 Y15.1990
G01 X21.7977 Y15.1770
G01 X21.8066 Y15.1658
G01 X21.8246 Y15.1456
G01 X21.8347 Y15.1356
G01 X21.8549 Y15.1175
G01 X21.8660 Y15.1086
G01 X21.8881 Y15.0930
G01 X21.9012 Y15.0847
G01 X21.9367 Y15.0661
G01 X21.9617 Y15.0558
G01 X21.9751 Y15.0510
G01 X22.0011 Y15.0435
G01 X22.0150 Y15.0404
G01 X22.0417 Y15.0358
G01 X22.0559 Y15.0342
G01 X22.0829 Y15.0327
G01 X22.0972 Y15.0327
G01 X22.1242 Y15.0342
G01 X22.1451 Y15.0367
G01 X22.1789 Y15.0435
G01 X22.2049 Y15.0510
G01 X22.2184 Y15.0558
G01 X22.2181 Y15.0565
G01 X22.2310 Y15.0606
G01 X22.7621 Y15.2805
G01 X23.2659 Y15.2805
G01 X23.7314 Y15.0877
G01 X24.0877 Y14.7314
G01 X24.2786 Y14.2706
G01 X24.2906 Y14.2449
G01 X24.3040 Y14.2208
G01 X24.3118 Y14.2085
G01 X24.3279 Y14.1860
G01 X24.3542 Y14.1556
G01 X24.3659 Y14.1440
G01 X24.3867 Y14.1258
G01 X24.4024 Y14.1137
G01 X24.4209 Y14.1011
G01 X24.4333 Y14.0936
G01 X24.4577 Y14.0805
G01 X24.4709 Y14.0744
G01 X24.4966 Y14.0643
G01 X24.5104 Y14.0597
G01 X24.5371 Y14.0525
G01 X24.5513 Y14.0496
G01 X24.5787 Y14.0455
G01 X24.5931 Y14.0442
G01 X24.6208 Y14.0433
G01 X24.6353 Y14.0437
G01 X24.6628 Y14.0459
G01 X24.6773 Y14.0480
G01 X24.7044 Y14.0533
G01 X24.7184 Y14.0570
G01 X24.7447 Y14.0655
G01 X24.7603 Y14.0715
G01 X24.7964 Y14.0888
G01 X24.8201 Y14.1030
G01 X24.8321 Y14.1112
G01 X24.8540 Y14.1281
G01 X24.8650 Y14.1376
G01 X24.8849 Y14.1568
G01 X24.8948 Y14.1675
G01 X24.9123 Y14.1888
G01 X24.9233 Y14.2039
G01 X24.9430 Y14.2365
G01 X24.9552 Y14.2612
G01 X24.9609 Y14.2746
G01 X24.9702 Y14.3007
G01 X24.9743 Y14.3146
G01 X24.9806 Y14.3415
G01 X24.9831 Y14.3559
G01 X24.9862 Y14.3833
G01 X24.9871 Y14.3978
G01 X24.9872 Y14.4418
G01 X24.9842 Y14.4778
G01 X24.9764 Y14.5220
G01 X25.0203 Y14.7431
G01 X25.1456 Y14.9304
G01 X25.1824 Y14.9561
G01 X25.2007 Y14.9712
G01 X25.2185 Y14.9877
G01 X31.1843 Y20.9535
G01 X31.2008 Y20.9713
G01 X31.2159 Y20.9896
G01 X31.2416 Y21.0264
G01 X31.4289 Y21.1517
G01 X31.6500 Y21.1956
G01 X31.6942 Y21.1878
G01 X31.7178 Y21.1854
G01 X31.7421 Y21.1845
G01 X53.8822 Y21.1849
G01 X53.8965 Y21.1857
G01 X53.9234 Y21.1887
G01 X53.9428 Y21.1921
G01 X53.9775 Y21.2011
G01 X54.0031 Y21.2100
G01 X54.0175 Y21.2160
G01 X54.0531 Y21.2341
G01 X54.0760 Y21.2485
G01 X54.0876 Y21.2568
G01 X54.1088 Y21.2737
G01 X54.1293 Y21.2925
G01 X54.8515 Y22.0147
G01 X54.8703 Y22.0352
G01 X54.8699 Y22.0356
G01 X54.8872 Y22.0564
G01 X54.8974 Y22.0708
G01 X54.9168 Y22.1034
G01 X54.9285 Y22.1278
G01 X54.9340 Y22.1409
G01 X54.9429 Y22.1665
G01 X54.9468 Y22.1802
G01 X54.9529 Y22.2066
G01 X54.9553 Y22.2206
G01 X54.9583 Y22.2475
G01 X54.9595 Y22.2753
G01 X54.9595 Y22.4488
G01 X54.9583 Y22.4763
G01 X54.9553 Y22.5029
G01 X54.9521 Y22.5220
G01 X54.9433 Y22.5565
G01 X54.9345 Y22.5818
G01 X54.9287 Y22.5960
G01 X54.9177 Y22.6190
G01 X54.9109 Y22.6314
G01 X54.8968 Y22.6542
G01 X54.8887 Y22.6657
G01 X54.8722 Y22.6868
G01 X54.8629 Y22.6973
G01 X54.8441 Y22.7164
G01 X54.8337 Y22.7259
G01 X54.8129 Y22.7428
G01 X54.8015 Y22.7511
G01 X54.7790 Y22.7656
G01 X54.7667 Y22.7726
G01 X54.7428 Y22.7845
G01 X54.7298 Y22.7900
G01 X54.7046 Y22.7992
G01 X54.6912 Y22.8033
G01 X54.6651 Y22.8096
G01 X54.6513 Y22.8122
G01 X54.6247 Y22.8156
G01 X54.5932 Y22.8173
G01 X54.5698 Y22.8166
G01 X54.5432 Y22.8141
G01 X54.5277 Y22.8117
G01 X54.4894 Y22.8029
G01 X54.4639 Y22.7946
G01 X54.4494 Y22.7889
G01 X54.4139 Y22.7718
G01 X54.3909 Y22.7581
G01 X54.3793 Y22.7502
G01 X54.3579 Y22.7341
G01 X54.3328 Y22.7117
G01 X54.3181 Y22.6962
G01 X54.3008 Y22.6757
G01 X54.2924 Y22.6645
G01 X54.2269 Y22.5671
G01 X53.8906 Y22.3424
G01 X53.4940 Y22.2635
G01 X53.0974 Y22.3424
G01 X52.7611 Y22.5671
G01 X52.5304 Y22.9125
G01 X52.5135 Y22.9355
G01 X52.4954 Y22.9568
G01 X52.4814 Y22.9714
G01 X52.4649 Y22.9864
G01 X52.4536 Y22.9958
G01 X52.4312 Y23.0123
G01 X52.4170 Y23.0215
G01 X52.3816 Y23.0407
G01 X52.3560 Y23.0516
G01 X52.3422 Y23.0566
G01 X52.3155 Y23.0645
G01 X52.3012 Y23.0679
G01 X52.2737 Y23.0727
G01 X52.2592 Y23.0744
G01 X52.2313 Y23.0760
G01 X52.2167 Y23.0760
G01 X52.1888 Y23.0744
G01 X52.1674 Y23.0718
G01 X52.1325 Y23.0645
G01 X52.1058 Y23.0566
G01 X52.0896 Y23.0507
G01 X52.0664 Y23.0407
G01 X52.0533 Y23.0341
G01 X52.0291 Y23.0203
G01 X52.0168 Y23.0123
G01 X51.9944 Y22.9958
G01 X51.9831 Y22.9864
G01 X51.9666 Y22.9714
G01 X51.9526 Y22.9568
G01 X51.9345 Y22.9355
G01 X51.9176 Y22.9125
G01 X51.6869 Y22.5671
G01 X51.3506 Y22.3424
G01 X50.9540 Y22.2635
G01 X50.5574 Y22.3424
G01 X50.2211 Y22.5671
G01 X49.9904 Y22.9125
G01 X49.9735 Y22.9355
G01 X49.9554 Y22.9568
G01 X49.9414 Y22.9714
G01 X49.9249 Y22.9864
G01 X49.9136 Y22.9958
G01 X49.8912 Y23.0123
G01 X49.8770 Y23.0215
G01 X49.8416 Y23.0407
G01 X49.8160 Y23.0516
G01 X49.8022 Y23.0566
G01 X49.7755 Y23.0645
G01 X49.7612 Y23.0679
G01 X49.7337 Y23.0727
G01 X49.7192 Y23.0744
G01 X49.6913 Y23.0760
G01 X49.6767 Y23.0760
G01 X49.6488 Y23.0744
G01 X49.6274 Y23.0718
G01 X49.5925 Y23.0645
G01 X49.5658 Y23.0566
G01 X49.5496 Y23.0507
G01 X49.5264 Y23.0407
G01 X49.5133 Y23.0341
G01 X49.4891 Y23.0203
G01 X49.4768 Y23.0123
G01 X49.4544 Y22.9958
G01 X49.4431 Y22.9864
G01 X49.4266 Y22.9714
G01 X49.4126 Y22.9568
G01 X49.3945 Y22.9355
G01 X49.3776 Y22.9125
G01 X49.1469 Y22.5671
G01 X48.8106 Y22.3424
G01 X48.4140 Y22.2635
G01 X48.0174 Y22.3424
G01 X47.6811 Y22.5671
G01 X47.4504 Y22.9125
G01 X47.4335 Y22.9355
G01 X47.4154 Y22.9568
G01 X47.4014 Y22.9714
G01 X47.3849 Y22.9864
G01 X47.3736 Y22.9958
G01 X47.3512 Y23.0123
G01 X47.3370 Y23.0215
G01 X47.3016 Y23.0407
G01 X47.2760 Y23.0516
G01 X47.2622 Y23.0566
G01 X47.2355 Y23.0645
G01 X47.2212 Y23.0679
G01 X47.1937 Y23.0727
G01 X47.1792 Y23.0744
G01 X47.1513 Y23.0760
G01 X47.1367 Y23.0760
G01 X47.1088 Y23.0744
G01 X47.0874 Y23.0718
G01 X47.0525 Y23.0645
G01 X47.0258 Y23.0566
G01 X47.0096 Y23.0507
G01 X46.9864 Y23.0407
G01 X46.9733 Y23.0341
G01 X46.9491 Y23.0203
G01 X46.9368 Y23.0123
G01 X46.9144 Y22.9958
G01 X46.9031 Y22.9864
G01 X46.8866 Y22.9714
G01 X46.8726 Y22.9568
G01 X46.8545 Y22.9355
G01 X46.8376 Y22.9125
G01 X46.6069 Y22.5671
G01 X46.2706 Y22.3424
G01 X45.8740 Y22.2635
G01 X45.4774 Y22.3424
G01 X45.1411 Y22.5671
G01 X44.9104 Y22.9125
G01 X44.8935 Y22.9355
G01 X44.8754 Y22.9568
G01 X44.8614 Y22.9714
G01 X44.8449 Y22.9864
G01 X44.8336 Y22.9958
G01 X44.8112 Y23.0123
G01 X44.7970 Y23.0215
G01 X44.7616 Y23.0407
G01 X44.7360 Y23.0516
G01 X44.7222 Y23.0566
G01 X44.6955 Y23.0645
G01 X44.6812 Y23.0679
G01 X44.6537 Y23.0727
G01 X44.6392 Y23.0744
G01 X44.6113 Y23.0760
G01 X44.5967 Y23.0760
G01 X44.5688 Y23.0744
G01 X44.5543 Y23.0727
G01 X44.5268 Y23.0679
G01 X44.5125 Y23.0645
G01 X44.4858 Y23.0566
G01 X44.4696 Y23.0507
G01 X44.4333 Y23.0341
G01 X44.4091 Y23.0203
G01 X44.3968 Y23.0123
G01 X44.3744 Y22.9958
G01 X44.3466 Y22.9714
G01 X44.3326 Y22.9568
G01 X44.3145 Y22.9355
G01 X44.3057 Y22.9238
G01 X44.0669 Y22.5671
G01 X43.7306 Y22.3424
G01 X43.3340 Y22.2635
G01 X42.9374 Y22.3424
G01 X42.6011 Y22.5671
G01 X42.3704 Y22.9125
G01 X42.3535 Y22.9355
G01 X42.3354 Y22.9568
G01 X42.3214 Y22.9714
G01 X42.3049 Y22.9864
G01 X42.2936 Y22.9958
G01 X42.2712 Y23.0123
G01 X42.2570 Y23.0215
G01 X42.2216 Y23.0407
G01 X42.1960 Y23.0516
G01 X42.1822 Y23.0566
G01 X42.1555 Y23.0645
G01 X42.1412 Y23.0679
G01 X42.1137 Y23.0727
G01 X42.0992 Y23.0744
G01 X42.0713 Y23.0760
G01 X42.0567 Y23.0760
G01 X42.0288 Y23.0744
G01 X42.0074 Y23.0718
G01 X41.9725 Y23.0645
G01 X41.9458 Y23.0566
G01 X41.9296 Y23.0507
G01 X41.8933 Y23.0341
G01 X41.8691 Y23.0203
G01 X41.8568 Y23.0123
G01 X41.8344 Y22.9958
G01 X41.8066 Y22.9714
G01 X41.7926 Y22.9568
G01 X41.7745 Y22.9355
G01 X41.7657 Y22.9238
G01 X41.5269 Y22.5671
G01 X41.1906 Y22.3424
G01 X40.7940 Y22.2635
G01 X40.3974 Y22.3424
G01 X40.0611 Y22.5671
G01 X39.9655 Y22.7102
G01 X39.9655 Y22.7565
G01 X40.0107 Y22.6927
G01 X40.0276 Y22.6715
G01 X40.0837 Y22.6088
G01 X40.1028 Y22.5897
G01 X40.1655 Y22.5336
G01 X40.1659 Y22.5341
G01 X40.1867 Y22.5167
G01 X40.2580 Y22.4661
G01 X40.2782 Y22.4537
G01 X40.3518 Y22.4130
G01 X40.3762 Y22.4012
G01 X40.4539 Y22.3691
G01 X40.4795 Y22.3601
