(G-CODE GENERATED BY FLATCAM v8.905 - www.flatcam.org - Version Date: 2019/01/29)

(Name: V2-F.Cu.gbr_iso_cnc)
(Type: G-code from Geometry)
(Units: MM)

(Created on Monday, 11 February 2019 at 18:07)

(TOOL DIAMETER: 0.17 mm)
(Feedrate: 400.0 mm/min)
(Feedrate_Z: 350.0 mm/min)
(Feedrate rapids 800.0 mm/min)

(Z_Cut: -0.1306 mm)
(Z_Move: 2.0 mm)
(Z Toolchange: 50.0 mm)
(X,Y Toolchange: 0.0000, 0.0000 mm)
(Z Start: 1.0 mm)
(Z End: 20.0 mm)
(Steps per circle: 64)
(Postprocessor Geometry: default)
(Spindle Speed: 18000 RPM)
G94 ( Millimeters per minute feed rate. )
G21 ( Units == Millimeters. )
G90 ( Absolute coordinates. )
G64 P0.01000 ( set maximum deviation from commanded toolpath )
G21
G90
G94
G21
G90
G94

G01 F400.00
G00 Z2.0000
G00 Z1.0000
M03 S18000
G00 X0.4784 Y1.6285
G01 F350.00
G01 Z-0.1306
G01 F400.00
G01 X0.4862 Y1.4884
G01 X0.4892 Y1.4615
G01 X0.5127 Y1.3233
G01 X0.5188 Y1.2969
G01 X0.5576 Y1.1621
G01 X0.5665 Y1.1366
G01 X0.6202 Y1.0070
G01 X0.6319 Y0.9826
G01 X0.6998 Y0.8599
G01 X0.7123 Y0.8397
G01 X0.7953 Y0.7226
G01 X0.8126 Y0.7018
G01 X0.8122 Y0.7014
G01 X0.9057 Y0.5968
G01 X0.9828 Y0.5197
G01 X1.0874 Y0.4262
G01 X1.1086 Y0.4093
G01 X1.2229 Y0.3282
G01 X1.2459 Y0.3138
G01 X1.3686 Y0.2459
G01 X1.3917 Y0.2347
G01 X1.5226 Y0.1805
G01 X1.5481 Y0.1716
G01 X1.6829 Y0.1328
G01 X1.7093 Y0.1267
G01 X1.8475 Y0.1033
G01 X1.8744 Y0.1002
G01 X2.0280 Y0.0920
G01 X25.4415 Y0.0924
G01 X25.5816 Y0.1002
G01 X25.6085 Y0.1033
G01 X25.7467 Y0.1267
G01 X25.7731 Y0.1328
G01 X25.9079 Y0.1716
G01 X25.9334 Y0.1805
G01 X26.0630 Y0.2342
G01 X26.0874 Y0.2459
G01 X26.2101 Y0.3138
G01 X26.2331 Y0.3282
G01 X26.3474 Y0.4093
G01 X26.3682 Y0.4267
G01 X26.3686 Y0.4262
G01 X26.4830 Y0.5290
G01 X27.4830 Y1.5290
G01 X27.5858 Y1.6434
G01 X27.6027 Y1.6646
G01 X27.6838 Y1.7789
G01 X27.6982 Y1.8019
G01 X27.7661 Y1.9246
G01 X27.7773 Y1.9477
G01 X27.8315 Y2.0786
G01 X27.8404 Y2.1041
G01 X27.8792 Y2.2389
G01 X27.8853 Y2.2653
G01 X27.9088 Y2.4035
G01 X27.9118 Y2.4304
G01 X27.9196 Y2.5705
G01 X27.9196 Y2.5975
G01 X27.9118 Y2.7376
G01 X27.9088 Y2.7645
G01 X27.8853 Y2.9027
G01 X27.8792 Y2.9291
G01 X27.8404 Y3.0639
G01 X27.8315 Y3.0894
G01 X27.7778 Y3.2190
G01 X27.7661 Y3.2434
G01 X27.6982 Y3.3661
G01 X27.6857 Y3.3863
G01 X27.6027 Y3.5034
G01 X27.5854 Y3.5242
G01 X27.5858 Y3.5246
G01 X27.4923 Y3.6292
G01 X27.4732 Y3.6483
G01 X27.3686 Y3.7418
G01 X27.3474 Y3.7587
G01 X27.2331 Y3.8398
G01 X27.2101 Y3.8542
G01 X27.0874 Y3.9221
G01 X27.0643 Y3.9333
G01 X26.9334 Y3.9875
G01 X26.9079 Y3.9964
G01 X26.7731 Y4.0352
G01 X26.7467 Y4.0413
G01 X26.6085 Y4.0648
G01 X26.5816 Y4.0678
G01 X26.4415 Y4.0756
G01 X26.4145 Y4.0756
G01 X26.2744 Y4.0678
G01 X26.2475 Y4.0648
G01 X26.1093 Y4.0413
G01 X26.0829 Y4.0352
G01 X25.9481 Y3.9964
G01 X25.9226 Y3.9875
G01 X25.7930 Y3.9338
G01 X25.7686 Y3.9221
G01 X25.6459 Y3.8542
G01 X25.6257 Y3.8417
G01 X25.5086 Y3.7587
G01 X25.4878 Y3.7414
G01 X25.4874 Y3.7418
G01 X25.3828 Y3.6483
G01 X24.8100 Y3.0760
G01 X24.5439 Y3.0760
G01 X24.4748 Y3.1378
G01 X24.4537 Y3.1547
G01 X24.3393 Y3.2358
G01 X24.3164 Y3.2502
G01 X24.1936 Y3.3181
G01 X24.1705 Y3.3293
G01 X24.0396 Y3.3835
G01 X24.0141 Y3.3924
G01 X23.8793 Y3.4312
G01 X23.8529 Y3.4373
G01 X23.7147 Y3.4608
G01 X23.6878 Y3.4638
G01 X23.5342 Y3.4720
G01 X4.5580 Y3.4720
G01 X3.4620 Y4.5680
G01 X3.4620 Y11.9900
G01 X3.4538 Y12.1436
G01 X3.4508 Y12.1705
G01 X3.4273 Y12.3087
G01 X3.4212 Y12.3351
G01 X3.3824 Y12.4699
G01 X3.3735 Y12.4954
G01 X3.3198 Y12.6250
G01 X3.3081 Y12.6494
G01 X3.2402 Y12.7721
G01 X3.2277 Y12.7923
G01 X3.1447 Y12.9094
G01 X3.1274 Y12.9302
G01 X3.1278 Y12.9306
G01 X3.0343 Y13.0352
G01 X3.0152 Y13.0543
G01 X2.9106 Y13.1478
G01 X2.8894 Y13.1647
G01 X2.7751 Y13.2458
G01 X2.7521 Y13.2602
G01 X2.6294 Y13.3281
G01 X2.6063 Y13.3393
G01 X2.4754 Y13.3935
G01 X2.4499 Y13.4024
G01 X2.3151 Y13.4412
G01 X2.2941 Y13.4463
G01 X2.1505 Y13.4708
G01 X2.1236 Y13.4738
G01 X1.9835 Y13.4816
G01 X1.9565 Y13.4816
G01 X1.8164 Y13.4738
G01 X1.7895 Y13.4708
G01 X1.6513 Y13.4473
G01 X1.6249 Y13.4412
G01 X1.4901 Y13.4024
G01 X1.4646 Y13.3935
G01 X1.3350 Y13.3398
G01 X1.3106 Y13.3281
G01 X1.1879 Y13.2602
G01 X1.1677 Y13.2477
G01 X1.0506 Y13.1647
G01 X1.0298 Y13.1474
G01 X1.0294 Y13.1478
G01 X0.9248 Y13.0543
G01 X0.9057 Y13.0352
G01 X0.8122 Y12.9306
G01 X0.7953 Y12.9094
G01 X0.7142 Y12.7951
G01 X0.6998 Y12.7721
G01 X0.6319 Y12.6494
G01 X0.6207 Y12.6263
G01 X0.5665 Y12.4954
G01 X0.5576 Y12.4699
G01 X0.5188 Y12.3351
G01 X0.5137 Y12.3141
G01 X0.4892 Y12.1705
G01 X0.4862 Y12.1436
G01 X0.4780 Y11.9900
G01 X0.4784 Y1.6285
G01 X0.4862 Y1.4884
G00 Z2.0000
G00 X0.6345 Y1.6372
G01 F350.00
G01 Z-0.1306
G01 F400.00
G01 X0.6424 Y1.4972
G01 X0.6434 Y1.4877
G01 X0.6669 Y1.3495
G01 X0.6691 Y1.3402
G01 X0.7079 Y1.2054
G01 X0.7110 Y1.1964
G01 X0.7647 Y1.0668
G01 X0.7688 Y1.0583
G01 X0.8367 Y0.9355
G01 X0.8417 Y0.9274
G01 X0.9229 Y0.8131
G01 X0.9288 Y0.8056
G01 X1.0256 Y0.6976
G01 X1.0870 Y0.6363
G01 X1.1916 Y0.5428
G01 X1.1991 Y0.5369
G01 X1.3134 Y0.4557
G01 X1.3215 Y0.4507
G01 X1.4524 Y0.3789
G01 X1.5824 Y0.3250
G01 X1.5914 Y0.3219
G01 X1.7336 Y0.2813
G01 X1.8737 Y0.2574
G01 X1.8832 Y0.2564
G01 X2.0232 Y0.2485
G01 X25.4328 Y0.2485
G01 X25.5728 Y0.2564
G01 X25.5823 Y0.2574
G01 X25.7205 Y0.2809
G01 X25.7298 Y0.2831
G01 X25.8646 Y0.3219
G01 X25.8736 Y0.3250
G01 X26.0032 Y0.3787
G01 X26.0117 Y0.3828
G01 X26.1416 Y0.4551
G01 X26.2569 Y0.5369
G01 X26.2644 Y0.5428
G01 X26.3724 Y0.6396
G01 X27.3724 Y1.6396
G01 X27.4692 Y1.7476
G01 X27.4751 Y1.7551
G01 X27.5563 Y1.8694
G01 X27.5613 Y1.8775
G01 X27.6292 Y2.0003
G01 X27.6331 Y2.0084
G01 X27.6870 Y2.1384
G01 X27.6901 Y2.1474
G01 X27.7289 Y2.2822
G01 X27.7311 Y2.2915
G01 X27.7546 Y2.4297
G01 X27.7556 Y2.4392
G01 X27.7635 Y2.5792
G01 X27.7635 Y2.5888
G01 X27.7556 Y2.7288
G01 X27.7546 Y2.7383
G01 X27.7311 Y2.8765
G01 X27.7289 Y2.8858
G01 X27.6901 Y3.0206
G01 X27.6870 Y3.0296
G01 X27.6333 Y3.1592
G01 X27.6292 Y3.1677
G01 X27.5569 Y3.2976
G01 X27.4751 Y3.4129
G01 X27.4692 Y3.4204
G01 X27.3757 Y3.5250
G01 X27.3690 Y3.5317
G01 X27.2644 Y3.6252
G01 X27.2569 Y3.6311
G01 X27.1426 Y3.7123
G01 X27.1345 Y3.7173
G01 X27.0036 Y3.7891
G01 X26.8736 Y3.8430
G01 X26.8646 Y3.8461
G01 X26.7298 Y3.8849
G01 X26.7205 Y3.8871
G01 X26.5823 Y3.9106
G01 X26.5728 Y3.9116
G01 X26.4328 Y3.9195
G01 X26.4232 Y3.9195
G01 X26.2832 Y3.9116
G01 X26.2737 Y3.9106
G01 X26.1355 Y3.8871
G01 X26.1262 Y3.8849
G01 X25.9914 Y3.8461
G01 X25.9824 Y3.8430
G01 X25.8528 Y3.7893
G01 X25.8443 Y3.7852
G01 X25.7144 Y3.7129
G01 X25.5991 Y3.6311
G01 X25.5916 Y3.6252
G01 X25.4870 Y3.5317
G01 X24.8748 Y2.9196
G01 X24.4831 Y2.9196
G01 X24.4752 Y2.9277
G01 X24.3706 Y3.0212
G01 X24.3632 Y3.0271
G01 X24.2488 Y3.1083
G01 X24.2407 Y3.1133
G01 X24.1180 Y3.1812
G01 X24.1094 Y3.1853
G01 X23.9798 Y3.2390
G01 X23.9708 Y3.2421
G01 X23.8286 Y3.2827
G01 X23.6885 Y3.3066
G01 X23.6790 Y3.3076
G01 X23.5342 Y3.3156
G01 X4.4932 Y3.3156
G01 X3.3056 Y4.5032
G01 X3.3056 Y11.9900
G01 X3.2976 Y12.1348
G01 X3.2966 Y12.1443
G01 X3.2731 Y12.2825
G01 X3.2709 Y12.2918
G01 X3.2321 Y12.4266
G01 X3.2290 Y12.4356
G01 X3.1753 Y12.5652
G01 X3.1712 Y12.5737
G01 X3.0989 Y12.7036
G01 X3.0171 Y12.8189
G01 X3.0112 Y12.8264
G01 X2.9177 Y12.9310
G01 X2.9110 Y12.9377
G01 X2.8064 Y13.0312
G01 X2.7989 Y13.0371
G01 X2.6846 Y13.1183
G01 X2.6765 Y13.1233
G01 X2.5537 Y13.1912
G01 X2.5456 Y13.1951
G01 X2.4156 Y13.2490
G01 X2.4066 Y13.2521
G01 X2.2644 Y13.2927
G01 X2.1243 Y13.3166
G01 X2.1148 Y13.3176
G01 X1.9748 Y13.3255
G01 X1.9652 Y13.3255
G01 X1.8252 Y13.3176
G01 X1.8157 Y13.3166
G01 X1.6775 Y13.2931
G01 X1.6682 Y13.2909
G01 X1.5334 Y13.2521
G01 X1.5244 Y13.2490
G01 X1.3948 Y13.1953
G01 X1.3863 Y13.1912
G01 X1.2635 Y13.1233
G01 X1.2554 Y13.1183
G01 X1.1411 Y13.0371
G01 X1.1336 Y13.0312
G01 X1.0290 Y12.9377
G01 X1.0223 Y12.9310
G01 X0.9288 Y12.8264
G01 X0.9229 Y12.8189
G01 X0.8417 Y12.7046
G01 X0.8367 Y12.6965
G01 X0.7688 Y12.5737
G01 X0.7649 Y12.5656
G01 X0.7110 Y12.4356
G01 X0.7079 Y12.4266
G01 X0.6673 Y12.2844
G01 X0.6434 Y12.1443
G01 X0.6424 Y12.1348
G01 X0.6344 Y11.9900
G01 X0.6345 Y1.6372
G01 X0.6424 Y1.4972
G00 Z2.0000
G00 X3.7748 Y5.1220
G01 F350.00
G01 Z-0.1306
G01 F400.00
G01 X3.7748 Y4.6976
G01 X3.8903 Y4.5821
G01 X3.8696 Y4.6403
G01 X3.8385 Y4.7481
G01 X3.8247 Y4.8086
G01 X3.8059 Y4.9192
G01 X3.7990 Y4.9810
G01 X3.7927 Y5.0929
G01 X3.7919 Y5.1187
G01 X3.7893 Y5.1189
G01 X3.7894 Y5.1203
G01 X3.7748 Y5.1220
G01 X3.7748 Y4.6976
G00 Z2.0000
G00 X3.6184 Y5.3290
G01 F350.00
G01 Z-0.1306
G01 F400.00
G01 X3.6184 Y4.6328
G01 X4.6228 Y3.6284
G01 X5.8546 Y3.6284
G01 X5.7077 Y3.7752
G01 X5.6786 Y3.7668
G01 X5.6352 Y3.7569
G01 X5.5246 Y3.7381
G01 X5.4803 Y3.7331
G01 X5.3683 Y3.7268
G01 X5.3460 Y3.7262
G01 X5.3237 Y3.7268
G01 X5.2117 Y3.7331
G01 X5.2118 Y3.7339
G01 X5.1674 Y3.7381
G01 X5.0480 Y3.7585
G01 X5.0134 Y3.7668
G01 X4.9056 Y3.7979
G01 X4.8635 Y3.8126
G01 X4.7578 Y3.8564
G01 X4.7197 Y3.8749
G01 X4.6215 Y3.9291
G01 X4.5838 Y3.9528
G01 X4.4923 Y4.0177
G01 X4.4574 Y4.0456
G01 X4.3738 Y4.1203
G01 X4.3423 Y4.1518
G01 X4.2676 Y4.2354
G01 X4.2683 Y4.2361
G01 X4.2397 Y4.2703
G01 X4.1717 Y4.3663
G01 X4.1511 Y4.3995
G01 X4.0969 Y4.4977
G01 X4.0775 Y4.5379
G01 X4.0346 Y4.6415
G01 X4.0199 Y4.6836
G01 X3.9888 Y4.7914
G01 X3.9789 Y4.8348
G01 X3.9601 Y4.9454
G01 X3.9551 Y4.9897
G01 X3.9488 Y5.1017
G01 X3.9482 Y5.1240
G01 X3.9488 Y5.1463
G01 X3.9551 Y5.2583
G01 X3.9559 Y5.2582
G01 X3.9582 Y5.2828
G01 X3.9318 Y5.2778
G01 X3.9179 Y5.2759
G01 X3.8743 Y5.2725
G01 X3.8510 Y5.2721
G01 X3.8028 Y5.2748
G01 X3.8029 Y5.2757
G01 X3.7595 Y5.2809
G01 X3.7388 Y5.2851
G01 X3.7034 Y5.2945
G01 X3.6901 Y5.2987
G01 X3.6492 Y5.3142
G01 X3.6184 Y5.3290
G01 X3.6184 Y4.6328
G00 Z2.0000
G00 X4.2676 Y5.2407
G01 F350.00
G01 Z-0.1306
G01 F400.00
G01 X4.2610 Y5.1240
G01 X4.2674 Y5.0073
G01 X4.2685 Y4.9978
G01 X4.2894 Y4.8779
G01 X4.3204 Y4.7702
G01 X4.3665 Y4.6576
G01 X4.3706 Y4.6490
G01 X4.4293 Y4.5438
G01 X4.4948 Y4.4513
G01 X4.5755 Y4.3603
G01 X4.5823 Y4.3535
G01 X4.6733 Y4.2728
G01 X4.7729 Y4.2029
G01 X4.8796 Y4.1445
G01 X4.9922 Y4.0984
G01 X5.1074 Y4.0656
G01 X5.2198 Y4.0465
G01 X5.2293 Y4.0454
G01 X5.3460 Y4.0390
G01 X5.4627 Y4.0454
G01 X5.4722 Y4.0465
G01 X5.5921 Y4.0674
G01 X5.6998 Y4.0984
G01 X5.7901 Y4.1352
G01 X6.0737 Y3.8517
G01 X6.1097 Y3.8200
G01 X6.1452 Y3.7955
G01 X6.1828 Y3.7752
G01 X6.2143 Y3.7622
G01 X6.2631 Y3.7479
G01 X6.3076 Y3.7409
G01 X6.3460 Y3.7389
G01 X11.6659 Y3.7389
G01 X11.6829 Y3.7244
G01 X11.7184 Y3.6998
G01 X11.7560 Y3.6796
G01 X11.7875 Y3.6665
G01 X11.8289 Y3.6541
G01 X11.8382 Y3.6520
G01 X11.8808 Y3.6452
G01 X11.9192 Y3.6432
G01 X21.0144 Y3.6432
G01 X21.0528 Y3.6452
G01 X21.0954 Y3.6520
G01 X21.1047 Y3.6541
G01 X21.1370 Y3.6634
G01 X21.1771 Y3.6794
G01 X21.2152 Y3.6998
G01 X21.2233 Y3.7049
G01 X21.2582 Y3.7303
G01 X21.2867 Y3.7560
G01 X24.5555 Y7.0248
G01 X27.4575 Y7.0248
G01 X28.8368 Y5.6455
G01 X28.8368 Y2.8380
G01 X28.8399 Y2.7902
G01 X28.8477 Y2.7477
G01 X28.8602 Y2.7063
G01 X28.8772 Y2.6667
G01 X28.8979 Y2.6301
G01 X28.9180 Y2.6017
G01 X28.9497 Y2.5657
G01 X30.7277 Y0.7877
G01 X30.7637 Y0.7560
G01 X30.7911 Y0.7365
G01 X30.8287 Y0.7152
G01 X30.8683 Y0.6982
G01 X30.9171 Y0.6839
G01 X30.9616 Y0.6769
G01 X31.0000 Y0.6748
G01 X45.9720 Y0.6748
G01 X46.0104 Y0.6769
G01 X46.0530 Y0.6836
G01 X46.0623 Y0.6857
G01 X46.0947 Y0.6950
G01 X46.1348 Y0.7110
G01 X46.1433 Y0.7152
G01 X46.1799 Y0.7359
G01 X46.2083 Y0.7560
G01 X46.2409 Y0.7844
G01 X47.6555 Y2.1988
G01 X49.3960 Y2.1990
G01 X49.4054 Y2.1995
G01 X49.4146 Y2.2011
G01 X49.4237 Y2.2036
G01 X49.4323 Y2.2072
G01 X49.4409 Y2.2118
G01 X49.4488 Y2.2174
G01 X49.4561 Y2.2239
G01 X49.4626 Y2.2312
G01 X49.4682 Y2.2391
G01 X49.4728 Y2.2477
G01 X49.4764 Y2.2563
G01 X49.4789 Y2.2654
G01 X49.4805 Y2.2746
G01 X49.4810 Y2.2840
G01 X49.4810 Y2.8840
G01 X49.4805 Y2.8934
G01 X49.4789 Y2.9026
G01 X49.4764 Y2.9117
G01 X49.4728 Y2.9203
G01 X49.4682 Y2.9289
G01 X49.4626 Y2.9368
G01 X49.4561 Y2.9441
G01 X49.4488 Y2.9506
G01 X49.4409 Y2.9562
G01 X49.4323 Y2.9608
G01 X49.4237 Y2.9644
G01 X49.4146 Y2.9669
G01 X49.4054 Y2.9685
G01 X49.3960 Y2.9690
G01 X47.4912 Y2.9690
G01 X47.4482 Y2.9661
G01 X47.4057 Y2.9583
G01 X47.3733 Y2.9490
G01 X47.3332 Y2.9330
G01 X47.3247 Y2.9288
G01 X47.2881 Y2.9081
G01 X47.2597 Y2.8880
G01 X47.2271 Y2.8596
G01 X45.8125 Y1.4452
G01 X31.1595 Y1.4452
G01 X29.6072 Y2.9975
G01 X29.6072 Y5.8050
G01 X29.6041 Y5.8528
G01 X29.5963 Y5.8953
G01 X29.5838 Y5.9367
G01 X29.5668 Y5.9763
G01 X29.5461 Y6.0129
G01 X29.5260 Y6.0413
G01 X29.4943 Y6.0773
G01 X27.8893 Y7.6823
G01 X27.8608 Y7.7080
G01 X27.8259 Y7.7335
G01 X27.8178 Y7.7385
G01 X27.7802 Y7.7588
G01 X27.7487 Y7.7718
G01 X27.7073 Y7.7843
G01 X27.6980 Y7.7864
G01 X27.6554 Y7.7931
G01 X27.6170 Y7.7952
G01 X24.3960 Y7.7952
G01 X24.3482 Y7.7921
G01 X24.3057 Y7.7843
G01 X24.2643 Y7.7718
G01 X24.2247 Y7.7548
G01 X24.1881 Y7.7341
G01 X24.1597 Y7.7140
G01 X24.1237 Y7.6823
G01 X20.8548 Y4.4135
G01 X12.0769 Y4.4135
G01 X12.0599 Y4.4280
G01 X12.0244 Y4.4525
G01 X11.9868 Y4.4728
G01 X11.9552 Y4.4858
G01 X11.9139 Y4.4983
G01 X11.9046 Y4.5004
G01 X11.8619 Y4.5071
G01 X11.8236 Y4.5092
G01 X6.5055 Y4.5092
G01 X6.3348 Y4.6799
G01 X6.3716 Y4.7702
G01 X6.4026 Y4.8779
G01 X6.4235 Y4.9978
G01 X6.4246 Y5.0073
G01 X6.4310 Y5.1240
G01 X6.4246 Y5.2407
G01 X6.4047 Y5.3608
G01 X6.3716 Y5.4778
G01 X6.3255 Y5.5904
G01 X6.3214 Y5.5990
G01 X6.2627 Y5.7042
G01 X6.1912 Y5.8041
G01 X6.1097 Y5.8945
G01 X6.0187 Y5.9752
G01 X5.9191 Y6.0451
G01 X5.8129 Y6.1033
G01 X5.7088 Y6.1464
G01 X5.5921 Y6.1806
G01 X5.4722 Y6.2015
G01 X5.3508 Y6.2089
G01 X5.3412 Y6.2089
G01 X5.2198 Y6.2015
G01 X5.0999 Y6.1806
G01 X4.9832 Y6.1464
G01 X4.8710 Y6.0994
G01 X4.7658 Y6.0407
G01 X4.6733 Y5.9752
G01 X4.5823 Y5.8945
G01 X4.5755 Y5.8877
G01 X4.4948 Y5.7967
G01 X4.4249 Y5.6971
G01 X4.3667 Y5.5909
G01 X4.3236 Y5.4868
G01 X4.2894 Y5.3701
G01 X4.2685 Y5.2502
G01 X4.2676 Y5.2407
G01 X4.2610 Y5.1240
G00 Z2.0000
G00 X6.7819 Y5.7147
G01 F350.00
G01 Z-0.1306
G01 F400.00
G01 X6.8019 Y5.6664
G01 X6.8224 Y5.6077
G01 X6.8535 Y5.4999
G01 X6.8673 Y5.4394
G01 X6.8861 Y5.3288
G01 X6.8930 Y5.2670
G01 X6.8993 Y5.1551
G01 X6.9002 Y5.1240
G01 X6.8993 Y5.0929
G01 X6.8930 Y4.9810
G01 X6.8920 Y4.9810
G01 X6.8917 Y4.9784
G01 X9.5027 Y4.9784
G01 X9.4988 Y5.0137
G01 X9.4971 Y5.0590
G01 X9.4988 Y5.1043
G01 X9.4998 Y5.1042
G01 X9.5057 Y5.1661
G01 X9.5103 Y5.1924
G01 X9.5259 Y5.2544
G01 X9.5464 Y5.3131
G01 X9.5531 Y5.3292
G01 X9.5788 Y5.3822
G01 X9.5857 Y5.3947
G01 X9.6188 Y5.4473
G01 X9.6270 Y5.4589
G01 X9.6658 Y5.5075
G01 X9.6966 Y5.5407
G01 X9.8324 Y5.6765
G01 X10.0537 Y6.2108
G01 X10.0537 Y6.7892
G01 X9.8324 Y7.3235
G01 X9.4235 Y7.7324
G01 X8.8892 Y7.9537
G01 X8.3108 Y7.9537
G01 X7.7765 Y7.7324
G01 X7.3676 Y7.3235
G01 X7.1463 Y6.7892
G01 X7.1463 Y6.3172
G01 X7.1446 Y6.2719
G01 X7.1435 Y6.2720
G01 X7.1376 Y6.2102
G01 X7.1330 Y6.1839
G01 X7.1175 Y6.1219
G01 X7.0969 Y6.0632
G01 X7.0903 Y6.0471
G01 X7.0645 Y5.9940
G01 X7.0576 Y5.9816
G01 X7.0246 Y5.9289
G01 X7.0163 Y5.9173
G01 X6.9776 Y5.8687
G01 X6.9681 Y5.8581
G01 X6.9241 Y5.8142
G01 X6.9135 Y5.8047
G01 X6.9126 Y5.8056
G01 X6.8899 Y5.7867
G01 X6.8902 Y5.7863
G01 X6.8649 Y5.7659
G01 X6.8470 Y5.7532
G01 X6.8007 Y5.7246
G01 X6.7819 Y5.7147
G01 X6.8019 Y5.6664
G00 Z2.0000
G00 X9.7106 Y4.8220
G01 F350.00
G01 Z-0.1306
G01 F400.00
G01 X9.6963 Y4.8516
G01 X9.6909 Y4.8648
G01 X9.6762 Y4.9069
G01 X9.6722 Y4.9206
G01 X9.6623 Y4.9641
G01 X9.6599 Y4.9781
G01 X9.6549 Y5.0225
G01 X9.6541 Y5.0367
G01 X9.6535 Y5.0590
G01 X9.6549 Y5.0955
G01 X9.6557 Y5.0955
G01 X9.6599 Y5.1399
G01 X9.6623 Y5.1539
G01 X9.6722 Y5.1974
G01 X9.6762 Y5.2111
G01 X9.6909 Y5.2532
G01 X9.6972 Y5.2685
G01 X9.7157 Y5.3066
G01 X9.7226 Y5.3190
G01 X9.7463 Y5.3568
G01 X9.7546 Y5.3684
G01 X9.7824 Y5.4033
G01 X9.8072 Y5.4301
G01 X9.9650 Y5.5879
G01 X10.2101 Y6.1797
G01 X10.2101 Y6.8203
G01 X9.9650 Y7.4121
G01 X9.5121 Y7.8650
G01 X8.9203 Y8.1101
G01 X8.2797 Y8.1101
G01 X7.6879 Y7.8650
G01 X7.2350 Y7.4121
G01 X6.9899 Y6.8203
G01 X6.9899 Y6.3172
G01 X6.9884 Y6.2807
G01 X6.9877 Y6.2808
G01 X6.9834 Y6.2364
G01 X6.9795 Y6.2135
G01 X6.9672 Y6.1651
G01 X6.9525 Y6.1230
G01 X6.9461 Y6.1077
G01 X6.9276 Y6.0697
G01 X6.9208 Y6.0572
G01 X6.8970 Y6.0194
G01 X6.8888 Y6.0078
G01 X6.8610 Y5.9729
G01 X6.8515 Y5.9623
G01 X6.8199 Y5.9308
G01 X6.8093 Y5.9213
G01 X6.8087 Y5.9220
G01 X6.7744 Y5.8935
G01 X6.7582 Y5.8820
G01 X6.7250 Y5.8615
G01 X6.7126 Y5.8546
G01 X6.6724 Y5.8352
G01 X6.6592 Y5.8298
G01 X6.6171 Y5.8151
G01 X6.6034 Y5.8111
G01 X6.5662 Y5.8026
G01 X6.5951 Y5.7503
G01 X6.6145 Y5.7101
G01 X6.6574 Y5.6065
G01 X6.6721 Y5.5644
G01 X6.7032 Y5.4566
G01 X6.7131 Y5.4132
G01 X6.7319 Y5.3026
G01 X6.7369 Y5.2583
G01 X6.7432 Y5.1463
G01 X6.7438 Y5.1240
G01 X6.7432 Y5.1017
G01 X6.7369 Y4.9897
G01 X6.7361 Y4.9898
G01 X6.7319 Y4.9454
G01 X6.7105 Y4.8220
G01 X9.7106 Y4.8220
G01 X9.6963 Y4.8516
G00 Z2.0000
G00 X11.5608 Y5.6451
G01 F350.00
G01 Z-0.1306
G01 F400.00
G01 X11.5542 Y5.5284
G01 X11.5606 Y5.4116
G01 X11.5805 Y5.2916
G01 X11.6136 Y5.1746
G01 X11.6597 Y5.0620
G01 X11.7181 Y4.9552
G01 X11.7880 Y4.8557
G01 X11.7940 Y4.8483
G01 X11.8754 Y4.7579
G01 X11.9665 Y4.6772
G01 X12.0580 Y4.6123
G01 X12.1642 Y4.5530
G01 X12.2764 Y4.5060
G01 X12.3931 Y4.4718
G01 X12.5130 Y4.4509
G01 X12.5224 Y4.4498
G01 X12.6392 Y4.4434
G01 X12.7559 Y4.4498
G01 X12.8759 Y4.4697
G01 X12.9930 Y4.5028
G01 X13.0020 Y4.5060
G01 X13.1056 Y4.5489
G01 X13.2123 Y4.6073
G01 X13.3119 Y4.6772
G01 X13.3193 Y4.6832
G01 X13.4097 Y4.7646
G01 X13.4844 Y4.8483
G01 X13.5552 Y4.9472
G01 X13.5603 Y4.9552
G01 X13.6145 Y5.0534
G01 X13.6523 Y5.1432
G01 X13.8939 Y5.1432
G01 X13.9349 Y5.1024
G01 X13.9674 Y5.0740
G01 X13.9949 Y5.0545
G01 X14.0324 Y5.0332
G01 X14.0721 Y5.0162
G01 X14.1209 Y5.0019
G01 X14.1654 Y4.9949
G01 X14.2038 Y4.9928
G01 X21.0940 Y4.9928
G01 X21.1418 Y4.9959
G01 X21.1843 Y5.0037
G01 X21.2167 Y5.0130
G01 X21.2568 Y5.0290
G01 X21.2948 Y5.0495
G01 X21.3303 Y5.0740
G01 X21.3663 Y5.1057
G01 X26.5875 Y10.3268
G01 X30.0785 Y10.3268
G01 X30.8688 Y9.5365
G01 X30.8688 Y5.3780
G01 X30.8719 Y5.3302
G01 X30.8797 Y5.2877
G01 X30.8922 Y5.2463
G01 X30.9092 Y5.2067
G01 X30.9299 Y5.1701
G01 X30.9500 Y5.1417
G01 X30.9817 Y5.1057
G01 X34.0297 Y2.0577
G01 X34.0582 Y2.0320
G01 X34.0931 Y2.0065
G01 X34.1012 Y2.0015
G01 X34.1388 Y1.9812
G01 X34.1793 Y1.9650
G01 X34.2191 Y1.9539
G01 X34.2542 Y1.9479
G01 X34.3020 Y1.9448
G01 X42.9288 Y1.9450
G01 X42.9718 Y1.9479
G01 X43.0143 Y1.9557
G01 X43.0467 Y1.9650
G01 X43.0868 Y1.9810
G01 X43.1248 Y2.0015
G01 X43.1329 Y2.0065
G01 X43.1678 Y2.0320
G01 X43.1963 Y2.0577
G01 X47.6555 Y6.5168
G01 X49.3960 Y6.5170
G01 X49.4054 Y6.5175
G01 X49.4146 Y6.5191
G01 X49.4237 Y6.5216
G01 X49.4323 Y6.5252
G01 X49.4409 Y6.5298
G01 X49.4488 Y6.5354
G01 X49.4561 Y6.5419
G01 X49.4626 Y6.5492
G01 X49.4682 Y6.5571
G01 X49.4728 Y6.5657
G01 X49.4764 Y6.5743
G01 X49.4789 Y6.5834
G01 X49.4805 Y6.5926
G01 X49.4810 Y6.6020
G01 X49.4810 Y7.2020
G01 X49.4805 Y7.2114
G01 X49.4789 Y7.2206
G01 X49.4764 Y7.2297
G01 X49.4728 Y7.2383
G01 X49.4682 Y7.2469
G01 X49.4626 Y7.2548
G01 X49.4561 Y7.2621
G01 X49.4488 Y7.2686
G01 X49.4409 Y7.2742
G01 X49.4323 Y7.2788
G01 X49.4237 Y7.2824
G01 X49.4146 Y7.2849
G01 X49.4054 Y7.2865
G01 X49.3960 Y7.2870
G01 X47.4912 Y7.2870
G01 X47.4576 Y7.2851
G01 X47.4150 Y7.2784
G01 X47.3733 Y7.2670
G01 X47.3332 Y7.2510
G01 X47.3247 Y7.2468
G01 X47.2881 Y7.2261
G01 X47.2522 Y7.2000
G01 X47.2237 Y7.1743
G01 X42.7645 Y2.7152
G01 X34.4615 Y2.7152
G01 X31.6392 Y5.5375
G01 X31.6392 Y9.6960
G01 X31.6371 Y9.7344
G01 X31.6304 Y9.7770
G01 X31.6190 Y9.8187
G01 X31.6030 Y9.8588
G01 X31.5825 Y9.8968
G01 X31.5775 Y9.9049
G01 X31.5520 Y9.9398
G01 X31.5263 Y9.9683
G01 X30.5069 Y10.9876
G01 X30.4743 Y11.0160
G01 X30.4469 Y11.0355
G01 X30.4093 Y11.0568
G01 X30.3697 Y11.0738
G01 X30.3209 Y11.0881
G01 X30.2764 Y11.0951
G01 X30.2380 Y11.0972
G01 X26.4232 Y11.0970
G01 X26.3802 Y11.0941
G01 X26.3377 Y11.0863
G01 X26.3053 Y11.0770
G01 X26.2652 Y11.0610
G01 X26.2272 Y11.0405
G01 X26.2191 Y11.0355
G01 X26.1842 Y11.0100
G01 X26.1557 Y10.9843
G01 X20.9345 Y5.7632
G01 X14.3633 Y5.7632
G01 X14.3257 Y5.8007
G01 X14.2972 Y5.8264
G01 X14.2623 Y5.8518
G01 X14.2542 Y5.8569
G01 X14.2166 Y5.8771
G01 X14.1851 Y5.8902
G01 X14.1363 Y5.9045
G01 X14.0918 Y5.9115
G01 X14.0534 Y5.9135
G01 X13.6523 Y5.9135
G01 X13.6145 Y6.0034
G01 X13.5603 Y6.1015
G01 X13.4903 Y6.2011
G01 X13.4844 Y6.2085
G01 X13.4029 Y6.2989
G01 X13.3119 Y6.3795
G01 X13.2204 Y6.4444
G01 X13.2123 Y6.4495
G01 X13.1060 Y6.5077
G01 X12.9930 Y6.5539
G01 X12.8778 Y6.5868
G01 X12.7654 Y6.6059
G01 X12.7559 Y6.6070
G01 X12.6392 Y6.6134
G01 X12.5224 Y6.6070
G01 X12.4024 Y6.5871
G01 X12.2854 Y6.5539
G01 X12.2764 Y6.5508
G01 X12.1642 Y6.5037
G01 X12.0589 Y6.4451
G01 X11.9665 Y6.3795
G01 X11.8754 Y6.2989
G01 X11.8687 Y6.2921
G01 X11.7880 Y6.2011
G01 X11.7181 Y6.1015
G01 X11.6599 Y5.9952
G01 X11.6168 Y5.8912
G01 X11.5826 Y5.7744
G01 X11.5617 Y5.6546
G01 X11.5608 Y5.6451
G01 X11.5542 Y5.5284
G00 Z2.0000
G00 X13.9548 Y4.7263
G01 F350.00
G01 Z-0.1306
G01 F400.00
G01 X13.9192 Y4.7409
G01 X13.8811 Y4.7594
G01 X13.8517 Y4.7757
G01 X13.8263 Y4.7916
G01 X13.8103 Y4.7662
G01 X13.7821 Y4.7263
G01 X13.9548 Y4.7263
G01 X13.9192 Y4.7409
G00 Z2.0000
G00 X13.9368 Y9.0796
G01 F350.00
G01 Z-0.1306
G01 F400.00
G01 X14.9351 Y8.0814
G01 X15.0377 Y8.0513
G01 X15.1418 Y8.0082
G01 X15.2236 Y7.9635
G01 X16.4167 Y7.9635
G01 X16.5476 Y8.0178
G01 X17.0182 Y8.4884
G01 X17.2729 Y9.1032
G01 X17.2729 Y9.7688
G01 X17.0182 Y10.3836
G01 X16.5476 Y10.8542
G01 X15.9328 Y11.1089
G01 X15.2672 Y11.1089
G01 X14.6524 Y10.8542
G01 X14.1818 Y10.3836
G01 X13.9271 Y9.7688
G01 X13.9271 Y9.1032
G01 X13.9368 Y9.0796
G01 X14.9351 Y8.0814
G00 Z2.0000
G00 X14.0835 Y9.1542
G01 F350.00
G01 Z-0.1306
G01 F400.00
G01 X14.1505 Y9.0872
G01 X14.1434 Y9.1174
G01 X14.1199 Y9.2556
G01 X14.1168 Y9.2825
G01 X14.1086 Y9.4360
G01 X14.1168 Y9.5895
G01 X14.1199 Y9.6164
G01 X14.1443 Y9.7599
G01 X14.1494 Y9.7810
G01 X14.1882 Y9.9157
G01 X14.1971 Y9.9412
G01 X14.2513 Y10.0720
G01 X14.2625 Y10.0951
G01 X14.3303 Y10.2178
G01 X14.3447 Y10.2407
G01 X14.4258 Y10.3551
G01 X14.4427 Y10.3762
G01 X14.5361 Y10.4807
G01 X14.5553 Y10.4999
G01 X14.6598 Y10.5933
G01 X14.6602 Y10.5929
G01 X14.6809 Y10.6102
G01 X14.7980 Y10.6932
G01 X14.8182 Y10.7057
G01 X14.9409 Y10.7735
G01 X14.9653 Y10.7852
G01 X15.0948 Y10.8389
G01 X15.1203 Y10.8478
G01 X15.2550 Y10.8866
G01 X15.2814 Y10.8926
G01 X15.4196 Y10.9161
G01 X15.4465 Y10.9192
G01 X15.5865 Y10.9270
G01 X15.6135 Y10.9270
G01 X15.7535 Y10.9192
G01 X15.7804 Y10.9161
G01 X15.9239 Y10.8917
G01 X15.9450 Y10.8866
G01 X16.0797 Y10.8478
G01 X16.1052 Y10.8389
G01 X16.2360 Y10.7847
G01 X16.2591 Y10.7735
G01 X16.3818 Y10.7057
G01 X16.4047 Y10.6913
G01 X16.5191 Y10.6102
G01 X16.5402 Y10.5933
G01 X16.6447 Y10.4999
G01 X16.6639 Y10.4807
G01 X16.7573 Y10.3762
G01 X16.7569 Y10.3758
G01 X16.7742 Y10.3551
G01 X16.8572 Y10.2380
G01 X16.8697 Y10.2178
G01 X16.9375 Y10.0951
G01 X16.9492 Y10.0707
G01 X17.0029 Y9.9412
G01 X17.0118 Y9.9157
G01 X17.0506 Y9.7810
G01 X17.0566 Y9.7546
G01 X17.0801 Y9.6164
G01 X17.0832 Y9.5895
G01 X17.0914 Y9.4360
G01 X17.0832 Y9.2825
G01 X17.0801 Y9.2556
G01 X17.0566 Y9.1174
G01 X17.0506 Y9.0910
G01 X17.0118 Y8.9563
G01 X17.0029 Y8.9308
G01 X16.9487 Y8.8000
G01 X16.9375 Y8.7769
G01 X16.8697 Y8.6542
G01 X16.8553 Y8.6313
G01 X16.7742 Y8.5169
G01 X16.7573 Y8.4958
G01 X16.6639 Y8.3913
G01 X16.6447 Y8.3721
G01 X16.5402 Y8.2787
G01 X16.5398 Y8.2791
G01 X16.5191 Y8.2618
G01 X16.4020 Y8.1788
G01 X16.3818 Y8.1663
G01 X16.2978 Y8.1199
G01 X16.3856 Y8.1199
G01 X16.4590 Y8.1503
G01 X16.8857 Y8.5770
G01 X17.1165 Y9.1343
G01 X17.1165 Y9.7377
G01 X16.8857 Y10.2950
G01 X16.4590 Y10.7217
G01 X15.9017 Y10.9525
G01 X15.2983 Y10.9525
G01 X14.7410 Y10.7217
G01 X14.3143 Y10.2950
G01 X14.0835 Y9.7377
G01 X14.0835 Y9.1542
G01 X14.1505 Y9.0872
G00 Z2.0000
G00 X14.2732 Y9.5807
G01 F350.00
G01 Z-0.1306
G01 F400.00
G01 X14.2650 Y9.4360
G01 X14.2730 Y9.2913
G01 X14.2741 Y9.2818
G01 X14.2975 Y9.1436
G01 X14.2997 Y9.1343
G01 X14.3385 Y8.9996
G01 X14.3416 Y8.9906
G01 X14.3953 Y8.8611
G01 X14.3994 Y8.8525
G01 X14.4672 Y8.7298
G01 X14.4723 Y8.7218
G01 X14.5534 Y8.6075
G01 X14.5593 Y8.6000
G01 X14.6527 Y8.4955
G01 X14.6595 Y8.4887
G01 X14.7640 Y8.3953
G01 X14.7715 Y8.3894
G01 X14.8858 Y8.3083
G01 X14.8938 Y8.3032
G01 X15.0165 Y8.2354
G01 X15.0247 Y8.2314
G01 X15.1546 Y8.1776
G01 X15.1636 Y8.1745
G01 X15.3057 Y8.1339
G01 X15.4458 Y8.1101
G01 X15.4553 Y8.1090
G01 X15.6000 Y8.1010
G01 X15.7447 Y8.1090
G01 X15.7542 Y8.1101
G01 X15.8924 Y8.1335
G01 X15.9017 Y8.1357
G01 X16.0364 Y8.1745
G01 X16.0454 Y8.1776
G01 X16.1749 Y8.2313
G01 X16.1835 Y8.2354
G01 X16.3062 Y8.3032
G01 X16.3142 Y8.3083
G01 X16.4285 Y8.3894
G01 X16.4360 Y8.3953
G01 X16.5405 Y8.4887
G01 X16.5473 Y8.4955
G01 X16.6407 Y8.6000
G01 X16.6466 Y8.6075
G01 X16.7277 Y8.7218
G01 X16.7328 Y8.7298
G01 X16.8006 Y8.8525
G01 X16.8046 Y8.8607
G01 X16.8584 Y8.9906
G01 X16.8615 Y8.9996
G01 X16.9021 Y9.1417
G01 X16.9259 Y9.2818
G01 X16.9270 Y9.2913
G01 X16.9350 Y9.4360
G01 X16.9270 Y9.5807
G01 X16.9259 Y9.5902
G01 X16.9025 Y9.7284
G01 X16.9003 Y9.7377
G01 X16.8615 Y9.8724
G01 X16.8584 Y9.8814
G01 X16.8047 Y10.0109
G01 X16.8006 Y10.0195
G01 X16.7328 Y10.1422
G01 X16.7277 Y10.1502
G01 X16.6466 Y10.2645
G01 X16.6407 Y10.2720
G01 X16.5473 Y10.3765
G01 X16.5405 Y10.3833
G01 X16.4360 Y10.4767
G01 X16.4285 Y10.4826
G01 X16.3142 Y10.5637
G01 X16.3062 Y10.5688
G01 X16.1835 Y10.6366
G01 X16.1753 Y10.6406
G01 X16.0454 Y10.6944
G01 X16.0364 Y10.6975
G01 X15.8943 Y10.7381
G01 X15.7542 Y10.7619
G01 X15.7447 Y10.7630
G01 X15.6000 Y10.7710
G01 X15.4553 Y10.7630
G01 X15.4458 Y10.7619
G01 X15.3076 Y10.7385
G01 X15.2983 Y10.7363
G01 X15.1636 Y10.6975
G01 X15.1546 Y10.6944
G01 X15.0251 Y10.6407
G01 X15.0165 Y10.6366
G01 X14.8938 Y10.5688
G01 X14.8858 Y10.5637
G01 X14.7715 Y10.4826
G01 X14.7640 Y10.4767
G01 X14.6595 Y10.3833
G01 X14.6527 Y10.3765
G01 X14.5593 Y10.2720
G01 X14.5534 Y10.2645
G01 X14.4723 Y10.1502
G01 X14.4672 Y10.1422
G01 X14.3994 Y10.0195
G01 X14.3954 Y10.0113
G01 X14.3416 Y9.8814
G01 X14.3385 Y9.8724
G01 X14.2997 Y9.7377
G01 X14.2975 Y9.7284
G01 X14.2741 Y9.5902
G01 X14.2732 Y9.5807
G01 X14.2650 Y9.4360
G00 Z2.0000
G00 X13.2565 Y10.3074
G01 F350.00
G01 Z-0.1306
G01 F400.00
G01 X13.3849 Y10.4059
G01 X13.3987 Y10.4947
G01 X13.2565 Y10.5768
G01 X13.2565 Y10.3074
G01 X13.3849 Y10.4059
G00 Z2.0000
G00 X13.1101 Y12.5435
G01 F350.00
G01 Z-0.1306
G01 F400.00
G01 X13.1183 Y12.5355
G01 X13.2117 Y12.4310
G01 X13.2176 Y12.4235
G01 X13.2987 Y12.3092
G01 X13.3038 Y12.3012
G01 X13.3716 Y12.1785
G01 X13.3757 Y12.1699
G01 X13.4294 Y12.0404
G01 X13.4325 Y12.0314
G01 X13.4713 Y11.8967
G01 X13.4735 Y11.8874
G01 X13.4969 Y11.7492
G01 X13.4980 Y11.7397
G01 X13.5060 Y11.5950
G01 X13.4980 Y11.4503
G01 X13.4969 Y11.4408
G01 X13.4731 Y11.3007
G01 X13.4571 Y11.2440
G01 X13.7377 Y11.0820
G01 X13.8051 Y11.1362
G01 X13.8694 Y11.7522
G01 X13.6792 Y12.3931
G01 X13.3601 Y12.8089
G01 X13.2713 Y12.8227
G01 X13.1101 Y12.5435
G01 X13.1183 Y12.5355
G00 Z2.0000
G00 X13.3026 Y12.5640
G01 F350.00
G01 Z-0.1306
G01 F400.00
G01 X13.3283 Y12.5352
G01 X13.3279 Y12.5348
G01 X13.3452 Y12.5141
G01 X13.4282 Y12.3970
G01 X13.4407 Y12.3768
G01 X13.5085 Y12.2541
G01 X13.5202 Y12.2297
G01 X13.5739 Y12.1002
G01 X13.5828 Y12.0747
G01 X13.6216 Y11.9400
G01 X13.6276 Y11.9136
G01 X13.6511 Y11.7754
G01 X13.6542 Y11.7485
G01 X13.6624 Y11.5950
G01 X13.6542 Y11.4415
G01 X13.6511 Y11.4146
G01 X13.6353 Y11.3217
G01 X13.6654 Y11.3043
G01 X13.7107 Y11.7375
G01 X13.5375 Y12.3208
G01 X13.3233 Y12.5999
G01 X13.3026 Y12.5640
G01 X13.3283 Y12.5352
G00 Z2.0000
G00 X14.1173 Y13.6535
G01 F350.00
G01 Z-0.1306
G01 F400.00
G01 X14.1086 Y13.5000
G01 X14.1168 Y13.3465
G01 X14.1199 Y13.3196
G01 X14.1434 Y13.1814
G01 X14.1494 Y13.1550
G01 X14.1882 Y13.0203
G01 X14.1971 Y12.9948
G01 X14.2508 Y12.8653
G01 X14.2625 Y12.8409
G01 X14.3303 Y12.7182
G01 X14.3428 Y12.6980
G01 X14.4258 Y12.5809
G01 X14.4431 Y12.5602
G01 X14.4427 Y12.5598
G01 X14.5361 Y12.4553
G01 X14.5553 Y12.4361
G01 X14.6598 Y12.3427
G01 X14.6809 Y12.3258
G01 X14.7953 Y12.2447
G01 X14.8182 Y12.2303
G01 X14.9409 Y12.1625
G01 X14.9640 Y12.1513
G01 X15.0948 Y12.0971
G01 X15.1203 Y12.0882
G01 X15.2550 Y12.0494
G01 X15.2761 Y12.0443
G01 X15.4196 Y12.0199
G01 X15.4465 Y12.0168
G01 X15.6000 Y12.0086
G01 X15.7535 Y12.0168
G01 X15.7804 Y12.0199
G01 X15.9186 Y12.0434
G01 X15.9450 Y12.0494
G01 X16.0797 Y12.0882
G01 X16.1052 Y12.0971
G01 X16.2347 Y12.1508
G01 X16.2591 Y12.1625
G01 X16.3818 Y12.2303
G01 X16.4020 Y12.2428
G01 X16.5191 Y12.3258
G01 X16.5398 Y12.3431
G01 X16.5402 Y12.3427
G01 X16.6447 Y12.4361
G01 X16.6639 Y12.4553
G01 X16.7573 Y12.5598
G01 X16.7742 Y12.5809
G01 X16.8553 Y12.6953
G01 X16.8697 Y12.7182
G01 X16.9375 Y12.8409
G01 X16.9487 Y12.8640
G01 X17.0029 Y12.9948
G01 X17.0118 Y13.0203
G01 X17.0506 Y13.1550
G01 X17.0557 Y13.1761
G01 X17.0801 Y13.3196
G01 X17.0832 Y13.3465
G01 X17.0914 Y13.5000
G01 X17.0832 Y13.6535
G01 X17.0801 Y13.6804
G01 X17.0566 Y13.8186
G01 X17.0506 Y13.8450
G01 X17.0118 Y13.9797
G01 X17.0029 Y14.0052
G01 X16.9492 Y14.1347
G01 X16.9375 Y14.1591
G01 X16.8697 Y14.2818
G01 X16.8572 Y14.3020
G01 X16.7742 Y14.4191
G01 X16.7569 Y14.4398
G01 X16.7573 Y14.4402
G01 X16.6639 Y14.5447
G01 X16.6447 Y14.5639
G01 X16.5402 Y14.6573
G01 X16.5191 Y14.6742
G01 X16.4047 Y14.7553
G01 X16.3818 Y14.7697
G01 X16.2591 Y14.8375
G01 X16.2360 Y14.8487
G01 X16.1052 Y14.9029
G01 X16.0797 Y14.9118
G01 X15.9450 Y14.9506
G01 X15.9239 Y14.9557
G01 X15.7804 Y14.9801
G01 X15.7535 Y14.9832
G01 X15.6000 Y14.9914
G01 X15.4465 Y14.9832
G01 X15.4196 Y14.9801
G01 X15.2814 Y14.9566
G01 X15.2550 Y14.9506
G01 X15.1203 Y14.9118
G01 X15.0948 Y14.9029
G01 X14.9653 Y14.8492
G01 X14.9409 Y14.8375
G01 X14.8182 Y14.7697
G01 X14.7980 Y14.7572
G01 X14.6809 Y14.6742
G01 X14.6602 Y14.6569
G01 X14.6598 Y14.6573
G01 X14.5553 Y14.5639
G01 X14.5361 Y14.5447
G01 X14.4427 Y14.4402
G01 X14.4258 Y14.4191
G01 X14.3447 Y14.3047
G01 X14.3303 Y14.2818
G01 X14.2625 Y14.1591
G01 X14.2513 Y14.1360
G01 X14.1971 Y14.0052
G01 X14.1882 Y13.9797
G01 X14.1494 Y13.8450
G01 X14.1434 Y13.8186
G01 X14.1199 Y13.6804
G01 X14.1173 Y13.6535
G01 X14.1086 Y13.5000
G00 Z2.0000
G00 X14.2732 Y13.6447
G01 F350.00
G01 Z-0.1306
G01 F400.00
G01 X14.2650 Y13.5000
G01 X14.2730 Y13.3553
G01 X14.2741 Y13.3458
G01 X14.2975 Y13.2076
G01 X14.2997 Y13.1983
G01 X14.3385 Y13.0636
G01 X14.3416 Y13.0546
G01 X14.3953 Y12.9251
G01 X14.3994 Y12.9165
G01 X14.4672 Y12.7938
G01 X14.4723 Y12.7858
G01 X14.5534 Y12.6715
G01 X14.5593 Y12.6640
G01 X14.6527 Y12.5595
G01 X14.6595 Y12.5527
G01 X14.7640 Y12.4593
G01 X14.7715 Y12.4534
G01 X14.8858 Y12.3723
G01 X14.8938 Y12.3672
G01 X15.0165 Y12.2994
G01 X15.0247 Y12.2954
G01 X15.1546 Y12.2416
G01 X15.1636 Y12.2385
G01 X15.3057 Y12.1979
G01 X15.4458 Y12.1741
G01 X15.4553 Y12.1730
G01 X15.6000 Y12.1650
G01 X15.7447 Y12.1730
G01 X15.7542 Y12.1741
G01 X15.8924 Y12.1975
G01 X15.9017 Y12.1997
G01 X16.0364 Y12.2385
G01 X16.0454 Y12.2416
G01 X16.1749 Y12.2953
G01 X16.1835 Y12.2994
G01 X16.3062 Y12.3672
G01 X16.3142 Y12.3723
G01 X16.4285 Y12.4534
G01 X16.4360 Y12.4593
G01 X16.5405 Y12.5527
G01 X16.5473 Y12.5595
G01 X16.6407 Y12.6640
G01 X16.6466 Y12.6715
G01 X16.7277 Y12.7858
G01 X16.7328 Y12.7938
G01 X16.8006 Y12.9165
G01 X16.8046 Y12.9247
G01 X16.8584 Y13.0546
G01 X16.8615 Y13.0636
G01 X16.9021 Y13.2057
G01 X16.9259 Y13.3458
G01 X16.9270 Y13.3553
G01 X16.9350 Y13.5000
G01 X16.9270 Y13.6447
G01 X16.9259 Y13.6542
G01 X16.9025 Y13.7924
G01 X16.9003 Y13.8017
G01 X16.8615 Y13.9364
G01 X16.8584 Y13.9454
G01 X16.8047 Y14.0749
G01 X16.8006 Y14.0835
G01 X16.7328 Y14.2062
G01 X16.7277 Y14.2142
G01 X16.6466 Y14.3285
G01 X16.6407 Y14.3360
G01 X16.5473 Y14.4405
G01 X16.5405 Y14.4473
G01 X16.4360 Y14.5407
G01 X16.4285 Y14.5466
G01 X16.3142 Y14.6277
G01 X16.3062 Y14.6328
G01 X16.1835 Y14.7006
G01 X16.1753 Y14.7046
G01 X16.0454 Y14.7584
G01 X16.0364 Y14.7615
G01 X15.8943 Y14.8021
G01 X15.7542 Y14.8259
G01 X15.7447 Y14.8270
G01 X15.6000 Y14.8350
G01 X15.4553 Y14.8270
G01 X15.4458 Y14.8259
G01 X15.3076 Y14.8025
G01 X15.2983 Y14.8003
G01 X15.1636 Y14.7615
G01 X15.1546 Y14.7584
G01 X15.0251 Y14.7047
G01 X15.0165 Y14.7006
G01 X14.8938 Y14.6328
G01 X14.8858 Y14.6277
G01 X14.7715 Y14.5466
G01 X14.7640 Y14.5407
G01 X14.6595 Y14.4473
G01 X14.6527 Y14.4405
G01 X14.5593 Y14.3360
G01 X14.5534 Y14.3285
G01 X14.4723 Y14.2142
G01 X14.4672 Y14.2062
G01 X14.3994 Y14.0835
G01 X14.3954 Y14.0753
G01 X14.3416 Y13.9454
G01 X14.3385 Y13.9364
G01 X14.2997 Y13.8017
G01 X14.2975 Y13.7924
G01 X14.2741 Y13.6542
G01 X14.2732 Y13.6447
G01 X14.2650 Y13.5000
G00 Z2.0000
G00 X16.0777 Y12.0564
G01 F350.00
G01 Z-0.1306
G01 F400.00
G01 X16.4590 Y12.2143
G01 X16.8857 Y12.6410
G01 X17.1165 Y13.1983
G01 X17.1165 Y13.8017
G01 X16.8857 Y14.3590
G01 X16.4590 Y14.7857
G01 X15.9017 Y15.0165
G01 X15.2983 Y15.0165
G01 X14.7410 Y14.7857
G01 X14.3143 Y14.3590
G01 X14.0835 Y13.8017
G01 X14.0835 Y13.1983
G01 X14.3143 Y12.6410
G01 X14.7410 Y12.2143
G01 X15.2983 Y11.9835
G01 X15.9017 Y11.9835
G01 X16.0777 Y12.0564
G01 X16.4590 Y12.2143
G00 Z2.0000
G00 X16.1375 Y11.9119
G01 F350.00
G01 Z-0.1306
G01 F400.00
G01 X16.5476 Y12.0818
G01 X17.0182 Y12.5524
G01 X17.2729 Y13.1672
G01 X17.2729 Y13.8328
G01 X17.0182 Y14.4476
G01 X16.5476 Y14.9182
G01 X15.9328 Y15.1729
G01 X15.2672 Y15.1729
G01 X14.6524 Y14.9182
G01 X14.1818 Y14.4476
G01 X13.9271 Y13.8328
G01 X13.9271 Y13.1672
G01 X14.1818 Y12.5524
G01 X14.6524 Y12.0818
G01 X15.2672 Y11.8271
G01 X15.9328 Y11.8271
G01 X16.1375 Y11.9119
G01 X16.5476 Y12.0818
G00 Z2.0000
G00 X17.5463 Y11.4945
G01 F350.00
G01 Z-0.1306
G01 F400.00
G01 X17.5376 Y11.3410
G01 X17.5458 Y11.1875
G01 X17.5489 Y11.1606
G01 X17.5724 Y11.0224
G01 X17.5784 Y10.9960
G01 X17.6172 Y10.8613
G01 X17.6261 Y10.8358
G01 X17.6798 Y10.7063
G01 X17.6915 Y10.6819
G01 X17.7593 Y10.5592
G01 X17.7718 Y10.5390
G01 X17.8548 Y10.4219
G01 X17.8721 Y10.4012
G01 X17.8717 Y10.4008
G01 X17.9651 Y10.2963
G01 X17.9843 Y10.2771
G01 X18.0888 Y10.1837
G01 X18.1099 Y10.1668
G01 X18.2243 Y10.0857
G01 X18.2472 Y10.0713
G01 X18.3699 Y10.0035
G01 X18.3930 Y9.9923
G01 X18.5238 Y9.9381
G01 X18.5493 Y9.9292
G01 X18.6840 Y9.8904
G01 X18.7051 Y9.8853
G01 X18.8486 Y9.8609
G01 X18.8755 Y9.8578
G01 X19.0290 Y9.8496
G01 X19.1825 Y9.8578
G01 X19.2094 Y9.8609
G01 X19.3476 Y9.8844
G01 X19.3740 Y9.8904
G01 X19.5087 Y9.9292
G01 X19.5342 Y9.9381
G01 X19.6637 Y9.9918
G01 X19.6881 Y10.0035
G01 X19.8108 Y10.0713
G01 X19.8310 Y10.0838
G01 X19.9481 Y10.1668
G01 X19.9688 Y10.1841
G01 X19.9692 Y10.1837
G01 X20.0737 Y10.2771
G01 X20.0929 Y10.2963
G01 X20.1863 Y10.4008
G01 X20.2032 Y10.4219
G01 X20.2843 Y10.5363
G01 X20.2987 Y10.5592
G01 X20.3665 Y10.6819
G01 X20.3777 Y10.7050
G01 X20.4319 Y10.8358
G01 X20.4408 Y10.8613
G01 X20.4796 Y10.9960
G01 X20.4847 Y11.0171
G01 X20.5091 Y11.1606
G01 X20.5122 Y11.1875
G01 X20.5204 Y11.3410
G01 X20.5122 Y11.4945
G01 X20.5091 Y11.5214
G01 X20.4856 Y11.6596
G01 X20.4796 Y11.6860
G01 X20.4408 Y11.8207
G01 X20.4319 Y11.8462
G01 X20.3782 Y11.9757
G01 X20.3665 Y12.0001
G01 X20.2987 Y12.1228
G01 X20.2862 Y12.1430
G01 X20.2032 Y12.2601
G01 X20.1859 Y12.2808
G01 X20.1863 Y12.2812
G01 X20.0929 Y12.3857
G01 X20.0737 Y12.4049
G01 X19.9692 Y12.4983
G01 X19.9481 Y12.5152
G01 X19.8337 Y12.5963
G01 X19.8108 Y12.6107
G01 X19.6881 Y12.6785
G01 X19.6650 Y12.6897
G01 X19.5342 Y12.7439
G01 X19.5087 Y12.7528
G01 X19.3740 Y12.7916
G01 X19.3529 Y12.7967
G01 X19.2094 Y12.8211
G01 X19.1825 Y12.8242
G01 X19.0290 Y12.8324
G01 X18.8755 Y12.8242
G01 X18.8486 Y12.8211
G01 X18.7104 Y12.7976
G01 X18.6840 Y12.7916
G01 X18.5493 Y12.7528
G01 X18.5238 Y12.7439
G01 X18.3943 Y12.6902
G01 X18.3699 Y12.6785
G01 X18.2472 Y12.6107
G01 X18.2270 Y12.5982
G01 X18.1099 Y12.5152
G01 X18.0892 Y12.4979
G01 X18.0888 Y12.4983
G01 X17.9843 Y12.4049
G01 X17.9651 Y12.3857
G01 X17.8717 Y12.2812
G01 X17.8548 Y12.2601
G01 X17.7737 Y12.1457
G01 X17.7593 Y12.1228
G01 X17.6915 Y12.0001
G01 X17.6803 Y11.9770
G01 X17.6261 Y11.8462
G01 X17.6172 Y11.8207
G01 X17.5784 Y11.6860
G01 X17.5724 Y11.6596
G01 X17.5489 Y11.5214
G01 X17.5463 Y11.4945
G01 X17.5376 Y11.3410
G00 Z2.0000
G00 X17.7022 Y11.4857
G01 F350.00
G01 Z-0.1306
G01 F400.00
G01 X17.6940 Y11.3410
G01 X17.7020 Y11.1963
G01 X17.7031 Y11.1868
G01 X17.7265 Y11.0486
G01 X17.7287 Y11.0393
G01 X17.7675 Y10.9046
G01 X17.7706 Y10.8956
G01 X17.8243 Y10.7661
G01 X17.8284 Y10.7575
G01 X17.8962 Y10.6348
G01 X17.9013 Y10.6268
G01 X17.9824 Y10.5125
G01 X17.9883 Y10.5050
G01 X18.0817 Y10.4005
G01 X18.0885 Y10.3937
G01 X18.1930 Y10.3003
G01 X18.2005 Y10.2944
G01 X18.3148 Y10.2133
G01 X18.3228 Y10.2082
G01 X18.4455 Y10.1404
G01 X18.4537 Y10.1364
G01 X18.5836 Y10.0826
G01 X18.5926 Y10.0795
G01 X18.7347 Y10.0389
G01 X18.8748 Y10.0151
G01 X18.8843 Y10.0140
G01 X19.0290 Y10.0060
G01 X19.1737 Y10.0140
G01 X19.1832 Y10.0151
G01 X19.3214 Y10.0385
G01 X19.3307 Y10.0407
G01 X19.4654 Y10.0795
G01 X19.4744 Y10.0826
G01 X19.6039 Y10.1363
G01 X19.6125 Y10.1404
G01 X19.7352 Y10.2082
G01 X19.7432 Y10.2133
G01 X19.8575 Y10.2944
G01 X19.8650 Y10.3003
G01 X19.9695 Y10.3937
G01 X19.9763 Y10.4005
G01 X20.0697 Y10.5050
G01 X20.0756 Y10.5125
G01 X20.1567 Y10.6268
G01 X20.1618 Y10.6348
G01 X20.2296 Y10.7575
G01 X20.2336 Y10.7657
G01 X20.2874 Y10.8956
G01 X20.2905 Y10.9046
G01 X20.3311 Y11.0467
G01 X20.3549 Y11.1868
G01 X20.3560 Y11.1963
G01 X20.3640 Y11.3410
G01 X20.3560 Y11.4857
G01 X20.3549 Y11.4952
G01 X20.3315 Y11.6334
G01 X20.3293 Y11.6427
G01 X20.2905 Y11.7774
G01 X20.2874 Y11.7864
G01 X20.2337 Y11.9159
G01 X20.2296 Y11.9245
G01 X20.1618 Y12.0472
G01 X20.1567 Y12.0552
G01 X20.0756 Y12.1695
G01 X20.0697 Y12.1770
G01 X19.9763 Y12.2815
G01 X19.9695 Y12.2883
G01 X19.8650 Y12.3817
G01 X19.8575 Y12.3876
G01 X19.7432 Y12.4687
G01 X19.7352 Y12.4738
G01 X19.6125 Y12.5416
G01 X19.6043 Y12.5456
G01 X19.4744 Y12.5994
G01 X19.4654 Y12.6025
G01 X19.3233 Y12.6431
G01 X19.1832 Y12.6669
G01 X19.1737 Y12.6680
G01 X19.0290 Y12.6760
G01 X18.8843 Y12.6680
G01 X18.8748 Y12.6669
G01 X18.7366 Y12.6435
G01 X18.7273 Y12.6413
G01 X18.5926 Y12.6025
G01 X18.5836 Y12.5994
G01 X18.4541 Y12.5457
G01 X18.4455 Y12.5416
G01 X18.3228 Y12.4738
G01 X18.3148 Y12.4687
G01 X18.2005 Y12.3876
G01 X18.1930 Y12.3817
G01 X18.0885 Y12.2883
G01 X18.0817 Y12.2815
G01 X17.9883 Y12.1770
G01 X17.9824 Y12.1695
G01 X17.9013 Y12.0552
G01 X17.8962 Y12.0472
G01 X17.8284 Y11.9245
G01 X17.8244 Y11.9163
G01 X17.7706 Y11.7864
G01 X17.7675 Y11.7774
G01 X17.7287 Y11.6427
G01 X17.7265 Y11.6334
G01 X17.7031 Y11.4952
G01 X17.7022 Y11.4857
G01 X17.6940 Y11.3410
G00 Z2.0000
G00 X20.3514 Y12.1113
G01 F350.00
G01 Z-0.1306
G01 F400.00
G01 X20.3147 Y12.2000
G01 X19.8880 Y12.6267
G01 X19.3307 Y12.8575
G01 X18.7273 Y12.8575
G01 X18.1700 Y12.6267
G01 X17.7433 Y12.2000
G01 X17.5125 Y11.6427
G01 X17.5125 Y11.0393
G01 X17.7433 Y10.4820
G01 X18.1700 Y10.0553
G01 X18.7273 Y9.8245
G01 X19.3307 Y9.8245
G01 X19.8880 Y10.0553
G01 X20.3147 Y10.4820
G01 X20.5455 Y11.0393
G01 X20.5455 Y11.6427
G01 X20.3514 Y12.1113
G01 X20.3147 Y12.2000
G00 Z2.0000
G00 X20.4959 Y12.1712
G01 F350.00
G01 Z-0.1306
G01 F400.00
G01 X20.4472 Y12.2886
G01 X19.9766 Y12.7592
G01 X19.3618 Y13.0139
G01 X18.6962 Y13.0139
G01 X18.0814 Y12.7592
G01 X17.6108 Y12.2886
G01 X17.3561 Y11.6738
G01 X17.3561 Y11.0082
G01 X17.6108 Y10.3934
G01 X18.0814 Y9.9228
G01 X18.6962 Y9.6681
G01 X19.3618 Y9.6681
G01 X19.9766 Y9.9228
G01 X20.4472 Y10.3934
G01 X20.7019 Y11.0082
G01 X20.7019 Y11.6738
G01 X20.4959 Y12.1712
G01 X20.4472 Y12.2886
G00 Z2.0000
G00 X17.7022 Y15.6767
G01 F350.00
G01 Z-0.1306
G01 F400.00
G01 X17.6940 Y15.5320
G01 X17.7020 Y15.3873
G01 X17.7031 Y15.3778
G01 X17.7265 Y15.2396
G01 X17.7287 Y15.2303
G01 X17.7675 Y15.0956
G01 X17.7706 Y15.0866
G01 X17.8243 Y14.9571
G01 X17.8284 Y14.9485
G01 X17.8962 Y14.8258
G01 X17.9013 Y14.8178
G01 X17.9824 Y14.7035
G01 X17.9883 Y14.6960
G01 X18.0817 Y14.5915
G01 X18.0885 Y14.5847
G01 X18.1930 Y14.4913
G01 X18.2005 Y14.4854
G01 X18.3148 Y14.4043
G01 X18.3228 Y14.3992
G01 X18.4455 Y14.3314
G01 X18.4537 Y14.3274
G01 X18.5836 Y14.2736
G01 X18.5926 Y14.2705
G01 X18.7347 Y14.2299
G01 X18.8748 Y14.2061
G01 X18.8843 Y14.2050
G01 X19.0290 Y14.1970
G01 X19.1737 Y14.2050
G01 X19.1832 Y14.2061
G01 X19.3214 Y14.2295
G01 X19.3307 Y14.2317
G01 X19.4654 Y14.2705
G01 X19.4744 Y14.2736
G01 X19.6039 Y14.3273
G01 X19.6125 Y14.3314
G01 X19.7352 Y14.3992
G01 X19.7432 Y14.4043
G01 X19.8575 Y14.4854
G01 X19.8650 Y14.4913
G01 X19.9695 Y14.5847
G01 X19.9763 Y14.5915
G01 X20.0697 Y14.6960
G01 X20.0756 Y14.7035
G01 X20.1567 Y14.8178
G01 X20.1618 Y14.8258
G01 X20.2296 Y14.9485
G01 X20.2336 Y14.9567
G01 X20.2874 Y15.0866
G01 X20.2905 Y15.0956
G01 X20.3311 Y15.2377
G01 X20.3549 Y15.3778
G01 X20.3560 Y15.3873
G01 X20.3640 Y15.5320
G01 X20.3560 Y15.6767
G01 X20.3549 Y15.6862
G01 X20.3315 Y15.8244
G01 X20.3293 Y15.8337
G01 X20.2905 Y15.9684
G01 X20.2874 Y15.9774
G01 X20.2337 Y16.1069
G01 X20.2296 Y16.1155
G01 X20.1618 Y16.2382
G01 X20.1567 Y16.2462
G01 X20.0756 Y16.3605
G01 X20.0697 Y16.3680
G01 X19.9763 Y16.4725
G01 X19.9695 Y16.4793
G01 X19.8650 Y16.5727
G01 X19.8575 Y16.5786
G01 X19.7432 Y16.6597
G01 X19.7352 Y16.6648
G01 X19.6125 Y16.7326
G01 X19.6043 Y16.7366
G01 X19.4744 Y16.7904
G01 X19.4654 Y16.7935
G01 X19.3233 Y16.8341
G01 X19.1832 Y16.8579
G01 X19.1737 Y16.8590
G01 X19.0290 Y16.8670
G01 X18.8843 Y16.8590
G01 X18.8748 Y16.8579
G01 X18.7366 Y16.8345
G01 X18.7273 Y16.8323
G01 X18.5926 Y16.7935
G01 X18.5836 Y16.7904
G01 X18.4541 Y16.7367
G01 X18.4455 Y16.7326
G01 X18.3228 Y16.6648
G01 X18.3148 Y16.6597
G01 X18.2005 Y16.5786
G01 X18.1930 Y16.5727
G01 X18.0885 Y16.4793
G01 X18.0817 Y16.4725
G01 X17.9883 Y16.3680
G01 X17.9824 Y16.3605
G01 X17.9013 Y16.2462
G01 X17.8962 Y16.2382
G01 X17.8284 Y16.1155
G01 X17.8244 Y16.1073
G01 X17.7706 Y15.9774
G01 X17.7675 Y15.9684
G01 X17.7287 Y15.8337
G01 X17.7265 Y15.8244
G01 X17.7031 Y15.6862
G01 X17.7022 Y15.6767
G01 X17.6940 Y15.5320
G00 Z2.0000
G00 X17.5463 Y15.6855
G01 F350.00
G01 Z-0.1306
G01 F400.00
G01 X17.5376 Y15.5320
G01 X17.5458 Y15.3785
G01 X17.5489 Y15.3516
G01 X17.5724 Y15.2134
G01 X17.5784 Y15.1870
G01 X17.6172 Y15.0523
G01 X17.6261 Y15.0268
G01 X17.6798 Y14.8973
G01 X17.6915 Y14.8729
G01 X17.7593 Y14.7502
G01 X17.7718 Y14.7300
G01 X17.8548 Y14.6129
G01 X17.8721 Y14.5922
G01 X17.8717 Y14.5918
G01 X17.9651 Y14.4873
G01 X17.9843 Y14.4681
G01 X18.0888 Y14.3747
G01 X18.1099 Y14.3578
G01 X18.2243 Y14.2767
G01 X18.2472 Y14.2623
G01 X18.3699 Y14.1945
G01 X18.3930 Y14.1833
G01 X18.5238 Y14.1291
G01 X18.5493 Y14.1202
G01 X18.6840 Y14.0814
G01 X18.7051 Y14.0763
G01 X18.8486 Y14.0519
G01 X18.8755 Y14.0488
G01 X19.0290 Y14.0406
G01 X19.1825 Y14.0488
G01 X19.2094 Y14.0519
G01 X19.3476 Y14.0754
G01 X19.3740 Y14.0814
G01 X19.5087 Y14.1202
G01 X19.5342 Y14.1291
G01 X19.6637 Y14.1828
G01 X19.6881 Y14.1945
G01 X19.8108 Y14.2623
G01 X19.8310 Y14.2748
G01 X19.9481 Y14.3578
G01 X19.9688 Y14.3751
G01 X19.9692 Y14.3747
G01 X20.0737 Y14.4681
G01 X20.0929 Y14.4873
G01 X20.1863 Y14.5918
G01 X20.2032 Y14.6129
G01 X20.2843 Y14.7273
G01 X20.2987 Y14.7502
G01 X20.3665 Y14.8729
G01 X20.3777 Y14.8960
G01 X20.4319 Y15.0268
G01 X20.4408 Y15.0523
G01 X20.4796 Y15.1870
G01 X20.4847 Y15.2081
G01 X20.5091 Y15.3516
G01 X20.5122 Y15.3785
G01 X20.5204 Y15.5320
G01 X20.5122 Y15.6855
G01 X20.5091 Y15.7124
G01 X20.4856 Y15.8506
G01 X20.4796 Y15.8770
G01 X20.4408 Y16.0117
G01 X20.4319 Y16.0372
G01 X20.3782 Y16.1667
G01 X20.3665 Y16.1911
G01 X20.2987 Y16.3138
G01 X20.2862 Y16.3340
G01 X20.2032 Y16.4511
G01 X20.1859 Y16.4718
G01 X20.1863 Y16.4722
G01 X20.0929 Y16.5767
G01 X20.0737 Y16.5959
G01 X19.9692 Y16.6893
G01 X19.9481 Y16.7062
G01 X19.8337 Y16.7873
G01 X19.8108 Y16.8017
G01 X19.6881 Y16.8695
G01 X19.6650 Y16.8807
G01 X19.5342 Y16.9349
G01 X19.5087 Y16.9438
G01 X19.3740 Y16.9826
G01 X19.3529 Y16.9877
G01 X19.2094 Y17.0121
G01 X19.1825 Y17.0152
G01 X19.0290 Y17.0234
G01 X18.8755 Y17.0152
G01 X18.8486 Y17.0121
G01 X18.7104 Y16.9886
G01 X18.6840 Y16.9826
G01 X18.5493 Y16.9438
G01 X18.5238 Y16.9349
G01 X18.3943 Y16.8812
G01 X18.3699 Y16.8695
G01 X18.2472 Y16.8017
G01 X18.2270 Y16.7892
G01 X18.1099 Y16.7062
G01 X18.0892 Y16.6889
G01 X18.0888 Y16.6893
G01 X17.9843 Y16.5959
G01 X17.9651 Y16.5767
G01 X17.8717 Y16.4722
G01 X17.8548 Y16.4511
G01 X17.7737 Y16.3367
G01 X17.7593 Y16.3138
G01 X17.6915 Y16.1911
G01 X17.6803 Y16.1680
G01 X17.6261 Y16.0372
G01 X17.6172 Y16.0117
G01 X17.5784 Y15.8770
G01 X17.5724 Y15.8506
G01 X17.5489 Y15.7124
G01 X17.5463 Y15.6855
G01 X17.5376 Y15.5320
G00 Z2.0000
G00 X17.5125 Y15.8337
G01 F350.00
G01 Z-0.1306
G01 F400.00
G01 X17.5125 Y15.2303
G01 X17.7433 Y14.6730
G01 X18.1700 Y14.2463
G01 X18.7273 Y14.0155
G01 X19.3307 Y14.0155
G01 X19.8880 Y14.2463
G01 X20.3147 Y14.6730
G01 X20.5455 Y15.2303
G01 X20.5455 Y15.8337
G01 X20.3147 Y16.3910
G01 X19.8880 Y16.8177
G01 X19.3307 Y17.0485
G01 X18.7273 Y17.0485
G01 X18.1700 Y16.8177
G01 X17.7433 Y16.3910
G01 X17.5125 Y15.8337
G01 X17.5125 Y15.2303
G00 Z2.0000
G00 X17.3561 Y15.8648
G01 F350.00
G01 Z-0.1306
G01 F400.00
G01 X17.3561 Y15.1992
G01 X17.6108 Y14.5844
G01 X18.0814 Y14.1138
G01 X18.6962 Y13.8591
G01 X19.3618 Y13.8591
G01 X19.9766 Y14.1138
G01 X20.4472 Y14.5844
G01 X20.7019 Y15.1992
G01 X20.7019 Y15.8648
G01 X20.4472 Y16.4796
G01 X19.9766 Y16.9502
G01 X19.3618 Y17.2049
G01 X18.6962 Y17.2049
G01 X18.0814 Y16.9502
G01 X17.6108 Y16.4796
G01 X17.3561 Y15.8648
G01 X17.3561 Y15.1992
G00 Z2.0000
G00 X16.4441 Y16.1029
G01 F350.00
G01 Z-0.1306
G01 F400.00
G01 X16.5476 Y16.1458
G01 X17.0182 Y16.6164
G01 X17.2729 Y17.2312
G01 X17.2729 Y17.8968
G01 X17.0182 Y18.5116
G01 X16.5476 Y18.9822
G01 X15.9328 Y19.2369
G01 X15.2672 Y19.2369
G01 X14.6524 Y18.9822
G01 X14.1818 Y18.5116
G01 X13.9271 Y17.8968
G01 X13.9271 Y17.2312
G01 X14.1818 Y16.6164
G01 X14.6524 Y16.1458
G01 X15.2672 Y15.8911
G01 X15.9328 Y15.8911
G01 X16.4441 Y16.1029
G01 X16.5476 Y16.1458
G00 Z2.0000
G00 X16.3843 Y16.2474
G01 F350.00
G01 Z-0.1306
G01 F400.00
G01 X16.4590 Y16.2783
G01 X16.8857 Y16.7050
G01 X17.1165 Y17.2623
G01 X17.1165 Y17.8657
G01 X16.8857 Y18.4230
G01 X16.4590 Y18.8497
G01 X15.9017 Y19.0805
G01 X15.2983 Y19.0805
G01 X14.7410 Y18.8497
G01 X14.3143 Y18.4230
G01 X14.0835 Y17.8657
G01 X14.0835 Y17.2623
G01 X14.3143 Y16.7050
G01 X14.7410 Y16.2783
G01 X15.2983 Y16.0475
G01 X15.9017 Y16.0475
G01 X16.3843 Y16.2474
G01 X16.4590 Y16.2783
G00 Z2.0000
G00 X14.2732 Y17.7087
G01 F350.00
G01 Z-0.1306
G01 F400.00
G01 X14.2650 Y17.5640
G01 X14.2730 Y17.4193
G01 X14.2741 Y17.4098
G01 X14.2975 Y17.2716
G01 X14.2997 Y17.2623
G01 X14.3385 Y17.1276
G01 X14.3416 Y17.1186
G01 X14.3953 Y16.9891
G01 X14.3994 Y16.9805
G01 X14.4672 Y16.8578
G01 X14.4723 Y16.8498
G01 X14.5534 Y16.7355
G01 X14.5593 Y16.7280
G01 X14.6527 Y16.6235
G01 X14.6595 Y16.6167
G01 X14.7640 Y16.5233
G01 X14.7715 Y16.5174
G01 X14.8858 Y16.4363
G01 X14.8938 Y16.4312
G01 X15.0165 Y16.3634
G01 X15.0247 Y16.3594
G01 X15.1546 Y16.3056
G01 X15.1636 Y16.3025
G01 X15.3057 Y16.2619
G01 X15.4458 Y16.2381
G01 X15.4553 Y16.2370
G01 X15.6000 Y16.2290
G01 X15.7447 Y16.2370
G01 X15.7542 Y16.2381
G01 X15.8924 Y16.2615
G01 X15.9017 Y16.2637
G01 X16.0364 Y16.3025
G01 X16.0454 Y16.3056
G01 X16.1749 Y16.3593
G01 X16.1835 Y16.3634
G01 X16.3062 Y16.4312
G01 X16.3142 Y16.4363
G01 X16.4285 Y16.5174
G01 X16.4360 Y16.5233
G01 X16.5405 Y16.6167
G01 X16.5473 Y16.6235
G01 X16.6407 Y16.7280
G01 X16.6466 Y16.7355
G01 X16.7277 Y16.8498
G01 X16.7328 Y16.8578
G01 X16.8006 Y16.9805
G01 X16.8046 Y16.9887
G01 X16.8584 Y17.1186
G01 X16.8615 Y17.1276
G01 X16.9021 Y17.2697
G01 X16.9259 Y17.4098
G01 X16.9270 Y17.4193
G01 X16.9350 Y17.5640
G01 X16.9270 Y17.7087
G01 X16.9259 Y17.7182
G01 X16.9025 Y17.8564
G01 X16.9003 Y17.8657
G01 X16.8615 Y18.0004
G01 X16.8584 Y18.0094
G01 X16.8047 Y18.1389
G01 X16.8006 Y18.1475
G01 X16.7328 Y18.2702
G01 X16.7277 Y18.2782
G01 X16.6466 Y18.3925
G01 X16.6407 Y18.4000
G01 X16.5473 Y18.5045
G01 X16.5405 Y18.5113
G01 X16.4360 Y18.6047
G01 X16.4285 Y18.6106
G01 X16.3142 Y18.6917
G01 X16.3062 Y18.6968
G01 X16.1835 Y18.7646
G01 X16.1753 Y18.7686
G01 X16.0454 Y18.8224
G01 X16.0364 Y18.8255
G01 X15.8943 Y18.8661
G01 X15.7542 Y18.8899
G01 X15.7447 Y18.8910
G01 X15.6000 Y18.8990
G01 X15.4553 Y18.8910
G01 X15.4458 Y18.8899
G01 X15.3076 Y18.8665
G01 X15.2983 Y18.8643
G01 X15.1636 Y18.8255
G01 X15.1546 Y18.8224
G01 X15.0251 Y18.7687
G01 X15.0165 Y18.7646
G01 X14.8938 Y18.6968
G01 X14.8858 Y18.6917
G01 X14.7715 Y18.6106
G01 X14.7640 Y18.6047
G01 X14.6595 Y18.5113
G01 X14.6527 Y18.5045
G01 X14.5593 Y18.4000
G01 X14.5534 Y18.3925
G01 X14.4723 Y18.2782
G01 X14.4672 Y18.2702
G01 X14.3994 Y18.1475
G01 X14.3954 Y18.1393
G01 X14.3416 Y18.0094
G01 X14.3385 Y18.0004
G01 X14.2997 Y17.8657
G01 X14.2975 Y17.8564
G01 X14.2741 Y17.7182
G01 X14.2732 Y17.7087
G01 X14.2650 Y17.5640
G00 Z2.0000
G00 X14.1173 Y17.7175
G01 F350.00
G01 Z-0.1306
G01 F400.00
G01 X14.1086 Y17.5640
G01 X14.1168 Y17.4105
G01 X14.1199 Y17.3836
G01 X14.1434 Y17.2454
G01 X14.1494 Y17.2190
G01 X14.1882 Y17.0843
G01 X14.1971 Y17.0588
G01 X14.2508 Y16.9293
G01 X14.2625 Y16.9049
G01 X14.3303 Y16.7822
G01 X14.3428 Y16.7620
G01 X14.4258 Y16.6449
G01 X14.4431 Y16.6242
G01 X14.4427 Y16.6238
G01 X14.5361 Y16.5193
G01 X14.5553 Y16.5001
G01 X14.6598 Y16.4067
G01 X14.6809 Y16.3898
G01 X14.7953 Y16.3087
G01 X14.8182 Y16.2943
G01 X14.9409 Y16.2265
G01 X14.9640 Y16.2153
G01 X15.0948 Y16.1611
G01 X15.1203 Y16.1522
G01 X15.2550 Y16.1134
G01 X15.2761 Y16.1083
G01 X15.4196 Y16.0839
G01 X15.4465 Y16.0808
G01 X15.6000 Y16.0726
G01 X15.7535 Y16.0808
G01 X15.7804 Y16.0839
G01 X15.9186 Y16.1074
G01 X15.9450 Y16.1134
G01 X16.0797 Y16.1522
G01 X16.1052 Y16.1611
G01 X16.2347 Y16.2148
G01 X16.2591 Y16.2265
G01 X16.3818 Y16.2943
G01 X16.4020 Y16.3068
G01 X16.5191 Y16.3898
G01 X16.5398 Y16.4071
G01 X16.5402 Y16.4067
G01 X16.6447 Y16.5001
G01 X16.6639 Y16.5193
G01 X16.7573 Y16.6238
G01 X16.7742 Y16.6449
G01 X16.8553 Y16.7593
G01 X16.8697 Y16.7822
G01 X16.9375 Y16.9049
G01 X16.9487 Y16.9280
G01 X17.0029 Y17.0588
G01 X17.0118 Y17.0843
G01 X17.0506 Y17.2190
G01 X17.0557 Y17.2401
G01 X17.0801 Y17.3836
G01 X17.0832 Y17.4105
G01 X17.0914 Y17.5640
G01 X17.0832 Y17.7175
G01 X17.0801 Y17.7444
G01 X17.0566 Y17.8826
G01 X17.0506 Y17.9090
G01 X17.0118 Y18.0437
G01 X17.0029 Y18.0692
G01 X16.9492 Y18.1987
G01 X16.9375 Y18.2231
G01 X16.8697 Y18.3458
G01 X16.8572 Y18.3660
G01 X16.7742 Y18.4831
G01 X16.7569 Y18.5038
G01 X16.7573 Y18.5042
G01 X16.6639 Y18.6087
G01 X16.6447 Y18.6279
G01 X16.5402 Y18.7213
G01 X16.5191 Y18.7382
G01 X16.4047 Y18.8193
G01 X16.3818 Y18.8337
G01 X16.2591 Y18.9015
G01 X16.2360 Y18.9127
G01 X16.1052 Y18.9669
G01 X16.0797 Y18.9758
G01 X15.9450 Y19.0146
G01 X15.9239 Y19.0197
G01 X15.7804 Y19.0441
G01 X15.7535 Y19.0472
G01 X15.6000 Y19.0554
G01 X15.4465 Y19.0472
G01 X15.4196 Y19.0441
G01 X15.2814 Y19.0206
G01 X15.2550 Y19.0146
G01 X15.1203 Y18.9758
G01 X15.0948 Y18.9669
G01 X14.9653 Y18.9132
G01 X14.9409 Y18.9015
G01 X14.8182 Y18.8337
G01 X14.7980 Y18.8212
G01 X14.6809 Y18.7382
G01 X14.6602 Y18.7209
G01 X14.6598 Y18.7213
G01 X14.5553 Y18.6279
G01 X14.5361 Y18.6087
G01 X14.4427 Y18.5042
G01 X14.4258 Y18.4831
G01 X14.3447 Y18.3687
G01 X14.3303 Y18.3458
G01 X14.2625 Y18.2231
G01 X14.2513 Y18.2000
G01 X14.1971 Y18.0692
G01 X14.1882 Y18.0437
G01 X14.1494 Y17.9090
G01 X14.1434 Y17.8826
G01 X14.1199 Y17.7444
G01 X14.1173 Y17.7175
G01 X14.1086 Y17.5640
G00 Z2.0000
G00 X10.8442 Y15.8037
G01 F350.00
G01 Z-0.1306
G01 F400.00
G01 X10.8360 Y15.6590
G01 X10.8440 Y15.5143
G01 X10.8451 Y15.5048
G01 X10.8685 Y15.3666
G01 X10.8707 Y15.3573
G01 X10.9095 Y15.2226
G01 X10.9126 Y15.2136
G01 X10.9663 Y15.0841
G01 X10.9704 Y15.0755
G01 X11.0382 Y14.9528
G01 X11.0433 Y14.9448
G01 X11.1244 Y14.8305
G01 X11.1303 Y14.8230
G01 X11.2237 Y14.7185
G01 X11.2305 Y14.7117
G01 X11.3350 Y14.6183
G01 X11.3425 Y14.6124
G01 X11.4568 Y14.5313
G01 X11.4648 Y14.5262
G01 X11.5875 Y14.4584
G01 X11.5957 Y14.4544
G01 X11.7256 Y14.4006
G01 X11.7346 Y14.3975
G01 X11.8767 Y14.3569
G01 X12.0168 Y14.3331
G01 X12.0263 Y14.3320
G01 X12.1710 Y14.3240
G01 X12.3157 Y14.3320
G01 X12.3252 Y14.3331
G01 X12.4634 Y14.3565
G01 X12.4727 Y14.3587
G01 X12.6074 Y14.3975
G01 X12.6164 Y14.4006
G01 X12.7459 Y14.4543
G01 X12.7545 Y14.4584
G01 X12.8772 Y14.5262
G01 X12.8852 Y14.5313
G01 X12.9995 Y14.6124
G01 X13.0070 Y14.6183
G01 X13.1115 Y14.7117
G01 X13.1183 Y14.7185
G01 X13.2117 Y14.8230
G01 X13.2176 Y14.8305
G01 X13.2987 Y14.9448
G01 X13.3038 Y14.9528
G01 X13.3716 Y15.0755
G01 X13.3756 Y15.0837
G01 X13.4294 Y15.2136
G01 X13.4325 Y15.2226
G01 X13.4731 Y15.3647
G01 X13.4969 Y15.5048
G01 X13.4980 Y15.5143
G01 X13.5060 Y15.6590
G01 X13.4980 Y15.8037
G01 X13.4969 Y15.8132
G01 X13.4735 Y15.9514
G01 X13.4713 Y15.9607
G01 X13.4325 Y16.0954
G01 X13.4294 Y16.1044
G01 X13.3757 Y16.2339
G01 X13.3716 Y16.2425
G01 X13.3038 Y16.3652
G01 X13.2987 Y16.3732
G01 X13.2176 Y16.4875
G01 X13.2117 Y16.4950
G01 X13.1183 Y16.5995
G01 X13.1115 Y16.6063
G01 X13.0070 Y16.6997
G01 X12.9995 Y16.7056
G01 X12.8852 Y16.7867
G01 X12.8772 Y16.7918
G01 X12.7545 Y16.8596
G01 X12.7463 Y16.8636
G01 X12.6164 Y16.9174
G01 X12.6074 Y16.9205
G01 X12.4653 Y16.9611
G01 X12.3252 Y16.9849
G01 X12.3157 Y16.9860
G01 X12.1710 Y16.9940
G01 X12.0263 Y16.9860
G01 X12.0168 Y16.9849
G01 X11.8786 Y16.9615
G01 X11.8693 Y16.9593
G01 X11.7346 Y16.9205
G01 X11.7256 Y16.9174
G01 X11.5961 Y16.8637
G01 X11.5875 Y16.8596
G01 X11.4648 Y16.7918
G01 X11.4568 Y16.7867
G01 X11.3425 Y16.7056
G01 X11.3350 Y16.6997
G01 X11.2305 Y16.6063
G01 X11.2237 Y16.5995
G01 X11.1303 Y16.4950
G01 X11.1244 Y16.4875
G01 X11.0433 Y16.3732
G01 X11.0382 Y16.3652
G01 X10.9704 Y16.2425
G01 X10.9664 Y16.2343
G01 X10.9126 Y16.1044
G01 X10.9095 Y16.0954
G01 X10.8707 Y15.9607
G01 X10.8685 Y15.9514
G01 X10.8451 Y15.8132
G01 X10.8442 Y15.8037
G01 X10.8360 Y15.6590
G00 Z2.0000
G00 X10.6883 Y15.8125
G01 F350.00
G01 Z-0.1306
G01 F400.00
G01 X10.6796 Y15.6590
G01 X10.6878 Y15.5055
G01 X10.6909 Y15.4786
G01 X10.7144 Y15.3404
G01 X10.7204 Y15.3140
G01 X10.7592 Y15.1793
G01 X10.7681 Y15.1538
G01 X10.8218 Y15.0243
G01 X10.8335 Y14.9999
G01 X10.9013 Y14.8772
G01 X10.9138 Y14.8570
G01 X10.9968 Y14.7399
G01 X11.0141 Y14.7192
G01 X11.0137 Y14.7188
G01 X11.1071 Y14.6143
G01 X11.1263 Y14.5951
G01 X11.2308 Y14.5017
G01 X11.2519 Y14.4848
G01 X11.3663 Y14.4037
G01 X11.3892 Y14.3893
G01 X11.5119 Y14.3215
G01 X11.5350 Y14.3103
G01 X11.6658 Y14.2561
G01 X11.6913 Y14.2472
G01 X11.8260 Y14.2084
G01 X11.8471 Y14.2033
G01 X11.9906 Y14.1789
G01 X12.0175 Y14.1758
G01 X12.1710 Y14.1676
G01 X12.3245 Y14.1758
G01 X12.3514 Y14.1789
G01 X12.4896 Y14.2024
G01 X12.5160 Y14.2084
G01 X12.6507 Y14.2472
G01 X12.6762 Y14.2561
G01 X12.8057 Y14.3098
G01 X12.8301 Y14.3215
G01 X12.9528 Y14.3893
G01 X12.9730 Y14.4018
G01 X13.0901 Y14.4848
G01 X13.1108 Y14.5021
G01 X13.1112 Y14.5017
G01 X13.2157 Y14.5951
G01 X13.2349 Y14.6143
G01 X13.3283 Y14.7188
G01 X13.3452 Y14.7399
G01 X13.4263 Y14.8543
G01 X13.4407 Y14.8772
G01 X13.5085 Y14.9999
G01 X13.5197 Y15.0230
G01 X13.5739 Y15.1538
G01 X13.5828 Y15.1793
G01 X13.6216 Y15.3140
G01 X13.6267 Y15.3351
G01 X13.6511 Y15.4786
G01 X13.6542 Y15.5055
G01 X13.6624 Y15.6590
G01 X13.6542 Y15.8125
G01 X13.6511 Y15.8394
G01 X13.6276 Y15.9776
G01 X13.6216 Y16.0040
G01 X13.5828 Y16.1387
G01 X13.5739 Y16.1642
G01 X13.5202 Y16.2937
G01 X13.5085 Y16.3181
G01 X13.4407 Y16.4408
G01 X13.4282 Y16.4610
G01 X13.3452 Y16.5781
G01 X13.3279 Y16.5988
G01 X13.3283 Y16.5992
G01 X13.2349 Y16.7037
G01 X13.2157 Y16.7229
G01 X13.1112 Y16.8163
G01 X13.0901 Y16.8332
G01 X12.9757 Y16.9143
G01 X12.9528 Y16.9287
G01 X12.8301 Y16.9965
G01 X12.8070 Y17.0077
G01 X12.6762 Y17.0619
G01 X12.6507 Y17.0708
G01 X12.5160 Y17.1096
G01 X12.4949 Y17.1147
G01 X12.3514 Y17.1391
G01 X12.3245 Y17.1422
G01 X12.1710 Y17.1504
G01 X12.0175 Y17.1422
G01 X11.9906 Y17.1391
G01 X11.8524 Y17.1156
G01 X11.8260 Y17.1096
G01 X11.6913 Y17.0708
G01 X11.6658 Y17.0619
G01 X11.5363 Y17.0082
G01 X11.5119 Y16.9965
G01 X11.3892 Y16.9287
G01 X11.3690 Y16.9162
G01 X11.2519 Y16.8332
G01 X11.2312 Y16.8159
G01 X11.2308 Y16.8163
G01 X11.1263 Y16.7229
G01 X11.1071 Y16.7037
G01 X11.0137 Y16.5992
G01 X10.9968 Y16.5781
G01 X10.9157 Y16.4637
G01 X10.9013 Y16.4408
G01 X10.8335 Y16.3181
G01 X10.8223 Y16.2950
G01 X10.7681 Y16.1642
G01 X10.7592 Y16.1387
G01 X10.7204 Y16.0040
G01 X10.7144 Y15.9776
G01 X10.6909 Y15.8394
G01 X10.6883 Y15.8125
G01 X10.6796 Y15.6590
G00 Z2.0000
G00 X10.6545 Y15.9607
G01 F350.00
G01 Z-0.1306
G01 F400.00
G01 X10.6545 Y15.3573
G01 X10.8853 Y14.8000
G01 X11.3120 Y14.3733
G01 X11.8693 Y14.1425
G01 X12.4727 Y14.1425
G01 X13.0300 Y14.3733
G01 X13.4567 Y14.8000
G01 X13.6875 Y15.3573
G01 X13.6875 Y15.9607
G01 X13.4567 Y16.5180
G01 X13.0300 Y16.9447
G01 X12.4727 Y17.1755
G01 X11.8693 Y17.1755
G01 X11.3120 Y16.9447
G01 X10.8853 Y16.5180
G01 X10.6545 Y15.9607
G01 X10.6545 Y15.3573
G00 Z2.0000
G00 X10.4981 Y15.9918
G01 F350.00
G01 Z-0.1306
G01 F400.00
G01 X10.4981 Y15.3262
G01 X10.7528 Y14.7114
G01 X11.2234 Y14.2408
G01 X11.8382 Y13.9861
G01 X12.5038 Y13.9861
G01 X13.1186 Y14.2408
G01 X13.5892 Y14.7114
G01 X13.8439 Y15.3262
G01 X13.8439 Y15.9918
G01 X13.5892 Y16.6066
G01 X13.1186 Y17.0772
G01 X12.5038 Y17.3319
G01 X11.8382 Y17.3319
G01 X11.2234 Y17.0772
G01 X10.7528 Y16.6066
G01 X10.4981 Y15.9918
G01 X10.4981 Y15.3262
G00 Z2.0000
G00 X11.1661 Y12.7473
G01 F350.00
G01 Z-0.1306
G01 F400.00
G01 X11.2020 Y12.7266
G01 X11.2308 Y12.7523
G01 X11.2312 Y12.7519
G01 X11.2519 Y12.7692
G01 X11.3690 Y12.8522
G01 X11.3892 Y12.8647
G01 X11.5119 Y12.9325
G01 X11.5363 Y12.9442
G01 X11.6658 Y12.9979
G01 X11.6913 Y13.0068
G01 X11.8260 Y13.0456
G01 X11.8524 Y13.0516
G01 X11.9906 Y13.0751
G01 X12.0175 Y13.0782
G01 X12.1710 Y13.0864
G01 X12.3245 Y13.0782
G01 X12.3514 Y13.0751
G01 X12.4443 Y13.0593
G01 X12.4617 Y13.0894
G01 X12.0285 Y13.1347
G01 X11.4452 Y12.9615
G01 X11.1661 Y12.7473
G01 X11.2020 Y12.7266
G00 Z2.0000
G00 X11.3351 Y12.6355
G01 F350.00
G01 Z-0.1306
G01 F400.00
G01 X11.3425 Y12.6416
G01 X11.4577 Y12.7234
G01 X11.5875 Y12.7956
G01 X11.5961 Y12.7997
G01 X11.7256 Y12.8534
G01 X11.7346 Y12.8565
G01 X11.8693 Y12.8953
G01 X11.8786 Y12.8975
G01 X12.0168 Y12.9209
G01 X12.0263 Y12.9220
G01 X12.1710 Y12.9300
G01 X12.3157 Y12.9220
G01 X12.3252 Y12.9209
G01 X12.4653 Y12.8971
G01 X12.5220 Y12.8811
G01 X12.6840 Y13.1617
G01 X12.6298 Y13.2291
G01 X12.0138 Y13.2934
G01 X11.3729 Y13.1032
G01 X10.9571 Y12.7841
G01 X10.9433 Y12.6953
G01 X11.2225 Y12.5341
G01 X11.2305 Y12.5423
G01 X11.3351 Y12.6355
G01 X11.3425 Y12.6416
G00 Z2.0000
G00 X10.6766 Y11.8857
G01 F350.00
G01 Z-0.1306
G01 F400.00
G01 X10.6313 Y11.4525
G01 X10.8045 Y10.8692
G01 X10.9291 Y10.7069
G01 X10.9291 Y10.7714
G01 X10.9138 Y10.7930
G01 X10.9013 Y10.8132
G01 X10.8335 Y10.9359
G01 X10.8218 Y10.9603
G01 X10.7681 Y11.0898
G01 X10.7592 Y11.1153
G01 X10.7204 Y11.2500
G01 X10.7144 Y11.2764
G01 X10.6909 Y11.4146
G01 X10.6878 Y11.4415
G01 X10.6796 Y11.5950
G01 X10.6878 Y11.7485
G01 X10.6909 Y11.7754
G01 X10.7067 Y11.8683
G01 X10.6766 Y11.8857
G01 X10.6313 Y11.4525
G00 Z2.0000
G00 X10.8442 Y11.7397
G01 F350.00
G01 Z-0.1306
G01 F400.00
G01 X10.8451 Y11.7492
G01 X10.8689 Y11.8893
G01 X10.8849 Y11.9460
G01 X10.6043 Y12.1080
G01 X10.5369 Y12.0538
G01 X10.4726 Y11.4378
G01 X10.6628 Y10.7969
G01 X10.9819 Y10.3811
G01 X11.0707 Y10.3673
G01 X11.0855 Y10.3930
G01 X11.0855 Y10.8213
G01 X11.0382 Y10.8888
G01 X10.9704 Y11.0115
G01 X10.9663 Y11.0201
G01 X10.9126 Y11.1496
G01 X10.9095 Y11.1586
G01 X10.8707 Y11.2933
G01 X10.8685 Y11.3026
G01 X10.8451 Y11.4408
G01 X10.8440 Y11.4503
G01 X10.8360 Y11.5950
G01 X10.8442 Y11.7397
G01 X10.8451 Y11.7492
G00 Z2.0000
G00 X9.4065 Y19.7074
G01 F350.00
G01 Z-0.1306
G01 F400.00
G01 X9.4065 Y19.6515
G01 X9.5390 Y19.6515
G01 X9.6370 Y19.6920
G01 X9.7120 Y19.7670
G01 X9.7525 Y19.8650
G01 X9.7525 Y20.1225
G01 X9.7248 Y20.1225
G01 X9.7236 Y20.1081
G01 X9.7200 Y20.0838
G01 X9.7192 Y20.0839
G01 X9.7154 Y20.0606
G01 X9.7094 Y20.0368
G01 X9.7025 Y20.0141
G01 X9.6943 Y19.9910
G01 X9.6852 Y19.9691
G01 X9.6747 Y19.9469
G01 X9.6635 Y19.9261
G01 X9.6509 Y19.9050
G01 X9.6378 Y19.8853
G01 X9.6231 Y19.8656
G01 X9.6081 Y19.8473
G01 X9.5916 Y19.8291
G01 X9.5749 Y19.8124
G01 X9.5567 Y19.7959
G01 X9.5384 Y19.7809
G01 X9.5171 Y19.7651
G01 X9.4990 Y19.7531
G01 X9.4779 Y19.7405
G01 X9.4571 Y19.7293
G01 X9.4349 Y19.7188
G01 X9.4065 Y19.7074
G01 X9.4065 Y19.6515
G00 Z2.0000
G00 X9.2501 Y19.8336
G01 F350.00
G01 Z-0.1306
G01 F400.00
G01 X9.2501 Y19.5296
G01 X9.2846 Y19.4951
G01 X9.5701 Y19.4951
G01 X9.7256 Y19.5595
G01 X9.8445 Y19.6784
G01 X9.9089 Y19.8339
G01 X9.9089 Y20.2444
G01 X9.8744 Y20.2789
G01 X9.5710 Y20.2789
G01 X9.5709 Y20.1638
G01 X9.5689 Y20.1310
G01 X9.5653 Y20.1068
G01 X9.5577 Y20.0748
G01 X9.5470 Y20.0437
G01 X9.5294 Y20.0065
G01 X9.5121 Y19.9785
G01 X9.4922 Y19.9523
G01 X9.4758 Y19.9341
G01 X9.4517 Y19.9118
G01 X9.4250 Y19.8914
G01 X9.3975 Y19.8746
G01 X9.3603 Y19.8570
G01 X9.3292 Y19.8463
G01 X9.2972 Y19.8387
G01 X9.2730 Y19.8351
G01 X9.2501 Y19.8336
G01 X9.2501 Y19.5296
G00 Z2.0000
G00 X9.2501 Y21.4024
G01 F350.00
G01 Z-0.1306
G01 F400.00
G01 X9.2730 Y21.4009
G01 X9.2972 Y21.3973
G01 X9.3292 Y21.3897
G01 X9.3603 Y21.3790
G01 X9.3975 Y21.3614
G01 X9.4255 Y21.3441
G01 X9.4452 Y21.3295
G01 X9.4699 Y21.3078
G01 X9.4922 Y21.2837
G01 X9.5126 Y21.2570
G01 X9.5333 Y21.2222
G01 X9.5470 Y21.1923
G01 X9.5577 Y21.1612
G01 X9.5653 Y21.1292
G01 X9.5689 Y21.1050
G01 X9.5709 Y21.0722
G01 X9.5710 Y20.9571
G01 X9.8744 Y20.9571
G01 X9.9089 Y20.9916
G01 X9.9089 Y21.4021
G01 X9.8445 Y21.5576
G01 X9.7256 Y21.6765
G01 X9.5701 Y21.7409
G01 X9.2846 Y21.7409
G01 X9.2501 Y21.7064
G01 X9.2501 Y21.4024
G01 X9.2730 Y21.4009
G00 Z2.0000
G00 X9.4065 Y21.5286
G01 F350.00
G01 Z-0.1306
G01 F400.00
G01 X9.4349 Y21.5172
G01 X9.4571 Y21.5067
G01 X9.4779 Y21.4955
G01 X9.4990 Y21.4829
G01 X9.5187 Y21.4698
G01 X9.5384 Y21.4551
G01 X9.5567 Y21.4401
G01 X9.5749 Y21.4236
G01 X9.5916 Y21.4069
G01 X9.6081 Y21.3887
G01 X9.6231 Y21.3704
G01 X9.6378 Y21.3507
G01 X9.6509 Y21.3310
G01 X9.6635 Y21.3099
G01 X9.6747 Y21.2891
G01 X9.6852 Y21.2669
G01 X9.6943 Y21.2450
G01 X9.7025 Y21.2219
G01 X9.7094 Y21.1992
G01 X9.7154 Y21.1754
G01 X9.7200 Y21.1522
G01 X9.7250 Y21.1135
G01 X9.7525 Y21.1135
G01 X9.7525 Y21.3710
G01 X9.7120 Y21.4690
G01 X9.6370 Y21.5440
G01 X9.5390 Y21.5845
G01 X9.4065 Y21.5845
G01 X9.4065 Y21.5286
G01 X9.4349 Y21.5172
G00 Z2.0000
G00 X7.8244 Y21.1766
G01 F350.00
G01 Z-0.1306
G01 F400.00
G01 X7.8283 Y21.1509
G01 X7.8321 Y21.1120
G01 X7.8338 Y21.0680
G01 X7.8338 Y20.1680
G01 X7.8321 Y20.1240
G01 X7.8315 Y20.1240
G01 X7.8283 Y20.0851
G01 X7.8247 Y20.0609
G01 X7.8234 Y20.0610
G01 X7.8232 Y20.0594
G01 X7.8638 Y20.0576
G01 X7.8638 Y20.0568
G01 X7.9074 Y20.0522
G01 X7.9291 Y20.0482
G01 X7.9509 Y20.0428
G01 X7.9473 Y20.0609
G01 X7.9437 Y20.0851
G01 X7.9399 Y20.1240
G01 X7.9382 Y20.1680
G01 X7.9382 Y21.0680
G01 X7.9399 Y21.1120
G01 X7.9405 Y21.1120
G01 X7.9437 Y21.1509
G01 X7.9473 Y21.1751
G01 X7.9486 Y21.1750
G01 X7.9516 Y21.1935
G01 X7.9212 Y21.1863
G01 X7.9074 Y21.1838
G01 X7.8638 Y21.1784
G01 X7.8244 Y21.1766
G01 X7.8283 Y21.1509
G00 Z2.0000
G00 X3.7218 Y21.5879
G01 F350.00
G01 Z-0.1306
G01 F400.00
G01 X3.7102 Y21.5643
G01 X3.6892 Y21.5300
G01 X3.6647 Y21.4983
G01 X3.6555 Y21.4879
G01 X3.2563 Y21.0883
G01 X3.0635 Y20.6228
G01 X3.0635 Y20.1189
G01 X3.2563 Y19.6534
G01 X3.6126 Y19.2971
G01 X4.0781 Y19.1043
G01 X4.5819 Y19.1043
G01 X5.0474 Y19.2971
G01 X5.4037 Y19.6534
G01 X5.4693 Y19.8117
G01 X5.4812 Y19.8372
G01 X5.4945 Y19.8612
G01 X5.5022 Y19.8734
G01 X5.5181 Y19.8957
G01 X5.5272 Y19.9070
G01 X5.5446 Y19.9265
G01 X5.5558 Y19.9375
G01 X5.5763 Y19.9556
G01 X5.5919 Y19.9678
G01 X5.6225 Y19.9879
G01 X5.6466 Y20.0009
G01 X5.6596 Y20.0071
G01 X5.6851 Y20.0173
G01 X5.6988 Y20.0219
G01 X5.7252 Y20.0292
G01 X5.7393 Y20.0322
G01 X5.7664 Y20.0365
G01 X5.8044 Y20.0390
G01 X5.8226 Y20.0388
G01 X5.8500 Y20.0368
G01 X5.8643 Y20.0349
G01 X5.8912 Y20.0299
G01 X5.9053 Y20.0264
G01 X5.9315 Y20.0183
G01 X5.9450 Y20.0133
G01 X5.9701 Y20.0022
G01 X5.9830 Y19.9957
G01 X6.0067 Y19.9819
G01 X6.0187 Y19.9739
G01 X6.0407 Y19.9575
G01 X6.0674 Y19.9340
G01 X6.0817 Y19.9190
G01 X6.0994 Y19.8981
G01 X6.1081 Y19.8866
G01 X6.1671 Y19.7991
G01 X6.3363 Y19.6860
G01 X6.5723 Y19.6390
G01 X7.1497 Y19.6390
G01 X7.3857 Y19.6860
G01 X7.6226 Y19.8448
G01 X7.6561 Y19.8637
G01 X7.6803 Y19.8748
G01 X7.6933 Y19.8800
G01 X7.7186 Y19.8883
G01 X7.7322 Y19.8920
G01 X7.7582 Y19.8975
G01 X7.7721 Y19.8996
G01 X7.7986 Y19.9022
G01 X7.8230 Y19.9031
G01 X7.8533 Y19.9016
G01 X7.8532 Y19.9010
G01 X7.8797 Y19.8983
G01 X7.8983 Y19.8949
G01 X7.9194 Y19.8896
G01 X7.9329 Y19.8857
G01 X7.9580 Y19.8767
G01 X7.9718 Y19.8708
G01 X8.0071 Y19.8527
G01 X8.0296 Y19.8384
G01 X8.0410 Y19.8303
G01 X8.0618 Y19.8137
G01 X8.0722 Y19.8043
G01 X8.1850 Y19.6920
G01 X8.2830 Y19.6515
G01 X8.4155 Y19.6515
G01 X8.4155 Y19.7074
G01 X8.3871 Y19.7188
G01 X8.3649 Y19.7293
G01 X8.3441 Y19.7405
G01 X8.3230 Y19.7531
G01 X8.3033 Y19.7662
G01 X8.2836 Y19.7809
G01 X8.2653 Y19.7959
G01 X8.2471 Y19.8124
G01 X8.2304 Y19.8291
G01 X8.2139 Y19.8473
G01 X8.1989 Y19.8656
G01 X8.1842 Y19.8853
G01 X8.1711 Y19.9050
G01 X8.1585 Y19.9261
G01 X8.1473 Y19.9469
G01 X8.1368 Y19.9691
G01 X8.1277 Y19.9910
G01 X8.1195 Y20.0141
G01 X8.1126 Y20.0368
G01 X8.1066 Y20.0606
G01 X8.1020 Y20.0838
G01 X8.0984 Y20.1081
G01 X8.0961 Y20.1316
G01 X8.0946 Y20.1680
G01 X8.0946 Y21.0680
G01 X8.0961 Y21.1044
G01 X8.0984 Y21.1279
G01 X8.1020 Y21.1522
G01 X8.1028 Y21.1521
G01 X8.1066 Y21.1754
G01 X8.1126 Y21.1992
G01 X8.1195 Y21.2219
G01 X8.1277 Y21.2450
G01 X8.1368 Y21.2669
G01 X8.1473 Y21.2891
G01 X8.1585 Y21.3099
G01 X8.1711 Y21.3310
G01 X8.1842 Y21.3507
G01 X8.1989 Y21.3704
G01 X8.2139 Y21.3887
G01 X8.2304 Y21.4069
G01 X8.2471 Y21.4236
G01 X8.2653 Y21.4401
G01 X8.2836 Y21.4551
G01 X8.3049 Y21.4709
G01 X8.3230 Y21.4829
G01 X8.3441 Y21.4955
G01 X8.3649 Y21.5067
G01 X8.3871 Y21.5172
G01 X8.4155 Y21.5286
G01 X8.4155 Y21.5845
G01 X8.2830 Y21.5845
G01 X8.1850 Y21.5440
G01 X8.0722 Y21.4317
G01 X8.0618 Y21.4223
G01 X8.0614 Y21.4228
G01 X8.0410 Y21.4057
G01 X8.0270 Y21.3957
G01 X8.0071 Y21.3833
G01 X7.9948 Y21.3765
G01 X7.9709 Y21.3648
G01 X7.9580 Y21.3593
G01 X7.9329 Y21.3503
G01 X7.9194 Y21.3464
G01 X7.8935 Y21.3402
G01 X7.8797 Y21.3377
G01 X7.8533 Y21.3344
G01 X7.8230 Y21.3329
G01 X7.7986 Y21.3338
G01 X7.7721 Y21.3364
G01 X7.7527 Y21.3394
G01 X7.7322 Y21.3440
G01 X7.7186 Y21.3477
G01 X7.6933 Y21.3560
G01 X7.6790 Y21.3617
G01 X7.6561 Y21.3723
G01 X7.6436 Y21.3788
G01 X7.6208 Y21.3925
G01 X7.3857 Y21.5500
G01 X7.1497 Y21.5970
G01 X6.5723 Y21.5970
G01 X6.3363 Y21.5500
G01 X6.1671 Y21.4369
G01 X6.1078 Y21.3483
G01 X6.0919 Y21.3265
G01 X6.0750 Y21.3063
G01 X6.0465 Y21.2780
G01 X6.0360 Y21.2690
G01 X6.0037 Y21.2451
G01 X5.9690 Y21.2249
G01 X5.9451 Y21.2138
G01 X5.9073 Y21.2002
G01 X5.8683 Y21.1908
G01 X5.8546 Y21.1885
G01 X5.8285 Y21.1857
G01 X5.8015 Y21.1845
G01 X5.4601 Y21.1845
G01 X5.4323 Y21.1857
G01 X5.4054 Y21.1887
G01 X5.3914 Y21.1911
G01 X5.3650 Y21.1972
G01 X5.3513 Y21.2011
G01 X5.3257 Y21.2100
G01 X5.3113 Y21.2160
G01 X5.2757 Y21.2341
G01 X5.2528 Y21.2485
G01 X5.2412 Y21.2568
G01 X5.2200 Y21.2737
G01 X5.1995 Y21.2925
G01 X5.1796 Y21.3124
G01 X5.1608 Y21.3328
G01 X5.1612 Y21.3332
G01 X5.1439 Y21.3540
G01 X5.1338 Y21.3684
G01 X5.1144 Y21.4010
G01 X5.1027 Y21.4254
G01 X5.0972 Y21.4386
G01 X5.0883 Y21.4641
G01 X5.0843 Y21.4778
G01 X5.0783 Y21.5042
G01 X5.0759 Y21.5182
G01 X5.0729 Y21.5451
G01 X5.0717 Y21.5729
G01 X5.0721 Y21.5864
G01 X5.0729 Y21.6007
G01 X5.0759 Y21.6276
G01 X5.0793 Y21.6470
G01 X5.0843 Y21.6680
G01 X5.0883 Y21.6817
G01 X5.0972 Y21.7073
G01 X5.1032 Y21.7217
G01 X5.1144 Y21.7448
G01 X5.1213 Y21.7573
G01 X5.1357 Y21.7802
G01 X5.1439 Y21.7918
G01 X5.1608 Y21.8130
G01 X5.1796 Y21.8335
G01 X6.6975 Y23.3513
G01 X6.7153 Y23.3679
G01 X6.7336 Y23.3829
G01 X6.7704 Y23.4086
G01 X6.8957 Y23.5960
G01 X6.9396 Y23.8170
G01 X6.9318 Y23.8613
G01 X6.9294 Y23.8848
G01 X6.9285 Y23.9091
G01 X6.9289 Y25.9042
G01 X6.9297 Y25.9185
G01 X6.9327 Y25.9454
G01 X6.9361 Y25.9648
G01 X6.9412 Y25.9858
G01 X6.9451 Y25.9995
G01 X6.9540 Y26.0251
G01 X6.9600 Y26.0395
G01 X6.9712 Y26.0626
G01 X6.9781 Y26.0751
G01 X6.9925 Y26.0980
G01 X7.0008 Y26.1096
G01 X7.0177 Y26.1308
G01 X7.0365 Y26.1513
G01 X7.8969 Y27.0111
G01 X7.9075 Y27.0206
G01 X7.9079 Y27.0202
G01 X7.9286 Y27.0375
G01 X7.9430 Y27.0477
G01 X7.9757 Y27.0670
G01 X8.0000 Y27.0788
G01 X8.0132 Y27.0842
G01 X8.0388 Y27.0932
G01 X8.0525 Y27.0971
G01 X8.0788 Y27.1031
G01 X8.0929 Y27.1055
G01 X8.1198 Y27.1086
G01 X8.1476 Y27.1097
G01 X8.1753 Y27.1086
G01 X8.2022 Y27.1055
G01 X8.2216 Y27.1022
G01 X8.2564 Y27.0932
G01 X8.2819 Y27.0842
G01 X8.2964 Y27.0782
G01 X8.3195 Y27.0670
G01 X8.3319 Y27.0601
G01 X8.3549 Y27.0457
G01 X8.3665 Y27.0375
G01 X8.3876 Y27.0206
G01 X8.3983 Y27.0111
G01 X8.4174 Y26.9920
G01 X8.4269 Y26.9813
G01 X8.4265 Y26.9810
G01 X8.4438 Y26.9602
G01 X8.4540 Y26.9458
G01 X8.4733 Y26.9132
G01 X8.4851 Y26.8888
G01 X8.4905 Y26.8756
G01 X8.4995 Y26.8501
G01 X8.5034 Y26.8364
G01 X8.5094 Y26.8100
G01 X8.5118 Y26.7959
G01 X8.5148 Y26.7690
G01 X8.5156 Y26.7548
G01 X8.5160 Y26.5773
G01 X8.5439 Y26.4370
G01 X8.6028 Y26.3488
G01 X8.6910 Y26.2899
G01 X8.8313 Y26.2620
G01 X10.3087 Y26.2620
G01 X10.4490 Y26.2899
G01 X10.5372 Y26.3488
G01 X10.5961 Y26.4370
G01 X10.6240 Y26.5773
G01 X10.6240 Y27.1048
G01 X10.6199 Y27.1311
G01 X10.6176 Y27.1577
G01 X10.6171 Y27.1791
G01 X10.6189 Y27.2123
G01 X10.6195 Y27.2123
G01 X10.6225 Y27.2387
G01 X10.6252 Y27.2525
G01 X10.6317 Y27.2784
G01 X10.6358 Y27.2918
G01 X10.6451 Y27.3167
G01 X10.6510 Y27.3304
G01 X10.6697 Y27.3656
G01 X10.6842 Y27.3879
G01 X10.6925 Y27.3992
G01 X10.7094 Y27.4198
G01 X10.7189 Y27.4302
G01 X10.7379 Y27.4488
G01 X10.7485 Y27.4580
G01 X10.7695 Y27.4744
G01 X10.7833 Y27.4839
G01 X10.8161 Y27.5031
G01 X10.8401 Y27.5145
G01 X10.8531 Y27.5197
G01 X10.8783 Y27.5284
G01 X10.8918 Y27.5322
G01 X10.9178 Y27.5381
G01 X10.9317 Y27.5404
G01 X10.9581 Y27.5433
G01 X10.9855 Y27.5445
G01 X11.2229 Y27.5445
G01 X11.2472 Y27.5436
G01 X11.2708 Y27.5412
G01 X11.3150 Y27.5334
G01 X11.5361 Y27.5773
G01 X11.7234 Y27.7026
G01 X11.7491 Y27.7394
G01 X11.7642 Y27.7577
G01 X11.7807 Y27.7755
G01 X13.5282 Y29.5225
G01 X13.5387 Y29.5319
G01 X13.5390 Y29.5314
G01 X13.5595 Y29.5485
G01 X13.5735 Y29.5585
G01 X13.5934 Y29.5709
G01 X13.6057 Y29.5777
G01 X13.6296 Y29.5894
G01 X13.6425 Y29.5949
G01 X13.6676 Y29.6039
G01 X13.6811 Y29.6079
G01 X13.7070 Y29.6140
G01 X13.7208 Y29.6165
G01 X13.7472 Y29.6198
G01 X13.7612 Y29.6207
G01 X13.7775 Y29.6212
G01 X13.8019 Y29.6204
G01 X13.8284 Y29.6178
G01 X13.8478 Y29.6147
G01 X13.8819 Y29.6065
G01 X13.9072 Y29.5981
G01 X13.9215 Y29.5925
G01 X13.9445 Y29.5819
G01 X13.9569 Y29.5754
G01 X13.9798 Y29.5617
G01 X13.9914 Y29.5538
G01 X14.0126 Y29.5377
G01 X14.0374 Y29.5155
G01 X14.0522 Y29.5000
G01 X14.0693 Y29.4796
G01 X14.0811 Y29.4636
G01 X14.1184 Y29.4376
G01 X14.1367 Y29.4226
G01 X14.1545 Y29.4061
G01 X19.4681 Y24.0925
G01 X19.4846 Y24.0747
G01 X19.4996 Y24.0564
G01 X19.5253 Y24.0196
G01 X19.7127 Y23.8943
G01 X19.9338 Y23.8504
G01 X19.9780 Y23.8582
G01 X20.0016 Y23.8606
G01 X20.0259 Y23.8615
G01 X24.5167 Y23.8615
G01 X24.5445 Y23.8603
G01 X24.5714 Y23.8573
G01 X24.5908 Y23.8539
G01 X24.6255 Y23.8449
G01 X24.6511 Y23.8360
G01 X24.6655 Y23.8300
G01 X24.7011 Y23.8119
G01 X24.7240 Y23.7975
G01 X24.7356 Y23.7892
G01 X24.7568 Y23.7723
G01 X24.7773 Y23.7535
G01 X26.0075 Y22.5233
G01 X26.0263 Y22.5028
G01 X26.0259 Y22.5024
G01 X26.0432 Y22.4816
G01 X26.0534 Y22.4672
G01 X26.0659 Y22.4471
G01 X26.0728 Y22.4346
G01 X26.0845 Y22.4102
G01 X26.0900 Y22.3971
G01 X26.0989 Y22.3715
G01 X26.1028 Y22.3578
G01 X26.1089 Y22.3314
G01 X26.1113 Y22.3174
G01 X26.1143 Y22.2905
G01 X26.1151 Y22.2762
G01 X26.1151 Y21.9817
G01 X26.1143 Y21.9675
G01 X26.1113 Y21.9406
G01 X26.1079 Y21.9212
G01 X26.0989 Y21.8864
G01 X26.0900 Y21.8609
G01 X26.0840 Y21.8464
G01 X26.0659 Y21.8109
G01 X26.0515 Y21.7879
G01 X26.0432 Y21.7763
G01 X26.0263 Y21.7552
G01 X26.0168 Y21.7445
G01 X25.6083 Y21.3354
G01 X25.4155 Y20.8699
G01 X25.4155 Y20.3661
G01 X25.6083 Y19.9006
G01 X25.9646 Y19.5443
G01 X26.4301 Y19.3515
G01 X26.9339 Y19.3515
G01 X27.3994 Y19.5443
G01 X27.7557 Y19.9006
G01 X27.9485 Y20.3661
G01 X27.9485 Y20.8699
G01 X27.7557 Y21.3354
G01 X27.3565 Y21.7347
G01 X27.3377 Y21.7552
G01 X27.3381 Y21.7555
G01 X27.3208 Y21.7763
G01 X27.3125 Y21.7879
G01 X27.2981 Y21.8109
G01 X27.2912 Y21.8233
G01 X27.2795 Y21.8477
G01 X27.2740 Y21.8609
G01 X27.2651 Y21.8864
G01 X27.2612 Y21.9001
G01 X27.2551 Y21.9265
G01 X27.2527 Y21.9406
G01 X27.2497 Y21.9675
G01 X27.2485 Y21.9952
G01 X27.2485 Y22.5579
G01 X27.2494 Y22.5822
G01 X27.2518 Y22.6058
G01 X27.2596 Y22.6500
G01 X27.2157 Y22.8711
G01 X27.0904 Y23.0584
G01 X27.0536 Y23.0841
G01 X27.0353 Y23.0992
G01 X27.0175 Y23.1157
G01 X25.3697 Y24.7635
G01 X25.3532 Y24.7813
G01 X25.3381 Y24.7996
G01 X25.3124 Y24.8364
G01 X25.1251 Y24.9617
G01 X24.9040 Y25.0056
G01 X24.8598 Y24.9978
G01 X24.8362 Y24.9954
G01 X24.8119 Y24.9945
G01 X20.3211 Y24.9945
G01 X20.2933 Y24.9957
G01 X20.2664 Y24.9987
G01 X20.2470 Y25.0021
G01 X20.2260 Y25.0072
G01 X20.2123 Y25.0111
G01 X20.1867 Y25.0200
G01 X20.1723 Y25.0260
G01 X20.1492 Y25.0372
G01 X20.1367 Y25.0441
G01 X20.1138 Y25.0585
G01 X20.1022 Y25.0668
G01 X20.0810 Y25.0837
G01 X20.0605 Y25.1025
G01 X15.3396 Y29.8234
G01 X15.3208 Y29.8438
G01 X15.3212 Y29.8442
G01 X15.3039 Y29.8650
G01 X15.2938 Y29.8794
G01 X15.2744 Y29.9120
G01 X15.2627 Y29.9364
G01 X15.2572 Y29.9496
G01 X15.2483 Y29.9751
G01 X15.2443 Y29.9888
G01 X15.2383 Y30.0152
G01 X15.2359 Y30.0293
G01 X15.2329 Y30.0562
G01 X15.2321 Y30.0704
G01 X15.2317 Y30.0839
G01 X15.2329 Y30.1117
G01 X15.2359 Y30.1386
G01 X15.2393 Y30.1580
G01 X15.2483 Y30.1927
G01 X15.2572 Y30.2183
G01 X15.2632 Y30.2327
G01 X15.2744 Y30.2558
G01 X15.2813 Y30.2683
G01 X15.2957 Y30.2912
G01 X15.3039 Y30.3028
G01 X15.3208 Y30.3240
G01 X15.3303 Y30.3346
G01 X15.3527 Y30.3575
G01 X15.3732 Y30.3763
G01 X15.3735 Y30.3759
G01 X15.3943 Y30.3932
G01 X15.4087 Y30.4034
G01 X15.4413 Y30.4228
G01 X15.4657 Y30.4345
G01 X15.4789 Y30.4400
G01 X15.5044 Y30.4489
G01 X15.5181 Y30.4528
G01 X15.5445 Y30.4589
G01 X15.5586 Y30.4613
G01 X15.5855 Y30.4643
G01 X15.6132 Y30.4655
G01 X15.9656 Y30.4651
G01 X16.0056 Y30.4615
G01 X16.0243 Y30.4583
G01 X16.0583 Y30.4498
G01 X16.0832 Y30.4413
G01 X16.0970 Y30.4358
G01 X16.1200 Y30.4251
G01 X16.1547 Y30.4049
G01 X16.1870 Y30.3810
G01 X16.2165 Y30.3538
G01 X16.2260 Y30.3437
G01 X16.2512 Y30.3125
G01 X16.3181 Y30.2131
G01 X16.4873 Y30.1000
G01 X16.7233 Y30.0530
G01 X17.3007 Y30.0530
G01 X17.5367 Y30.1000
G01 X17.7736 Y30.2588
G01 X17.8071 Y30.2777
G01 X17.8313 Y30.2888
G01 X17.8443 Y30.2940
G01 X17.8696 Y30.3023
G01 X17.8832 Y30.3060
G01 X17.9092 Y30.3115
G01 X17.9231 Y30.3136
G01 X17.9496 Y30.3162
G01 X17.9740 Y30.3171
G01 X18.0043 Y30.3156
G01 X18.0042 Y30.3150
G01 X18.0307 Y30.3123
G01 X18.0493 Y30.3089
G01 X18.0704 Y30.3036
G01 X18.0839 Y30.2997
G01 X18.1090 Y30.2907
G01 X18.1228 Y30.2848
G01 X18.1581 Y30.2667
G01 X18.1806 Y30.2524
G01 X18.1920 Y30.2443
G01 X18.2128 Y30.2277
G01 X18.2232 Y30.2183
G01 X18.3360 Y30.1060
G01 X18.4340 Y30.0655
G01 X18.5665 Y30.0655
G01 X18.5665 Y30.1214
G01 X18.5381 Y30.1328
G01 X18.5159 Y30.1433
G01 X18.4951 Y30.1545
G01 X18.4740 Y30.1671
G01 X18.4543 Y30.1802
G01 X18.4346 Y30.1949
G01 X18.4163 Y30.2099
G01 X18.3981 Y30.2264
G01 X18.3814 Y30.2431
G01 X18.3649 Y30.2613
G01 X18.3499 Y30.2796
G01 X18.3352 Y30.2993
G01 X18.3221 Y30.3190
G01 X18.3095 Y30.3401
G01 X18.2983 Y30.3609
G01 X18.2878 Y30.3831
G01 X18.2787 Y30.4050
G01 X18.2705 Y30.4281
G01 X18.2636 Y30.4508
G01 X18.2576 Y30.4746
G01 X18.2530 Y30.4978
G01 X18.2494 Y30.5221
G01 X18.2471 Y30.5456
G01 X18.2456 Y30.5820
G01 X18.2456 Y31.4820
G01 X18.2471 Y31.5184
G01 X18.2494 Y31.5419
G01 X18.2530 Y31.5662
G01 X18.2538 Y31.5661
G01 X18.2576 Y31.5894
G01 X18.2636 Y31.6132
G01 X18.2705 Y31.6359
G01 X18.2787 Y31.6590
G01 X18.2878 Y31.6809
G01 X18.2983 Y31.7031
G01 X18.3095 Y31.7239
G01 X18.3221 Y31.7450
G01 X18.3352 Y31.7647
G01 X18.3499 Y31.7844
G01 X18.3649 Y31.8027
G01 X18.3814 Y31.8209
G01 X18.3981 Y31.8376
G01 X18.4163 Y31.8541
G01 X18.4346 Y31.8691
G01 X18.4559 Y31.8849
G01 X18.4740 Y31.8969
G01 X18.4951 Y31.9095
G01 X18.5159 Y31.9207
G01 X18.5381 Y31.9312
G01 X18.5665 Y31.9426
G01 X18.5665 Y32.1534
G01 X18.5381 Y32.1648
G01 X18.5159 Y32.1753
G01 X18.4951 Y32.1865
G01 X18.4740 Y32.1991
G01 X18.4543 Y32.2122
G01 X18.4346 Y32.2269
G01 X18.4163 Y32.2419
G01 X18.3981 Y32.2584
G01 X18.3814 Y32.2751
G01 X18.3649 Y32.2933
G01 X18.3499 Y32.3116
G01 X18.3352 Y32.3313
G01 X18.3221 Y32.3510
G01 X18.3095 Y32.3721
G01 X18.2983 Y32.3929
G01 X18.2878 Y32.4151
G01 X18.2787 Y32.4370
G01 X18.2705 Y32.4601
G01 X18.2636 Y32.4828
G01 X18.2576 Y32.5066
G01 X18.2530 Y32.5298
G01 X18.2494 Y32.5541
G01 X18.2471 Y32.5776
G01 X18.2456 Y32.6140
G01 X18.2456 Y33.5140
G01 X18.2471 Y33.5504
G01 X18.2494 Y33.5739
G01 X18.2530 Y33.5982
G01 X18.2538 Y33.5981
G01 X18.2576 Y33.6214
G01 X18.2636 Y33.6452
G01 X18.2705 Y33.6679
G01 X18.2787 Y33.6910
G01 X18.2878 Y33.7129
G01 X18.2983 Y33.7351
G01 X18.3095 Y33.7559
G01 X18.3221 Y33.7770
G01 X18.3352 Y33.7967
G01 X18.3499 Y33.8164
G01 X18.3649 Y33.8347
G01 X18.3814 Y33.8529
G01 X18.3981 Y33.8696
G01 X18.4163 Y33.8861
G01 X18.4346 Y33.9011
G01 X18.4559 Y33.9169
G01 X18.4740 Y33.9289
G01 X18.4951 Y33.9415
G01 X18.5159 Y33.9527
G01 X18.5381 Y33.9632
G01 X18.5665 Y33.9746
G01 X18.5665 Y34.0305
G01 X18.4340 Y34.0305
G01 X18.3360 Y33.9900
G01 X18.2232 Y33.8777
G01 X18.2128 Y33.8683
G01 X18.2124 Y33.8688
G01 X18.1920 Y33.8517
G01 X18.1780 Y33.8417
G01 X18.1581 Y33.8293
G01 X18.1458 Y33.8225
G01 X18.1219 Y33.8108
G01 X18.1090 Y33.8053
G01 X18.0839 Y33.7963
G01 X18.0704 Y33.7924
G01 X18.0445 Y33.7862
G01 X18.0307 Y33.7837
G01 X18.0043 Y33.7804
G01 X17.9740 Y33.7789
G01 X17.9496 Y33.7798
G01 X17.9231 Y33.7824
G01 X17.9037 Y33.7854
G01 X17.8832 Y33.7900
G01 X17.8696 Y33.7937
G01 X17.8443 Y33.8020
G01 X17.8300 Y33.8077
G01 X17.8071 Y33.8183
G01 X17.7946 Y33.8248
G01 X17.7718 Y33.8385
G01 X17.5367 Y33.9960
G01 X17.3007 Y34.0430
G01 X16.7233 Y34.0430
G01 X16.4873 Y33.9960
G01 X16.3181 Y33.8829
G01 X16.2246 Y33.7430
G01 X16.2082 Y33.7206
G01 X16.1907 Y33.6999
G01 X16.1762 Y33.6847
G01 X16.1504 Y33.6618
G01 X16.1287 Y33.6455
G01 X16.1150 Y33.6363
G01 X16.0936 Y33.6238
G01 X16.0670 Y33.6111
G01 X15.8596 Y33.4724
G01 X15.8339 Y33.4356
G01 X15.8188 Y33.4173
G01 X15.8023 Y33.3995
G01 X15.0633 Y32.6605
G01 X15.0428 Y32.6417
G01 X15.0424 Y32.6421
G01 X15.0216 Y32.6248
G01 X15.0072 Y32.6146
G01 X14.9871 Y32.6021
G01 X14.9746 Y32.5952
G01 X14.9502 Y32.5835
G01 X14.9371 Y32.5780
G01 X14.9115 Y32.5691
G01 X14.8978 Y32.5652
G01 X14.8714 Y32.5591
G01 X14.8574 Y32.5567
G01 X14.8305 Y32.5537
G01 X14.8027 Y32.5525
G01 X14.2381 Y32.5525
G01 X13.7726 Y32.3597
G01 X13.3635 Y31.9512
G01 X13.3528 Y31.9417
G01 X13.3525 Y31.9421
G01 X13.3317 Y31.9248
G01 X13.3173 Y31.9146
G01 X13.2847 Y31.8952
G01 X13.2603 Y31.8835
G01 X13.2471 Y31.8780
G01 X13.2216 Y31.8691
G01 X13.2079 Y31.8652
G01 X13.1815 Y31.8591
G01 X13.1674 Y31.8567
G01 X13.1405 Y31.8537
G01 X13.1263 Y31.8529
G01 X12.9302 Y31.8528
G01 X12.8942 Y31.8558
G01 X12.8500 Y31.8636
G01 X12.6289 Y31.8197
G01 X12.4416 Y31.6944
G01 X12.4159 Y31.6576
G01 X12.4008 Y31.6393
G01 X12.3843 Y31.6215
G01 X11.2431 Y30.4809
G01 X11.2325 Y30.4714
G01 X11.2321 Y30.4718
G01 X11.2114 Y30.4545
G01 X11.1970 Y30.4443
G01 X11.1768 Y30.4319
G01 X11.1643 Y30.4250
G01 X11.1400 Y30.4132
G01 X11.1268 Y30.4078
G01 X11.1012 Y30.3988
G01 X11.0875 Y30.3949
G01 X11.0612 Y30.3889
G01 X11.0471 Y30.3865
G01 X11.0202 Y30.3834
G01 X10.9924 Y30.3823
G01 X10.9647 Y30.3834
G01 X10.9378 Y30.3865
G01 X10.9184 Y30.3898
G01 X10.8836 Y30.3988
G01 X10.8581 Y30.4078
G01 X10.8436 Y30.4138
G01 X10.8205 Y30.4250
G01 X10.8081 Y30.4319
G01 X10.7851 Y30.4463
G01 X10.7735 Y30.4545
G01 X10.7524 Y30.4714
G01 X10.7417 Y30.4809
G01 X10.7226 Y30.5000
G01 X10.7131 Y30.5107
G01 X10.7135 Y30.5110
G01 X10.6962 Y30.5318
G01 X10.6860 Y30.5462
G01 X10.6736 Y30.5664
G01 X10.6667 Y30.5788
G01 X10.6549 Y30.6032
G01 X10.6495 Y30.6164
G01 X10.6405 Y30.6419
G01 X10.6366 Y30.6556
G01 X10.6306 Y30.6820
G01 X10.6282 Y30.6961
G01 X10.6252 Y30.7230
G01 X10.6244 Y30.7372
G01 X10.6240 Y30.9147
G01 X10.5961 Y31.0550
G01 X10.5372 Y31.1432
G01 X10.4490 Y31.2021
G01 X10.3087 Y31.2300
G01 X9.5586 Y31.2300
G01 X9.5316 Y31.2311
G01 X9.5055 Y31.2340
G01 X9.4868 Y31.2371
G01 X9.4661 Y31.2419
G01 X9.4278 Y31.2541
G01 X9.4141 Y31.2596
G01 X9.3789 Y31.2769
G01 X9.3564 Y31.2906
G01 X9.3241 Y31.3144
G01 X9.3136 Y31.3234
G01 X9.2851 Y31.3517
G01 X9.2599 Y31.3830
G01 X9.2453 Y31.4049
G01 X9.2260 Y31.4401
G01 X9.2108 Y31.4773
G01 X9.2065 Y31.4905
G01 X9.1968 Y31.5294
G01 X9.1928 Y31.5555
G01 X9.1903 Y31.5929
G01 X9.1905 Y31.6094
G01 X9.1922 Y31.6356
G01 X9.1946 Y31.6553
G01 X9.1984 Y31.6753
G01 X9.2089 Y31.7141
G01 X9.2135 Y31.7272
G01 X9.2142 Y31.7269
G01 X9.2182 Y31.7394
G01 X9.2445 Y31.8030
G01 X9.2445 Y32.0144
G01 X9.2100 Y32.0144
G01 X9.2074 Y31.9986
G01 X9.2014 Y31.9748
G01 X9.1945 Y31.9521
G01 X9.1863 Y31.9290
G01 X9.1772 Y31.9071
G01 X9.1667 Y31.8849
G01 X9.1555 Y31.8641
G01 X9.1429 Y31.8430
G01 X9.1298 Y31.8233
G01 X9.1151 Y31.8036
G01 X9.1001 Y31.7853
G01 X9.0836 Y31.7671
G01 X9.0669 Y31.7504
G01 X9.0487 Y31.7339
G01 X9.0304 Y31.7189
G01 X9.0091 Y31.7031
G01 X8.9910 Y31.6911
G01 X8.9699 Y31.6785
G01 X8.9491 Y31.6673
G01 X8.9269 Y31.6568
G01 X8.9050 Y31.6477
G01 X8.8819 Y31.6395
G01 X8.8592 Y31.6326
G01 X8.8354 Y31.6266
G01 X8.8122 Y31.6220
G01 X8.7879 Y31.6184
G01 X8.7644 Y31.6161
G01 X8.7398 Y31.6149
G01 X8.5589 Y31.6146
G01 X8.5722 Y31.5987
G01 X8.5824 Y31.5843
G01 X8.6018 Y31.5516
G01 X8.6135 Y31.5273
G01 X8.6190 Y31.5141
G01 X8.6279 Y31.4885
G01 X8.6318 Y31.4749
G01 X8.6379 Y31.4485
G01 X8.6403 Y31.4344
G01 X8.6433 Y31.4075
G01 X8.6445 Y31.3797
G01 X8.6440 Y31.3030
G01 X8.6432 Y31.2881
G01 X8.6398 Y31.2599
G01 X8.6360 Y31.2392
G01 X8.6262 Y31.2032
G01 X8.6164 Y31.1765
G01 X8.6096 Y31.1610
G01 X8.5975 Y31.1375
G01 X8.5899 Y31.1246
G01 X8.5439 Y31.0550
G01 X8.5160 Y30.9147
G01 X8.5160 Y30.3873
G01 X8.5439 Y30.2470
G01 X8.5684 Y30.2098
G01 X8.5873 Y30.1752
G01 X8.6024 Y30.1388
G01 X8.6067 Y30.1259
G01 X8.6136 Y30.1009
G01 X8.6206 Y30.0621
G01 X8.6234 Y30.0228
G01 X8.6234 Y30.0092
G01 X8.6206 Y29.9699
G01 X8.6199 Y29.9699
G01 X8.6164 Y29.9444
G01 X8.6067 Y29.9061
G01 X8.6020 Y29.8920
G01 X8.5873 Y29.8568
G01 X8.5684 Y29.8222
G01 X8.5439 Y29.7850
G01 X8.5160 Y29.6447
G01 X8.5160 Y29.1155
G01 X8.5182 Y29.1003
G01 X8.5205 Y29.0733
G01 X8.5210 Y29.0523
G01 X8.5189 Y29.0178
G01 X8.5183 Y29.0179
G01 X8.5151 Y28.9910
G01 X8.5114 Y28.9725
G01 X8.5013 Y28.9373
G01 X8.4916 Y28.9120
G01 X8.4854 Y28.8981
G01 X8.4661 Y28.8626
G01 X8.4511 Y28.8401
G01 X8.4425 Y28.8287
G01 X8.4251 Y28.8081
G01 X8.4153 Y28.7977
G01 X8.3956 Y28.7791
G01 X8.3847 Y28.7699
G01 X8.3631 Y28.7536
G01 X8.3512 Y28.7457
G01 X8.3279 Y28.7320
G01 X8.3153 Y28.7254
G01 X8.2905 Y28.7144
G01 X8.2732 Y28.7078
G01 X8.2376 Y28.6975
G01 X7.9739 Y28.6447
G01 X7.7866 Y28.5194
G01 X7.7609 Y28.4826
G01 X7.7458 Y28.4643
G01 X7.7293 Y28.4465
G01 X6.0265 Y26.7437
G01 X6.0087 Y26.7272
G01 X5.9904 Y26.7121
G01 X5.9536 Y26.6864
G01 X5.7844 Y26.4339
G01 X5.7760 Y26.4227
G01 X5.7588 Y26.4023
G01 X5.7440 Y26.3868
G01 X5.7299 Y26.3737
G01 X5.7111 Y26.3585
G01 X5.7232 Y26.3439
G01 X5.7315 Y26.3323
G01 X5.7459 Y26.3093
G01 X5.7528 Y26.2969
G01 X5.7645 Y26.2725
G01 X5.7700 Y26.2593
G01 X5.7789 Y26.2338
G01 X5.7828 Y26.2201
G01 X5.7889 Y26.1937
G01 X5.7913 Y26.1796
G01 X5.7943 Y26.1527
G01 X5.7955 Y26.1250
G01 X5.7955 Y24.2043
G01 X5.7943 Y24.1766
G01 X5.7913 Y24.1497
G01 X5.7879 Y24.1303
G01 X5.7789 Y24.0955
G01 X5.7700 Y24.0700
G01 X5.7645 Y24.0568
G01 X5.7528 Y24.0324
G01 X5.7459 Y24.0200
G01 X5.7315 Y23.9970
G01 X5.7232 Y23.9854
G01 X5.7063 Y23.9643
G01 X5.6875 Y23.9438
G01 X3.9945 Y22.2508
G01 X3.9767 Y22.2342
G01 X3.9584 Y22.2192
G01 X3.9216 Y22.1935
G01 X3.7963 Y22.0061
G01 X3.7516 Y21.7814
G01 X3.7537 Y21.7579
G01 X3.7543 Y21.7362
G01 X3.7525 Y21.7039
G01 X3.7520 Y21.7040
G01 X3.7491 Y21.6778
G01 X3.7457 Y21.6598
G01 X3.7363 Y21.6254
G01 X3.7273 Y21.6007
G01 X3.7218 Y21.5879
G01 X3.7102 Y21.5643
G00 Z2.0000
G00 X3.5780 Y21.6493
G01 F350.00
G01 Z-0.1306
G01 F400.00
G01 X3.5739 Y21.6410
G01 X3.5621 Y21.6211
G01 X3.5482 Y21.6027
G01 X3.5358 Y21.5890
G01 X3.1237 Y21.1769
G01 X2.9071 Y20.6539
G01 X2.9071 Y20.0878
G01 X3.1237 Y19.5648
G01 X3.5240 Y19.1645
G01 X4.0470 Y18.9479
G01 X4.6130 Y18.9479
G01 X5.1360 Y19.1645
G01 X5.5363 Y19.5648
G01 X5.6158 Y19.7562
G01 X5.6267 Y19.7777
G01 X5.6344 Y19.7899
G01 X5.6400 Y19.7978
G01 X5.6552 Y19.8159
G01 X5.6730 Y19.8327
G01 X5.6859 Y19.8428
G01 X5.7131 Y19.8594
G01 X5.7351 Y19.8691
G01 X5.7581 Y19.8763
G01 X5.7818 Y19.8808
G01 X5.7961 Y19.8822
G01 X5.8058 Y19.8826
G01 X5.8298 Y19.8817
G01 X5.8462 Y19.8795
G01 X5.8677 Y19.8746
G01 X5.8769 Y19.8717
G01 X5.8993 Y19.8628
G01 X5.9205 Y19.8514
G01 X5.9325 Y19.8435
G01 X5.9568 Y19.8234
G01 X5.9745 Y19.8040
G01 X5.9860 Y19.7885
G01 X6.0543 Y19.6863
G01 X6.2753 Y19.5386
G01 X6.5569 Y19.4826
G01 X7.1651 Y19.4826
G01 X7.4467 Y19.5386
G01 X7.7165 Y19.7188
G01 X7.7374 Y19.7293
G01 X7.7594 Y19.7373
G01 X7.7729 Y19.7410
G01 X7.7960 Y19.7451
G01 X7.8230 Y19.7467
G01 X7.8520 Y19.7444
G01 X7.8749 Y19.7397
G01 X7.8972 Y19.7326
G01 X7.9105 Y19.7270
G01 X7.9308 Y19.7162
G01 X7.9501 Y19.7030
G01 X7.9679 Y19.6878
G01 X8.0964 Y19.5595
G01 X8.2519 Y19.4951
G01 X8.5374 Y19.4951
G01 X8.5719 Y19.5296
G01 X8.5719 Y19.8336
G01 X8.5490 Y19.8351
G01 X8.5166 Y19.8404
G01 X8.4928 Y19.8463
G01 X8.4617 Y19.8570
G01 X8.4318 Y19.8707
G01 X8.4034 Y19.8872
G01 X8.3703 Y19.9118
G01 X8.3462 Y19.9341
G01 X8.3245 Y19.9588
G01 X8.3094 Y19.9790
G01 X8.2926 Y20.0065
G01 X8.2782 Y20.0360
G01 X8.2667 Y20.0668
G01 X8.2567 Y20.1068
G01 X8.2523 Y20.1393
G01 X8.2510 Y20.1680
G01 X8.2510 Y21.0680
G01 X8.2523 Y21.0967
G01 X8.2567 Y21.1292
G01 X8.2643 Y21.1612
G01 X8.2750 Y21.1923
G01 X8.2887 Y21.2222
G01 X8.3052 Y21.2506
G01 X8.3245 Y21.2772
G01 X8.3462 Y21.3019
G01 X8.3703 Y21.3242
G01 X8.3970 Y21.3446
G01 X8.4245 Y21.3614
G01 X8.4540 Y21.3758
G01 X8.4848 Y21.3873
G01 X8.5166 Y21.3956
G01 X8.5490 Y21.4009
G01 X8.5719 Y21.4024
G01 X8.5719 Y21.7064
G01 X8.5374 Y21.7409
G01 X8.2519 Y21.7409
G01 X8.0964 Y21.6765
G01 X7.9679 Y21.5482
G01 X7.9501 Y21.5330
G01 X7.9308 Y21.5198
G01 X7.9101 Y21.5089
G01 X7.8972 Y21.5034
G01 X7.8749 Y21.4963
G01 X7.8520 Y21.4916
G01 X7.8230 Y21.4893
G01 X7.7960 Y21.4909
G01 X7.7729 Y21.4950
G01 X7.7505 Y21.5016
G01 X7.7374 Y21.5067
G01 X7.7165 Y21.5172
G01 X7.4467 Y21.6974
G01 X7.1651 Y21.7534
G01 X6.5569 Y21.7534
G01 X6.2753 Y21.6974
G01 X6.0543 Y21.5497
G01 X5.9751 Y21.4314
G01 X5.9608 Y21.4132
G01 X5.9447 Y21.3967
G01 X5.9342 Y21.3877
G01 X5.9147 Y21.3738
G01 X5.8868 Y21.3590
G01 X5.8652 Y21.3508
G01 X5.8519 Y21.3471
G01 X5.8291 Y21.3428
G01 X5.8199 Y21.3418
G01 X5.8015 Y21.3409
G01 X5.4601 Y21.3409
G01 X5.4316 Y21.3429
G01 X5.4157 Y21.3457
G01 X5.3946 Y21.3514
G01 X5.3720 Y21.3602
G01 X5.3513 Y21.3710
G01 X5.3433 Y21.3761
G01 X5.3242 Y21.3903
G01 X5.3101 Y21.4030
G01 X5.2869 Y21.4264
G01 X5.2715 Y21.4445
G01 X5.2632 Y21.4561
G01 X5.2513 Y21.4767
G01 X5.2417 Y21.4984
G01 X5.2385 Y21.5074
G01 X5.2325 Y21.5304
G01 X5.2290 Y21.5539
G01 X5.2282 Y21.5777
G01 X5.2301 Y21.6014
G01 X5.2325 Y21.6154
G01 X5.2385 Y21.6384
G01 X5.2473 Y21.6610
G01 X5.2582 Y21.6816
G01 X5.2715 Y21.7013
G01 X5.2869 Y21.7194
G01 X6.8081 Y23.2407
G01 X6.8203 Y23.2520
G01 X6.8368 Y23.2647
G01 X6.8832 Y23.2958
G01 X7.0430 Y23.5350
G01 X7.0991 Y23.8170
G01 X7.0883 Y23.8719
G01 X7.0857 Y23.8925
G01 X7.0849 Y23.9091
G01 X7.0849 Y25.8907
G01 X7.0869 Y25.9192
G01 X7.0914 Y25.9425
G01 X7.0985 Y25.9652
G01 X7.1081 Y25.9870
G01 X7.1201 Y26.0075
G01 X7.1283 Y26.0191
G01 X7.1470 Y26.0407
G01 X8.0011 Y26.8945
G01 X8.0192 Y26.9099
G01 X8.0317 Y26.9189
G01 X8.0599 Y26.9343
G01 X8.0821 Y26.9429
G01 X8.1050 Y26.9489
G01 X8.1286 Y26.9524
G01 X8.1428 Y26.9532
G01 X8.1666 Y26.9524
G01 X8.1760 Y26.9513
G01 X8.1994 Y26.9468
G01 X8.2221 Y26.9397
G01 X8.2357 Y26.9341
G01 X8.2563 Y26.9233
G01 X8.2760 Y26.9099
G01 X8.2834 Y26.9040
G01 X8.3008 Y26.8878
G01 X8.3162 Y26.8697
G01 X8.3295 Y26.8500
G01 X8.3406 Y26.8289
G01 X8.3492 Y26.8068
G01 X8.3552 Y26.7838
G01 X8.3576 Y26.7697
G01 X8.3596 Y26.7413
G01 X8.3596 Y26.5619
G01 X8.3966 Y26.3760
G01 X8.4901 Y26.2361
G01 X8.6300 Y26.1426
G01 X8.8159 Y26.1056
G01 X10.3241 Y26.1056
G01 X10.5100 Y26.1426
G01 X10.6499 Y26.2361
G01 X10.7434 Y26.3760
G01 X10.7804 Y26.5619
G01 X10.7804 Y27.1201
G01 X10.7767 Y27.1393
G01 X10.7739 Y27.1625
G01 X10.7735 Y27.1791
G01 X10.7748 Y27.1999
G01 X10.7788 Y27.2229
G01 X10.7810 Y27.2320
G01 X10.7885 Y27.2542
G01 X10.7942 Y27.2674
G01 X10.8053 Y27.2876
G01 X10.8104 Y27.2955
G01 X10.8246 Y27.3141
G01 X10.8341 Y27.3244
G01 X10.8408 Y27.3310
G01 X10.8588 Y27.3460
G01 X10.8711 Y27.3545
G01 X10.8906 Y27.3656
G01 X10.8991 Y27.3696
G01 X10.9210 Y27.3779
G01 X10.9436 Y27.3838
G01 X10.9575 Y27.3861
G01 X10.9855 Y27.3881
G01 X11.2271 Y27.3880
G01 X11.2478 Y27.3865
G01 X11.2602 Y27.3847
G01 X11.3150 Y27.3739
G01 X11.5971 Y27.4300
G01 X11.8362 Y27.5898
G01 X11.8673 Y27.6362
G01 X11.8801 Y27.6527
G01 X11.8913 Y27.6649
G01 X13.6291 Y29.4027
G01 X13.6430 Y29.4153
G01 X13.6627 Y29.4300
G01 X13.6819 Y29.4412
G01 X13.7033 Y29.4508
G01 X13.7256 Y29.4579
G01 X13.7485 Y29.4626
G01 X13.7718 Y29.4647
G01 X13.7952 Y29.4642
G01 X13.8203 Y29.4608
G01 X13.8500 Y29.4526
G01 X13.8716 Y29.4435
G01 X13.8921 Y29.4322
G01 X13.9037 Y29.4243
G01 X13.9218 Y29.4095
G01 X13.9382 Y29.3928
G01 X13.9527 Y29.3744
G01 X13.9688 Y29.3506
G01 X14.0152 Y29.3195
G01 X14.0317 Y29.3067
G01 X14.0439 Y29.2955
G01 X19.3575 Y23.9819
G01 X19.3687 Y23.9697
G01 X19.3814 Y23.9532
G01 X19.4126 Y23.9068
G01 X19.6517 Y23.7470
G01 X19.9338 Y23.6909
G01 X19.9886 Y23.7017
G01 X20.0092 Y23.7043
G01 X20.0259 Y23.7051
G01 X24.5167 Y23.7051
G01 X24.5357 Y23.7041
G01 X24.5611 Y23.7003
G01 X24.5912 Y23.6915
G01 X24.6048 Y23.6858
G01 X24.6254 Y23.6750
G01 X24.6451 Y23.6617
G01 X24.6526 Y23.6557
G01 X24.6667 Y23.6430
G01 X25.8970 Y22.4127
G01 X25.9157 Y22.3911
G01 X25.9290 Y22.3714
G01 X25.9400 Y22.3504
G01 X25.9486 Y22.3282
G01 X25.9547 Y22.3052
G01 X25.9571 Y22.2912
G01 X25.9589 Y22.2675
G01 X25.9591 Y21.9952
G01 X25.9581 Y21.9762
G01 X25.9543 Y21.9508
G01 X25.9486 Y21.9297
G01 X25.9398 Y21.9071
G01 X25.9290 Y21.8865
G01 X25.9239 Y21.8785
G01 X25.9097 Y21.8594
G01 X25.8970 Y21.8453
G01 X25.4757 Y21.4240
G01 X25.2591 Y20.9010
G01 X25.2591 Y20.3350
G01 X25.4757 Y19.8120
G01 X25.8760 Y19.4117
G01 X26.3990 Y19.1951
G01 X26.9650 Y19.1951
G01 X27.4880 Y19.4117
G01 X27.8883 Y19.8120
G01 X28.1049 Y20.3350
G01 X28.1049 Y20.9010
G01 X27.8883 Y21.4240
G01 X27.4638 Y21.8488
G01 X27.4483 Y21.8668
G01 X27.4350 Y21.8865
G01 X27.4240 Y21.9076
G01 X27.4185 Y21.9207
G01 X27.4114 Y21.9434
G01 X27.4069 Y21.9668
G01 X27.4049 Y21.9952
G01 X27.4049 Y22.5579
G01 X27.4057 Y22.5745
G01 X27.4083 Y22.5952
G01 X27.4191 Y22.6500
G01 X27.3630 Y22.9321
G01 X27.2032 Y23.1712
G01 X27.1568 Y23.2023
G01 X27.1403 Y23.2151
G01 X27.1281 Y23.2263
G01 X25.4803 Y24.8741
G01 X25.4691 Y24.8863
G01 X25.4563 Y24.9028
G01 X25.4252 Y24.9492
G01 X25.1861 Y25.1090
G01 X24.9040 Y25.1651
G01 X24.8492 Y25.1543
G01 X24.8285 Y25.1517
G01 X24.8119 Y25.1509
G01 X20.3211 Y25.1509
G01 X20.2926 Y25.1529
G01 X20.2693 Y25.1574
G01 X20.2466 Y25.1645
G01 X20.2248 Y25.1741
G01 X20.2043 Y25.1861
G01 X20.1927 Y25.1943
G01 X20.1711 Y25.2130
G01 X15.4502 Y29.9340
G01 X15.4374 Y29.9481
G01 X15.4226 Y29.9681
G01 X15.4113 Y29.9877
G01 X15.4017 Y30.0094
G01 X15.3946 Y30.0321
G01 X15.3901 Y30.0555
G01 X15.3882 Y30.0792
G01 X15.3882 Y30.0887
G01 X15.3901 Y30.1124
G01 X15.3946 Y30.1357
G01 X15.4017 Y30.1584
G01 X15.4073 Y30.1720
G01 X15.4182 Y30.1926
G01 X15.4315 Y30.2123
G01 X15.4469 Y30.2304
G01 X15.4668 Y30.2502
G01 X15.4848 Y30.2657
G01 X15.4974 Y30.2746
G01 X15.5256 Y30.2900
G01 X15.5477 Y30.2986
G01 X15.5707 Y30.3047
G01 X15.5942 Y30.3081
G01 X15.6132 Y30.3091
G01 X15.9525 Y30.3091
G01 X15.9801 Y30.3072
G01 X15.9956 Y30.3046
G01 X16.0162 Y30.2992
G01 X16.0250 Y30.2962
G01 X16.0462 Y30.2871
G01 X16.0664 Y30.2758
G01 X16.0778 Y30.2680
G01 X16.0852 Y30.2623
G01 X16.1024 Y30.2469
G01 X16.1178 Y30.2297
G01 X16.1288 Y30.2148
G01 X16.2053 Y30.1003
G01 X16.4263 Y29.9526
G01 X16.7079 Y29.8966
G01 X17.3161 Y29.8966
G01 X17.5977 Y29.9526
G01 X17.8675 Y30.1328
G01 X17.8884 Y30.1433
G01 X17.9104 Y30.1513
G01 X17.9239 Y30.1550
G01 X17.9470 Y30.1591
G01 X17.9703 Y30.1606
G01 X17.9937 Y30.1595
G01 X18.0030 Y30.1584
G01 X18.0259 Y30.1537
G01 X18.0482 Y30.1466
G01 X18.0615 Y30.1410
G01 X18.0818 Y30.1302
G01 X18.1011 Y30.1170
G01 X18.1189 Y30.1018
G01 X18.2474 Y29.9735
G01 X18.4029 Y29.9091
G01 X18.6884 Y29.9091
G01 X18.7229 Y29.9436
G01 X18.7229 Y30.2476
G01 X18.7000 Y30.2491
G01 X18.6676 Y30.2544
G01 X18.6358 Y30.2627
G01 X18.6050 Y30.2742
G01 X18.5755 Y30.2886
G01 X18.5475 Y30.3059
G01 X18.5213 Y30.3258
G01 X18.4972 Y30.3481
G01 X18.4755 Y30.3728
G01 X18.4562 Y30.3994
G01 X18.4397 Y30.4278
G01 X18.4260 Y30.4577
G01 X18.4153 Y30.4888
G01 X18.4077 Y30.5208
G01 X18.4033 Y30.5533
G01 X18.4020 Y30.5820
G01 X18.4020 Y31.4820
G01 X18.4041 Y31.5190
G01 X18.4094 Y31.5514
G01 X18.4153 Y31.5752
G01 X18.4292 Y31.6140
G01 X18.4436 Y31.6435
G01 X18.4609 Y31.6715
G01 X18.4755 Y31.6912
G01 X18.4972 Y31.7159
G01 X18.5278 Y31.7435
G01 X18.5480 Y31.7586
G01 X18.5755 Y31.7754
G01 X18.6127 Y31.7930
G01 X18.6438 Y31.8037
G01 X18.6676 Y31.8096
G01 X18.7000 Y31.8149
G01 X18.7229 Y31.8164
G01 X18.7229 Y32.2796
G01 X18.7000 Y32.2811
G01 X18.6676 Y32.2864
G01 X18.6438 Y32.2923
G01 X18.6127 Y32.3030
G01 X18.5828 Y32.3167
G01 X18.5544 Y32.3332
G01 X18.5213 Y32.3578
G01 X18.4972 Y32.3801
G01 X18.4755 Y32.4048
G01 X18.4604 Y32.4250
G01 X18.4436 Y32.4525
G01 X18.4292 Y32.4820
G01 X18.4177 Y32.5128
G01 X18.4077 Y32.5528
G01 X18.4033 Y32.5853
G01 X18.4020 Y32.6140
G01 X18.4020 Y33.5140
G01 X18.4033 Y33.5427
G01 X18.4077 Y33.5752
G01 X18.4153 Y33.6072
G01 X18.4292 Y33.6460
G01 X18.4436 Y33.6755
G01 X18.4609 Y33.7035
G01 X18.4808 Y33.7297
G01 X18.5031 Y33.7538
G01 X18.5278 Y33.7755
G01 X18.5480 Y33.7906
G01 X18.5755 Y33.8074
G01 X18.6050 Y33.8218
G01 X18.6358 Y33.8333
G01 X18.6676 Y33.8416
G01 X18.7000 Y33.8469
G01 X18.7229 Y33.8484
G01 X18.7229 Y34.1524
G01 X18.6884 Y34.1869
G01 X18.4029 Y34.1869
G01 X18.2474 Y34.1225
G01 X18.1189 Y33.9942
G01 X18.1011 Y33.9790
G01 X18.0818 Y33.9658
G01 X18.0611 Y33.9549
G01 X18.0482 Y33.9494
G01 X18.0259 Y33.9423
G01 X18.0030 Y33.9376
G01 X17.9740 Y33.9353
G01 X17.9470 Y33.9369
G01 X17.9239 Y33.9410
G01 X17.9015 Y33.9476
G01 X17.8884 Y33.9527
G01 X17.8675 Y33.9632
G01 X17.5977 Y34.1434
G01 X17.3161 Y34.1994
G01 X16.7079 Y34.1994
G01 X16.4263 Y34.1434
G01 X16.2053 Y33.9957
G01 X16.0918 Y33.8260
G01 X16.0771 Y33.8074
G01 X16.0656 Y33.7953
G01 X16.0495 Y33.7813
G01 X16.0418 Y33.7755
G01 X16.0218 Y33.7628
G01 X16.0091 Y33.7562
G01 X15.9923 Y33.7492
G01 X15.7468 Y33.5852
G01 X15.7157 Y33.5388
G01 X15.7029 Y33.5223
G01 X15.6917 Y33.5101
G01 X14.9527 Y32.7710
G01 X14.9311 Y32.7523
G01 X14.9114 Y32.7390
G01 X14.8904 Y32.7280
G01 X14.8682 Y32.7194
G01 X14.8452 Y32.7133
G01 X14.8217 Y32.7099
G01 X14.8075 Y32.7091
G01 X14.2070 Y32.7089
G01 X13.6840 Y32.4923
G01 X13.2627 Y32.0710
G01 X13.2486 Y32.0583
G01 X13.2286 Y32.0434
G01 X13.2004 Y32.0280
G01 X13.1783 Y32.0194
G01 X13.1553 Y32.0133
G01 X13.1318 Y32.0099
G01 X13.1128 Y32.0089
G01 X12.9421 Y32.0089
G01 X12.9255 Y32.0097
G01 X12.9007 Y32.0130
G01 X12.8500 Y32.0231
G01 X12.5679 Y31.9670
G01 X12.3288 Y31.8072
G01 X12.2977 Y31.7608
G01 X12.2849 Y31.7443
G01 X12.2737 Y31.7321
G01 X11.1424 Y30.6008
G01 X11.1208 Y30.5821
G01 X11.1012 Y30.5687
G01 X11.0801 Y30.5577
G01 X11.0669 Y30.5523
G01 X11.0442 Y30.5452
G01 X11.0350 Y30.5431
G01 X11.0114 Y30.5396
G01 X10.9877 Y30.5388
G01 X10.9640 Y30.5407
G01 X10.9480 Y30.5434
G01 X10.9179 Y30.5523
G01 X10.9043 Y30.5579
G01 X10.8837 Y30.5687
G01 X10.8640 Y30.5821
G01 X10.8566 Y30.5880
G01 X10.8460 Y30.5975
G01 X10.8297 Y30.6149
G01 X10.8148 Y30.6349
G01 X10.8036 Y30.6545
G01 X10.7940 Y30.6762
G01 X10.7869 Y30.6989
G01 X10.7824 Y30.7223
G01 X10.7804 Y30.7507
G01 X10.7804 Y30.9301
G01 X10.7434 Y31.1160
G01 X10.6499 Y31.2559
G01 X10.5100 Y31.3494
G01 X10.3241 Y31.3864
G01 X9.5586 Y31.3864
G01 X9.5402 Y31.3873
G01 X9.5310 Y31.3883
G01 X9.5082 Y31.3925
G01 X9.4861 Y31.3992
G01 X9.4729 Y31.4045
G01 X9.4526 Y31.4148
G01 X9.4333 Y31.4275
G01 X9.4259 Y31.4331
G01 X9.4087 Y31.4485
G01 X9.3933 Y31.4658
G01 X9.3842 Y31.4779
G01 X9.3728 Y31.4965
G01 X9.3628 Y31.5173
G01 X9.3594 Y31.5259
G01 X9.3527 Y31.5481
G01 X9.3485 Y31.5708
G01 X9.3467 Y31.5929
G01 X9.3475 Y31.6169
G01 X9.3494 Y31.6327
G01 X9.3565 Y31.6622
G01 X9.3627 Y31.6796
G01 X9.4009 Y31.7719
G01 X9.4009 Y32.1708
G01 X9.0630 Y32.1708
G01 X9.0630 Y32.1060
G01 X9.0617 Y32.0773
G01 X9.0556 Y32.0366
G01 X9.0497 Y32.0128
G01 X9.0390 Y31.9817
G01 X9.0253 Y31.9518
G01 X9.0088 Y31.9234
G01 X8.9842 Y31.8903
G01 X8.9619 Y31.8662
G01 X8.9372 Y31.8445
G01 X8.9170 Y31.8294
G01 X8.8895 Y31.8126
G01 X8.8600 Y31.7982
G01 X8.8292 Y31.7867
G01 X8.7892 Y31.7767
G01 X8.7567 Y31.7723
G01 X8.7280 Y31.7710
G01 X8.1648 Y31.7710
G01 X8.1648 Y31.5602
G01 X8.1883 Y31.5728
G01 X8.2105 Y31.5814
G01 X8.2335 Y31.5874
G01 X8.2570 Y31.5909
G01 X8.2712 Y31.5917
G01 X8.2950 Y31.5909
G01 X8.3204 Y31.5871
G01 X8.3505 Y31.5782
G01 X8.3722 Y31.5686
G01 X8.3928 Y31.5567
G01 X8.4119 Y31.5425
G01 X8.4225 Y31.5330
G01 X8.4387 Y31.5156
G01 X8.4536 Y31.4956
G01 X8.4690 Y31.4674
G01 X8.4776 Y31.4452
G01 X8.4837 Y31.4223
G01 X8.4871 Y31.3987
G01 X8.4881 Y31.3797
G01 X8.4879 Y31.3122
G01 X8.4859 Y31.2874
G01 X8.4809 Y31.2629
G01 X8.4731 Y31.2392
G01 X8.4625 Y31.2166
G01 X8.4523 Y31.1994
G01 X8.3966 Y31.1160
G01 X8.3596 Y30.9301
G01 X8.3596 Y30.3719
G01 X8.3966 Y30.1860
G01 X8.4339 Y30.1300
G01 X8.4450 Y30.1102
G01 X8.4507 Y30.0978
G01 X8.4583 Y30.0765
G01 X8.4636 Y30.0544
G01 X8.4665 Y30.0319
G01 X8.4670 Y30.0092
G01 X8.4651 Y29.9866
G01 X8.4607 Y29.9643
G01 X8.4507 Y29.9342
G01 X8.4450 Y29.9218
G01 X8.4339 Y29.9020
G01 X8.3966 Y29.8460
G01 X8.3596 Y29.6601
G01 X8.3596 Y29.1019
G01 X8.3633 Y29.0784
G01 X8.3646 Y29.0523
G01 X8.3631 Y29.0310
G01 X8.3586 Y29.0059
G01 X8.3523 Y28.9847
G01 X8.3429 Y28.9625
G01 X8.3314 Y28.9421
G01 X8.3261 Y28.9342
G01 X8.3114 Y28.9155
G01 X8.3000 Y28.9034
G01 X8.2762 Y28.8837
G01 X8.2637 Y28.8753
G01 X8.2435 Y28.8644
G01 X8.2200 Y28.8549
G01 X8.1939 Y28.8479
G01 X7.9129 Y28.7920
G01 X7.6738 Y28.6322
G01 X7.6427 Y28.5858
G01 X7.6299 Y28.5693
G01 X7.6187 Y28.5571
G01 X5.9159 Y26.8543
G01 X5.9037 Y26.8431
G01 X5.8872 Y26.8303
G01 X5.8408 Y26.7992
G01 X5.6593 Y26.5279
G01 X5.6449 Y26.5095
G01 X5.6334 Y26.4974
G01 X5.6178 Y26.4837
G01 X5.5981 Y26.4697
G01 X5.5697 Y26.4549
G01 X5.5478 Y26.4468
G01 X5.5342 Y26.4432
G01 X5.5250 Y26.4412
G01 X5.5018 Y26.4381
G01 X5.4784 Y26.4377
G01 X5.4551 Y26.4398
G01 X5.4396 Y26.4426
G01 X5.4187 Y26.4484
G01 X5.3967 Y26.4571
G01 X5.3763 Y26.4680
G01 X5.3684 Y26.4730
G01 X5.3496 Y26.4870
G01 X5.3334 Y26.5019
G01 X5.0204 Y26.5019
G01 X5.0116 Y26.4882
G01 X5.0051 Y26.4809
G01 X4.9978 Y26.4744
G01 X4.9899 Y26.4688
G01 X4.9813 Y26.4642
G01 X4.9727 Y26.4606
G01 X4.9636 Y26.4581
G01 X4.9544 Y26.4565
G01 X4.9450 Y26.4560
G01 X4.5552 Y26.4560
G01 X4.5552 Y26.1181
G01 X5.0291 Y26.1181
G01 X5.1846 Y26.1825
G01 X5.2771 Y26.2749
G01 X5.2911 Y26.2877
G01 X5.3112 Y26.3026
G01 X5.3393 Y26.3180
G01 X5.3615 Y26.3266
G01 X5.3845 Y26.3327
G01 X5.4080 Y26.3361
G01 X5.4270 Y26.3370
G01 X5.4460 Y26.3361
G01 X5.4714 Y26.3323
G01 X5.5015 Y26.3234
G01 X5.5151 Y26.3178
G01 X5.5357 Y26.3070
G01 X5.5554 Y26.2936
G01 X5.5735 Y26.2782
G01 X5.5802 Y26.2715
G01 X5.5957 Y26.2534
G01 X5.6046 Y26.2408
G01 X5.6200 Y26.2126
G01 X5.6286 Y26.1905
G01 X5.6347 Y26.1675
G01 X5.6381 Y26.1440
G01 X5.6391 Y26.1250
G01 X5.6391 Y24.2043
G01 X5.6381 Y24.1853
G01 X5.6343 Y24.1599
G01 X5.6255 Y24.1298
G01 X5.6159 Y24.1081
G01 X5.6039 Y24.0875
G01 X5.5957 Y24.0759
G01 X5.5770 Y24.0544
G01 X3.8839 Y22.3613
G01 X3.8717 Y22.3501
G01 X3.8552 Y22.3374
G01 X3.8088 Y22.3062
G01 X3.6490 Y22.0671
G01 X3.5929 Y21.7850
G01 X3.5974 Y21.7528
G01 X3.5979 Y21.7362
G01 X3.5966 Y21.7159
G01 X3.5954 Y21.7067
G01 X3.5906 Y21.6840
G01 X3.5834 Y21.6621
G01 X3.5780 Y21.6493
G01 X3.5739 Y21.6410
G00 Z2.0000
G00 X3.2516 Y20.4875
G01 F350.00
G01 Z-0.1306
G01 F400.00
G01 X3.2450 Y20.3708
G01 X3.2514 Y20.2541
G01 X3.2525 Y20.2446
G01 X3.2734 Y20.1248
G01 X3.3076 Y20.0080
G01 X3.3546 Y19.8958
G01 X3.4133 Y19.7906
G01 X3.4788 Y19.6982
G01 X3.5595 Y19.6071
G01 X3.5663 Y19.6003
G01 X3.6573 Y19.5197
G01 X3.7569 Y19.4497
G01 X3.8631 Y19.3915
G01 X3.9762 Y19.3453
G01 X4.0914 Y19.3124
G01 X4.2038 Y19.2933
G01 X4.2133 Y19.2922
G01 X4.3300 Y19.2858
G01 X4.4467 Y19.2922
G01 X4.4562 Y19.2933
G01 X4.5761 Y19.3142
G01 X4.6928 Y19.3484
G01 X4.8050 Y19.3955
G01 X4.9102 Y19.4541
G01 X5.0027 Y19.5197
G01 X5.0937 Y19.6003
G01 X5.1005 Y19.6071
G01 X5.1812 Y19.6982
G01 X5.2511 Y19.7977
G01 X5.3093 Y19.9040
G01 X5.3524 Y20.0080
