(G-CODE GENERATED BY FLATCAM v8.905 - www.flatcam.org - Version Date: 2019/01/29)

(Name: V2-F.Cu.gbr_follow_1_cnc)
(Type: G-code from Geometry)
(Units: MM)

(Created on Monday, 11 February 2019 at 18:02)

(TOOL DIAMETER: 0.17 mm)
(Feedrate: 400.0 mm/min)
(Feedrate_Z: 350.0 mm/min)
(Feedrate rapids 800.0 mm/min)

(Z_Cut: -0.1306 mm)
(Z_Move: 2.0 mm)
(Z Toolchange: 50.0 mm)
(X,Y Toolchange: 0.0000, 0.0000 mm)
(Z Start: 1.0 mm)
(Z End: 20.0 mm)
(Steps per circle: 64)
(Postprocessor Geometry: default)
(Spindle Speed: 18000 RPM)
G94 ( Millimeters per minute feed rate. )
G21 ( Units == Millimeters. )
G90 ( Absolute coordinates. )
G64 P0.01000 ( set maximum deviation from commanded toolpath )
G21
G90
G94
G21
G90
G94

G01 F400.00
G00 Z2.0000
G00 Z1.0000
M03 S18000
G00 X0.7194 Y1.6420
G01 F350.00
G01 Z-0.1306
G01 F400.00
G01 X0.7194 Y11.9900
G01 X0.7272 Y12.1300
G01 X0.7507 Y12.2683
G01 X0.7896 Y12.4031
G01 X0.8432 Y12.5326
G01 X0.9111 Y12.6554
G01 X0.9922 Y12.7698
G01 X1.0857 Y12.8743
G01 X1.1902 Y12.9678
G01 X1.3046 Y13.0489
G01 X1.4274 Y13.1168
G01 X1.5569 Y13.1704
G01 X1.6917 Y13.2093
G01 X1.8300 Y13.2328
G01 X1.9700 Y13.2406
G01 X2.1100 Y13.2328
G01 X2.2483 Y13.2093
G01 X2.3831 Y13.1704
G01 X2.5126 Y13.1168
G01 X2.6354 Y13.0489
G01 X2.7498 Y12.9678
G01 X2.8543 Y12.8743
G01 X2.9478 Y12.7698
G01 X3.0289 Y12.6554
G01 X3.0968 Y12.5326
G01 X3.1504 Y12.4031
G01 X3.1893 Y12.2683
G01 X3.2128 Y12.1300
G01 X3.2206 Y11.9900
G01 X3.2206 Y4.4680
G01 X4.4580 Y3.2306
G01 X23.5342 Y3.2306
G01 X23.6742 Y3.2228
G01 X23.8125 Y3.1993
G01 X23.9473 Y3.1604
G01 X24.0768 Y3.1068
G01 X24.1996 Y3.0389
G01 X24.3140 Y2.9578
G01 X24.4185 Y2.8643
G01 X24.4451 Y2.8346
G01 X24.9100 Y2.8346
G01 X25.5437 Y3.4683
G01 X25.6482 Y3.5618
G01 X25.7626 Y3.6429
G01 X25.8854 Y3.7108
G01 X26.0149 Y3.7644
G01 X26.1497 Y3.8033
G01 X26.2880 Y3.8268
G01 X26.4280 Y3.8346
G01 X26.5680 Y3.8268
G01 X26.7063 Y3.8033
G01 X26.8411 Y3.7644
G01 X26.9706 Y3.7108
G01 X27.0934 Y3.6429
G01 X27.2078 Y3.5618
G01 X27.3123 Y3.4683
G01 X27.4058 Y3.3638
G01 X27.4869 Y3.2494
G01 X27.5548 Y3.1266
G01 X27.6084 Y2.9971
G01 X27.6473 Y2.8623
G01 X27.6708 Y2.7240
G01 X27.6786 Y2.5840
G01 X27.6708 Y2.4440
G01 X27.6473 Y2.3057
G01 X27.6084 Y2.1709
G01 X27.5548 Y2.0414
G01 X27.4869 Y1.9186
G01 X27.4058 Y1.8042
G01 X27.3123 Y1.6997
G01 X26.3123 Y0.6997
G01 X26.2078 Y0.6062
G01 X26.0934 Y0.5251
G01 X25.9706 Y0.4572
G01 X25.8411 Y0.4036
G01 X25.7063 Y0.3647
G01 X25.5680 Y0.3412
G01 X25.4280 Y0.3334
G01 X2.0280 Y0.3334
G01 X1.8880 Y0.3412
G01 X1.7497 Y0.3647
G01 X1.6149 Y0.4036
G01 X1.4854 Y0.4572
G01 X1.3626 Y0.5251
G01 X1.2482 Y0.6062
G01 X1.1437 Y0.6997
G01 X1.0857 Y0.7577
G01 X0.9922 Y0.8622
G01 X0.9111 Y0.9766
G01 X0.8432 Y1.0994
G01 X0.7896 Y1.2289
G01 X0.7507 Y1.3637
G01 X0.7272 Y1.5020
G01 X0.7194 Y1.6420
G01 X0.7194 Y11.9900
G00 Z2.0000
G00 X4.3711 Y4.9015
G01 F350.00
G01 Z-0.1306
G01 F400.00
G01 X4.3523 Y5.0120
G01 X4.3460 Y5.1240
G01 X4.3523 Y5.2360
G01 X4.3711 Y5.3465
G01 X4.4021 Y5.4543
G01 X4.4450 Y5.5579
G01 X4.4993 Y5.6560
G01 X4.5642 Y5.7475
G01 X4.6389 Y5.8311
G01 X4.7225 Y5.9058
G01 X4.8140 Y5.9707
G01 X4.9121 Y6.0250
G01 X5.0157 Y6.0679
G01 X5.1235 Y6.0989
G01 X5.2340 Y6.1177
G01 X5.3460 Y6.1240
G01 X5.4580 Y6.1177
G01 X5.5685 Y6.0989
G01 X5.6763 Y6.0679
G01 X5.7799 Y6.0250
G01 X5.8780 Y5.9707
G01 X5.9695 Y5.9058
G01 X6.0531 Y5.8311
G01 X6.1278 Y5.7475
G01 X6.1927 Y5.6560
G01 X6.2470 Y5.5579
G01 X6.2899 Y5.4543
G01 X6.3209 Y5.3465
G01 X6.3397 Y5.2360
G01 X6.3460 Y5.1240
G01 X6.3397 Y5.0120
G01 X6.3209 Y4.9015
G01 X6.2899 Y4.7937
G01 X6.2470 Y4.6901
G01 X6.2318 Y4.6627
G01 X6.4703 Y4.4242
G01 X11.8236 Y4.4242
G01 X11.8572 Y4.4223
G01 X11.8903 Y4.4166
G01 X11.9227 Y4.4073
G01 X11.9538 Y4.3944
G01 X11.9832 Y4.3781
G01 X12.0107 Y4.3587
G01 X12.0435 Y4.3285
G01 X20.8901 Y4.3285
G01 X24.1838 Y7.6222
G01 X24.2089 Y7.6447
G01 X24.2363 Y7.6641
G01 X24.2658 Y7.6804
G01 X24.2969 Y7.6933
G01 X24.3292 Y7.7026
G01 X24.3624 Y7.7083
G01 X24.3960 Y7.7102
G01 X27.6170 Y7.7102
G01 X27.6506 Y7.7083
G01 X27.6838 Y7.7026
G01 X27.7161 Y7.6933
G01 X27.7472 Y7.6804
G01 X27.7767 Y7.6641
G01 X27.8041 Y7.6447
G01 X27.8292 Y7.6222
G01 X29.4342 Y6.0172
G01 X29.4567 Y5.9921
G01 X29.4761 Y5.9647
G01 X29.4924 Y5.9352
G01 X29.5053 Y5.9041
G01 X29.5146 Y5.8718
G01 X29.5203 Y5.8386
G01 X29.5222 Y5.8050
G01 X29.5222 Y2.9623
G01 X31.1243 Y1.3602
G01 X45.8477 Y1.3602
G01 X47.2838 Y2.7962
G01 X47.3089 Y2.8187
G01 X47.3363 Y2.8381
G01 X47.3658 Y2.8544
G01 X47.3969 Y2.8673
G01 X47.4292 Y2.8766
G01 X47.4624 Y2.8823
G01 X47.4960 Y2.8842
G01 X49.3960 Y2.8840
G01 X49.3960 Y2.2840
G01 X47.6203 Y2.2838
G01 X46.1842 Y0.8478
G01 X46.1591 Y0.8253
G01 X46.1317 Y0.8059
G01 X46.1022 Y0.7896
G01 X46.0711 Y0.7767
G01 X46.0388 Y0.7674
G01 X46.0056 Y0.7617
G01 X45.9720 Y0.7598
G01 X31.0000 Y0.7598
G01 X30.9664 Y0.7617
G01 X30.9332 Y0.7674
G01 X30.9009 Y0.7767
G01 X30.8698 Y0.7896
G01 X30.8403 Y0.8059
G01 X30.8129 Y0.8253
G01 X30.7878 Y0.8478
G01 X29.0098 Y2.6258
G01 X28.9873 Y2.6509
G01 X28.9679 Y2.6783
G01 X28.9516 Y2.7078
G01 X28.9387 Y2.7389
G01 X28.9294 Y2.7712
G01 X28.9237 Y2.8044
G01 X28.9218 Y2.8380
G01 X28.9218 Y5.6807
G01 X27.4927 Y7.1098
G01 X24.5203 Y7.1098
G01 X21.2266 Y3.8161
G01 X21.2015 Y3.7937
G01 X21.1741 Y3.7742
G01 X21.1446 Y3.7580
G01 X21.1135 Y3.7451
G01 X21.0812 Y3.7358
G01 X21.0480 Y3.7301
G01 X21.0144 Y3.7282
G01 X11.9192 Y3.7282
G01 X11.8856 Y3.7301
G01 X11.8524 Y3.7358
G01 X11.8200 Y3.7451
G01 X11.7889 Y3.7580
G01 X11.7595 Y3.7742
G01 X11.7320 Y3.7937
G01 X11.6992 Y3.8239
G01 X6.3460 Y3.8239
G01 X6.3124 Y3.8257
G01 X6.2792 Y3.8314
G01 X6.2469 Y3.8407
G01 X6.2158 Y3.8536
G01 X6.1863 Y3.8699
G01 X6.1589 Y3.8893
G01 X6.1338 Y3.9118
G01 X5.8073 Y4.2382
G01 X5.7799 Y4.2230
G01 X5.6763 Y4.1801
G01 X5.5685 Y4.1491
G01 X5.4580 Y4.1303
G01 X5.3460 Y4.1240
G01 X5.2340 Y4.1303
G01 X5.1235 Y4.1491
G01 X5.0157 Y4.1801
G01 X4.9121 Y4.2230
G01 X4.8140 Y4.2773
G01 X4.7225 Y4.3422
G01 X4.6389 Y4.4169
G01 X4.5642 Y4.5005
G01 X4.4993 Y4.5920
G01 X4.4450 Y4.6901
G01 X4.4021 Y4.7937
G01 X4.3711 Y4.9015
G01 X4.3523 Y5.0120
G00 Z2.0000
G00 X11.6643 Y5.3059
G01 F350.00
G01 Z-0.1306
G01 F400.00
G01 X11.6455 Y5.4164
G01 X11.6392 Y5.5284
G01 X11.6455 Y5.6403
G01 X11.6643 Y5.7509
G01 X11.6953 Y5.8587
G01 X11.7382 Y5.9623
G01 X11.7925 Y6.0604
G01 X11.8573 Y6.1519
G01 X11.9321 Y6.2355
G01 X12.0157 Y6.3102
G01 X12.1071 Y6.3751
G01 X12.2053 Y6.4293
G01 X12.3089 Y6.4723
G01 X12.4167 Y6.5033
G01 X12.5272 Y6.5221
G01 X12.6392 Y6.5284
G01 X12.7511 Y6.5221
G01 X12.8617 Y6.5033
G01 X12.9695 Y6.4723
G01 X13.0731 Y6.4293
G01 X13.1712 Y6.3751
G01 X13.2627 Y6.3102
G01 X13.3463 Y6.2355
G01 X13.4210 Y6.1519
G01 X13.4859 Y6.0604
G01 X13.5401 Y5.9623
G01 X13.5831 Y5.8587
G01 X13.5917 Y5.8285
G01 X14.0534 Y5.8285
G01 X14.0870 Y5.8266
G01 X14.1202 Y5.8210
G01 X14.1525 Y5.8117
G01 X14.1836 Y5.7988
G01 X14.2131 Y5.7825
G01 X14.2405 Y5.7630
G01 X14.2656 Y5.7406
G01 X14.3281 Y5.6782
G01 X20.9697 Y5.6782
G01 X26.2158 Y10.9242
G01 X26.2409 Y10.9467
G01 X26.2683 Y10.9661
G01 X26.2978 Y10.9824
G01 X26.3289 Y10.9953
G01 X26.3612 Y11.0046
G01 X26.3944 Y11.0103
G01 X26.4280 Y11.0122
G01 X30.2380 Y11.0122
G01 X30.2716 Y11.0103
G01 X30.3048 Y11.0046
G01 X30.3371 Y10.9953
G01 X30.3682 Y10.9824
G01 X30.3977 Y10.9661
G01 X30.4251 Y10.9467
G01 X30.4502 Y10.9242
G01 X31.4662 Y9.9082
G01 X31.4887 Y9.8831
G01 X31.5081 Y9.8557
G01 X31.5244 Y9.8262
G01 X31.5373 Y9.7951
G01 X31.5466 Y9.7628
G01 X31.5523 Y9.7296
G01 X31.5542 Y9.6960
G01 X31.5542 Y5.5023
G01 X34.4263 Y2.6302
G01 X42.7997 Y2.6302
G01 X47.2838 Y7.1142
G01 X47.3089 Y7.1367
G01 X47.3363 Y7.1561
G01 X47.3658 Y7.1724
G01 X47.3969 Y7.1853
G01 X47.4292 Y7.1946
G01 X47.4624 Y7.2003
G01 X47.4960 Y7.2022
G01 X49.3960 Y7.2020
G01 X49.3960 Y6.6020
G01 X47.6203 Y6.6018
G01 X43.1362 Y2.1178
G01 X43.1111 Y2.0953
G01 X43.0837 Y2.0759
G01 X43.0542 Y2.0596
G01 X43.0231 Y2.0467
G01 X42.9908 Y2.0374
G01 X42.9576 Y2.0317
G01 X42.9240 Y2.0298
G01 X34.3020 Y2.0298
G01 X34.2684 Y2.0317
G01 X34.2352 Y2.0374
G01 X34.2029 Y2.0467
G01 X34.1718 Y2.0596
G01 X34.1423 Y2.0759
G01 X34.1149 Y2.0953
G01 X34.0898 Y2.1178
G01 X31.0418 Y5.1658
G01 X31.0193 Y5.1909
G01 X30.9999 Y5.2183
G01 X30.9836 Y5.2478
G01 X30.9707 Y5.2789
G01 X30.9614 Y5.3112
G01 X30.9557 Y5.3444
G01 X30.9538 Y5.3780
G01 X30.9538 Y9.5717
G01 X30.1137 Y10.4118
G01 X26.5523 Y10.4118
G01 X21.3062 Y5.1658
G01 X21.2811 Y5.1433
G01 X21.2537 Y5.1239
G01 X21.2242 Y5.1076
G01 X21.1931 Y5.0947
G01 X21.1608 Y5.0854
G01 X21.1276 Y5.0797
G01 X21.0940 Y5.0778
G01 X14.2038 Y5.0778
G01 X14.1702 Y5.0797
G01 X14.1370 Y5.0854
G01 X14.1046 Y5.0947
G01 X14.0735 Y5.1076
G01 X14.0441 Y5.1239
G01 X14.0166 Y5.1433
G01 X13.9915 Y5.1658
G01 X13.9291 Y5.2282
G01 X13.5917 Y5.2282
G01 X13.5831 Y5.1981
G01 X13.5401 Y5.0945
G01 X13.4859 Y4.9963
G01 X13.4210 Y4.9049
G01 X13.3463 Y4.8213
G01 X13.2627 Y4.7465
G01 X13.1712 Y4.6817
G01 X13.0731 Y4.6274
G01 X12.9695 Y4.5845
G01 X12.8617 Y4.5535
G01 X12.7511 Y4.5347
G01 X12.6392 Y4.5284
G01 X12.5272 Y4.5347
G01 X12.4167 Y4.5535
G01 X12.3089 Y4.5845
G01 X12.2053 Y4.6274
G01 X12.1071 Y4.6817
G01 X12.0157 Y4.7465
G01 X11.9321 Y4.8213
G01 X11.8573 Y4.9049
G01 X11.7925 Y4.9963
G01 X11.7382 Y5.0945
G01 X11.6953 Y5.1981
G01 X11.6643 Y5.3059
G01 X11.6455 Y5.4164
G00 Z2.0000
G00 X13.8648 Y9.0315
G01 F350.00
G01 Z-0.1306
G01 F400.00
G01 X14.8914 Y8.0048
G01 X14.8973 Y8.0038
G01 X15.0052 Y7.9727
G01 X15.1088 Y7.9298
G01 X15.2016 Y7.8785
G01 X16.4336 Y7.8785
G01 X16.5958 Y7.9457
G01 X17.0903 Y8.4402
G01 X17.3579 Y9.0863
G01 X17.3579 Y9.7857
G01 X17.0903 Y10.4318
G01 X16.5958 Y10.9263
G01 X15.9497 Y11.1939
G01 X15.2503 Y11.1939
G01 X14.6042 Y10.9263
G01 X14.1097 Y10.4318
G01 X13.8421 Y9.7857
G01 X13.8421 Y9.0863
G01 X13.8648 Y9.0315
G01 X14.8914 Y8.0048
G00 Z2.0000
G00 X14.3813 Y9.1578
G01 F350.00
G01 Z-0.1306
G01 F400.00
G01 X14.3579 Y9.2960
G01 X14.3500 Y9.4360
G01 X14.3579 Y9.5760
G01 X14.3813 Y9.7142
G01 X14.4201 Y9.8488
G01 X14.4738 Y9.9784
G01 X14.5416 Y10.1010
G01 X14.6227 Y10.2154
G01 X14.7161 Y10.3199
G01 X14.8206 Y10.4133
G01 X14.9350 Y10.4944
G01 X15.0576 Y10.5622
G01 X15.1872 Y10.6159
G01 X15.3218 Y10.6547
G01 X15.4600 Y10.6781
G01 X15.6000 Y10.6860
G01 X15.7400 Y10.6781
G01 X15.8782 Y10.6547
G01 X16.0128 Y10.6159
G01 X16.1424 Y10.5622
G01 X16.2650 Y10.4944
G01 X16.3794 Y10.4133
G01 X16.4839 Y10.3199
G01 X16.5773 Y10.2154
G01 X16.6584 Y10.1010
G01 X16.7262 Y9.9784
G01 X16.7799 Y9.8488
G01 X16.8187 Y9.7142
G01 X16.8421 Y9.5760
G01 X16.8500 Y9.4360
G01 X16.8421 Y9.2960
G01 X16.8187 Y9.1578
G01 X16.7799 Y9.0232
G01 X16.7262 Y8.8936
G01 X16.6584 Y8.7710
G01 X16.5773 Y8.6566
G01 X16.4839 Y8.5521
G01 X16.3794 Y8.4587
G01 X16.2650 Y8.3776
G01 X16.1424 Y8.3098
G01 X16.0128 Y8.2561
G01 X15.8782 Y8.2173
G01 X15.7400 Y8.1939
G01 X15.6000 Y8.1860
G01 X15.4600 Y8.1939
G01 X15.3218 Y8.2173
G01 X15.1872 Y8.2561
G01 X15.0576 Y8.3098
G01 X14.9350 Y8.3776
G01 X14.8206 Y8.4587
G01 X14.7161 Y8.5521
G01 X14.6227 Y8.6566
G01 X14.5416 Y8.7710
G01 X14.4738 Y8.8936
G01 X14.4201 Y9.0232
G01 X14.3813 Y9.1578
G01 X14.3579 Y9.2960
G00 Z2.0000
G00 X13.1715 Y10.1350
G01 F350.00
G01 Z-0.1306
G01 F400.00
G01 X13.4637 Y10.3592
G01 X13.4916 Y10.5392
G01 X13.1715 Y10.7240
G01 X13.1715 Y10.1350
G01 X13.4637 Y10.3592
G00 Z2.0000
G00 X13.0020 Y12.5262
G01 F350.00
G01 Z-0.1306
G01 F400.00
G01 X13.0549 Y12.4789
G01 X13.1483 Y12.3744
G01 X13.2294 Y12.2600
G01 X13.2972 Y12.1374
G01 X13.3509 Y12.0078
G01 X13.3897 Y11.8732
G01 X13.4131 Y11.7350
G01 X13.4210 Y11.5950
G01 X13.4131 Y11.4550
G01 X13.3897 Y11.3168
G01 X13.3570 Y11.2036
G01 X13.7457 Y10.9792
G01 X13.8860 Y11.0921
G01 X13.9557 Y11.7602
G01 X13.7562 Y12.4323
G01 X13.4068 Y12.8877
G01 X13.2268 Y12.9156
G01 X13.0020 Y12.5262
G01 X13.0549 Y12.4789
G00 Z2.0000
G00 X11.6286 Y12.7212
G01 F350.00
G01 Z-0.1306
G01 F400.00
G01 X11.7582 Y12.7749
G01 X11.8928 Y12.8137
G01 X12.0310 Y12.8371
G01 X12.1710 Y12.8450
G01 X12.3110 Y12.8371
G01 X12.4492 Y12.8137
G01 X12.5624 Y12.7810
G01 X12.7868 Y13.1697
G01 X12.6739 Y13.3100
G01 X12.0058 Y13.3797
G01 X11.3337 Y13.1802
G01 X10.8783 Y12.8308
G01 X10.8504 Y12.6508
G01 X11.2398 Y12.4260
G01 X11.2871 Y12.4789
G01 X11.3916 Y12.5723
G01 X11.5060 Y12.6534
G01 X11.6286 Y12.7212
G01 X11.7582 Y12.7749
G00 Z2.0000
G00 X10.9523 Y11.3168
G01 F350.00
G01 Z-0.1306
G01 F400.00
G01 X10.9289 Y11.4550
G01 X10.9210 Y11.5950
G01 X10.9289 Y11.7350
G01 X10.9523 Y11.8732
G01 X10.9850 Y11.9864
G01 X10.5963 Y12.2108
G01 X10.4560 Y12.0979
G01 X10.3863 Y11.4298
G01 X10.5858 Y10.7577
G01 X10.9352 Y10.3023
G01 X11.1152 Y10.2744
G01 X11.1705 Y10.3702
G01 X11.1705 Y10.8484
G01 X11.1126 Y10.9300
G01 X11.0448 Y11.0526
G01 X10.9911 Y11.1822
G01 X10.9523 Y11.3168
G01 X10.9289 Y11.4550
G00 Z2.0000
G00 X14.3813 Y13.2218
G01 F350.00
G01 Z-0.1306
G01 F400.00
G01 X14.3579 Y13.3600
G01 X14.3500 Y13.5000
G01 X14.3579 Y13.6400
G01 X14.3813 Y13.7782
G01 X14.4201 Y13.9128
G01 X14.4738 Y14.0424
G01 X14.5416 Y14.1650
G01 X14.6227 Y14.2794
G01 X14.7161 Y14.3839
G01 X14.8206 Y14.4773
G01 X14.9350 Y14.5584
G01 X15.0576 Y14.6262
G01 X15.1872 Y14.6799
G01 X15.3218 Y14.7187
G01 X15.4600 Y14.7421
G01 X15.6000 Y14.7500
G01 X15.7400 Y14.7421
G01 X15.8782 Y14.7187
G01 X16.0128 Y14.6799
G01 X16.1424 Y14.6262
G01 X16.2650 Y14.5584
G01 X16.3794 Y14.4773
G01 X16.4839 Y14.3839
G01 X16.5773 Y14.2794
G01 X16.6584 Y14.1650
G01 X16.7262 Y14.0424
G01 X16.7799 Y13.9128
G01 X16.8187 Y13.7782
G01 X16.8421 Y13.6400
G01 X16.8500 Y13.5000
G01 X16.8421 Y13.3600
G01 X16.8187 Y13.2218
G01 X16.7799 Y13.0872
G01 X16.7262 Y12.9576
G01 X16.6584 Y12.8350
G01 X16.5773 Y12.7206
G01 X16.4839 Y12.6161
G01 X16.3794 Y12.5227
G01 X16.2650 Y12.4416
G01 X16.1424 Y12.3738
G01 X16.0128 Y12.3201
G01 X15.8782 Y12.2813
G01 X15.7400 Y12.2579
G01 X15.6000 Y12.2500
G01 X15.4600 Y12.2579
G01 X15.3218 Y12.2813
G01 X15.1872 Y12.3201
G01 X15.0576 Y12.3738
G01 X14.9350 Y12.4416
G01 X14.8206 Y12.5227
G01 X14.7161 Y12.6161
G01 X14.6227 Y12.7206
G01 X14.5416 Y12.8350
G01 X14.4738 Y12.9576
G01 X14.4201 Y13.0872
G01 X14.3813 Y13.2218
G01 X14.3579 Y13.3600
G00 Z2.0000
G00 X16.1700 Y11.8333
G01 F350.00
G01 Z-0.1306
G01 F400.00
G01 X16.5958 Y12.0097
G01 X17.0903 Y12.5042
G01 X17.3579 Y13.1503
G01 X17.3579 Y13.8497
G01 X17.0903 Y14.4958
G01 X16.5958 Y14.9903
G01 X15.9497 Y15.2579
G01 X15.2503 Y15.2579
G01 X14.6042 Y14.9903
G01 X14.1097 Y14.4958
G01 X13.8421 Y13.8497
G01 X13.8421 Y13.1503
G01 X14.1097 Y12.5042
G01 X14.6042 Y12.0097
G01 X15.2503 Y11.7421
G01 X15.9497 Y11.7421
G01 X16.1700 Y11.8333
G01 X16.5958 Y12.0097
G00 Z2.0000
G00 X17.8103 Y11.0628
G01 F350.00
G01 Z-0.1306
G01 F400.00
G01 X17.7869 Y11.2010
G01 X17.7790 Y11.3410
G01 X17.7869 Y11.4810
G01 X17.8103 Y11.6192
G01 X17.8491 Y11.7538
G01 X17.9028 Y11.8834
G01 X17.9706 Y12.0060
G01 X18.0517 Y12.1204
G01 X18.1451 Y12.2249
G01 X18.2496 Y12.3183
G01 X18.3640 Y12.3994
G01 X18.4866 Y12.4672
G01 X18.6162 Y12.5209
G01 X18.7508 Y12.5597
G01 X18.8890 Y12.5831
G01 X19.0290 Y12.5910
G01 X19.1690 Y12.5831
G01 X19.3072 Y12.5597
G01 X19.4418 Y12.5209
G01 X19.5714 Y12.4672
G01 X19.6940 Y12.3994
G01 X19.8084 Y12.3183
G01 X19.9129 Y12.2249
G01 X20.0063 Y12.1204
G01 X20.0874 Y12.0060
G01 X20.1552 Y11.8834
G01 X20.2089 Y11.7538
G01 X20.2477 Y11.6192
G01 X20.2711 Y11.4810
G01 X20.2790 Y11.3410
G01 X20.2711 Y11.2010
G01 X20.2477 Y11.0628
G01 X20.2089 Y10.9282
G01 X20.1552 Y10.7986
G01 X20.0874 Y10.6760
G01 X20.0063 Y10.5616
G01 X19.9129 Y10.4571
G01 X19.8084 Y10.3637
G01 X19.6940 Y10.2826
G01 X19.5714 Y10.2148
G01 X19.4418 Y10.1611
G01 X19.3072 Y10.1223
G01 X19.1690 Y10.0989
G01 X19.0290 Y10.0910
G01 X18.8890 Y10.0989
G01 X18.7508 Y10.1223
G01 X18.6162 Y10.1611
G01 X18.4866 Y10.2148
G01 X18.3640 Y10.2826
G01 X18.2496 Y10.3637
G01 X18.1451 Y10.4571
G01 X18.0517 Y10.5616
G01 X17.9706 Y10.6760
G01 X17.9028 Y10.7986
G01 X17.8491 Y10.9282
G01 X17.8103 Y11.0628
G01 X17.7869 Y11.2010
G00 Z2.0000
G00 X20.5744 Y12.2037
G01 F350.00
G01 Z-0.1306
G01 F400.00
G01 X20.5193 Y12.3368
G01 X20.0248 Y12.8313
G01 X19.3787 Y13.0989
G01 X18.6793 Y13.0989
G01 X18.0332 Y12.8313
G01 X17.5387 Y12.3368
G01 X17.2711 Y11.6907
G01 X17.2711 Y10.9913
G01 X17.5387 Y10.3452
G01 X18.0332 Y9.8507
G01 X18.6793 Y9.5831
G01 X19.3787 Y9.5831
G01 X20.0248 Y9.8507
G01 X20.5193 Y10.3452
G01 X20.7869 Y10.9913
G01 X20.7869 Y11.6907
G01 X20.5744 Y12.2037
G01 X20.5193 Y12.3368
G00 Z2.0000
G00 X17.8103 Y15.2538
G01 F350.00
G01 Z-0.1306
G01 F400.00
G01 X17.7869 Y15.3920
G01 X17.7790 Y15.5320
G01 X17.7869 Y15.6720
G01 X17.8103 Y15.8102
G01 X17.8491 Y15.9448
G01 X17.9028 Y16.0744
G01 X17.9706 Y16.1970
G01 X18.0517 Y16.3114
G01 X18.1451 Y16.4159
G01 X18.2496 Y16.5093
G01 X18.3640 Y16.5904
G01 X18.4866 Y16.6582
G01 X18.6162 Y16.7119
G01 X18.7508 Y16.7507
G01 X18.8890 Y16.7741
G01 X19.0290 Y16.7820
G01 X19.1690 Y16.7741
G01 X19.3072 Y16.7507
G01 X19.4418 Y16.7119
G01 X19.5714 Y16.6582
G01 X19.6940 Y16.5904
G01 X19.8084 Y16.5093
G01 X19.9129 Y16.4159
G01 X20.0063 Y16.3114
G01 X20.0874 Y16.1970
G01 X20.1552 Y16.0744
G01 X20.2089 Y15.9448
G01 X20.2477 Y15.8102
G01 X20.2711 Y15.6720
G01 X20.2790 Y15.5320
G01 X20.2711 Y15.3920
G01 X20.2477 Y15.2538
G01 X20.2089 Y15.1192
G01 X20.1552 Y14.9896
G01 X20.0874 Y14.8670
G01 X20.0063 Y14.7526
G01 X19.9129 Y14.6481
G01 X19.8084 Y14.5547
G01 X19.6940 Y14.4736
G01 X19.5714 Y14.4058
G01 X19.4418 Y14.3521
G01 X19.3072 Y14.3133
G01 X19.1690 Y14.2899
G01 X19.0290 Y14.2820
G01 X18.8890 Y14.2899
G01 X18.7508 Y14.3133
G01 X18.6162 Y14.3521
G01 X18.4866 Y14.4058
G01 X18.3640 Y14.4736
G01 X18.2496 Y14.5547
G01 X18.1451 Y14.6481
G01 X18.0517 Y14.7526
G01 X17.9706 Y14.8670
G01 X17.9028 Y14.9896
G01 X17.8491 Y15.1192
G01 X17.8103 Y15.2538
G01 X17.7869 Y15.3920
G00 Z2.0000
G00 X17.2711 Y15.8817
G01 F350.00
G01 Z-0.1306
G01 F400.00
G01 X17.2711 Y15.1823
G01 X17.5387 Y14.5362
G01 X18.0332 Y14.0417
G01 X18.6793 Y13.7741
G01 X19.3787 Y13.7741
G01 X20.0248 Y14.0417
G01 X20.5193 Y14.5362
G01 X20.7869 Y15.1823
G01 X20.7869 Y15.8817
G01 X20.5193 Y16.5278
G01 X20.0248 Y17.0223
G01 X19.3787 Y17.2899
G01 X18.6793 Y17.2899
G01 X18.0332 Y17.0223
G01 X17.5387 Y16.5278
G01 X17.2711 Y15.8817
G01 X17.2711 Y15.1823
G00 Z2.0000
G00 X16.4766 Y16.0243
G01 F350.00
G01 Z-0.1306
G01 F400.00
G01 X16.5958 Y16.0737
G01 X17.0903 Y16.5682
G01 X17.3579 Y17.2143
G01 X17.3579 Y17.9137
G01 X17.0903 Y18.5598
G01 X16.5958 Y19.0543
G01 X15.9497 Y19.3219
G01 X15.2503 Y19.3219
G01 X14.6042 Y19.0543
G01 X14.1097 Y18.5598
G01 X13.8421 Y17.9137
G01 X13.8421 Y17.2143
G01 X14.1097 Y16.5682
G01 X14.6042 Y16.0737
G01 X15.2503 Y15.8061
G01 X15.9497 Y15.8061
G01 X16.4766 Y16.0243
G01 X16.5958 Y16.0737
G00 Z2.0000
G00 X14.3813 Y17.2858
G01 F350.00
G01 Z-0.1306
G01 F400.00
G01 X14.3579 Y17.4240
G01 X14.3500 Y17.5640
G01 X14.3579 Y17.7040
G01 X14.3813 Y17.8422
G01 X14.4201 Y17.9768
G01 X14.4738 Y18.1064
G01 X14.5416 Y18.2290
G01 X14.6227 Y18.3434
G01 X14.7161 Y18.4479
G01 X14.8206 Y18.5413
G01 X14.9350 Y18.6224
G01 X15.0576 Y18.6902
G01 X15.1872 Y18.7439
G01 X15.3218 Y18.7827
G01 X15.4600 Y18.8061
G01 X15.6000 Y18.8140
G01 X15.7400 Y18.8061
G01 X15.8782 Y18.7827
G01 X16.0128 Y18.7439
G01 X16.1424 Y18.6902
G01 X16.2650 Y18.6224
G01 X16.3794 Y18.5413
G01 X16.4839 Y18.4479
G01 X16.5773 Y18.3434
G01 X16.6584 Y18.2290
G01 X16.7262 Y18.1064
G01 X16.7799 Y17.9768
G01 X16.8187 Y17.8422
G01 X16.8421 Y17.7040
G01 X16.8500 Y17.5640
G01 X16.8421 Y17.4240
G01 X16.8187 Y17.2858
G01 X16.7799 Y17.1512
G01 X16.7262 Y17.0216
G01 X16.6584 Y16.8990
G01 X16.5773 Y16.7846
G01 X16.4839 Y16.6801
G01 X16.3794 Y16.5867
G01 X16.2650 Y16.5056
G01 X16.1424 Y16.4378
G01 X16.0128 Y16.3841
G01 X15.8782 Y16.3453
G01 X15.7400 Y16.3219
G01 X15.6000 Y16.3140
G01 X15.4600 Y16.3219
G01 X15.3218 Y16.3453
G01 X15.1872 Y16.3841
G01 X15.0576 Y16.4378
G01 X14.9350 Y16.5056
G01 X14.8206 Y16.5867
G01 X14.7161 Y16.6801
G01 X14.6227 Y16.7846
G01 X14.5416 Y16.8990
G01 X14.4738 Y17.0216
G01 X14.4201 Y17.1512
G01 X14.3813 Y17.2858
G01 X14.3579 Y17.4240
G00 Z2.0000
G00 X10.9523 Y15.3808
G01 F350.00
G01 Z-0.1306
G01 F400.00
G01 X10.9289 Y15.5190
G01 X10.9210 Y15.6590
G01 X10.9289 Y15.7990
G01 X10.9523 Y15.9372
G01 X10.9911 Y16.0718
G01 X11.0448 Y16.2014
G01 X11.1126 Y16.3240
G01 X11.1937 Y16.4384
G01 X11.2871 Y16.5429
G01 X11.3916 Y16.6363
G01 X11.5060 Y16.7174
G01 X11.6286 Y16.7852
G01 X11.7582 Y16.8389
G01 X11.8928 Y16.8777
G01 X12.0310 Y16.9011
G01 X12.1710 Y16.9090
G01 X12.3110 Y16.9011
G01 X12.4492 Y16.8777
G01 X12.5838 Y16.8389
G01 X12.7134 Y16.7852
G01 X12.8360 Y16.7174
G01 X12.9504 Y16.6363
G01 X13.0549 Y16.5429
G01 X13.1483 Y16.4384
G01 X13.2294 Y16.3240
G01 X13.2972 Y16.2014
G01 X13.3509 Y16.0718
G01 X13.3897 Y15.9372
G01 X13.4131 Y15.7990
G01 X13.4210 Y15.6590
G01 X13.4131 Y15.5190
G01 X13.3897 Y15.3808
G01 X13.3509 Y15.2462
G01 X13.2972 Y15.1166
G01 X13.2294 Y14.9940
G01 X13.1483 Y14.8796
G01 X13.0549 Y14.7751
G01 X12.9504 Y14.6817
G01 X12.8360 Y14.6006
G01 X12.7134 Y14.5328
G01 X12.5838 Y14.4791
G01 X12.4492 Y14.4403
G01 X12.3110 Y14.4169
G01 X12.1710 Y14.4090
G01 X12.0310 Y14.4169
G01 X11.8928 Y14.4403
G01 X11.7582 Y14.4791
G01 X11.6286 Y14.5328
G01 X11.5060 Y14.6006
G01 X11.3916 Y14.6817
G01 X11.2871 Y14.7751
G01 X11.1937 Y14.8796
G01 X11.1126 Y14.9940
G01 X11.0448 Y15.1166
G01 X10.9911 Y15.2462
G01 X10.9523 Y15.3808
G01 X10.9289 Y15.5190
G00 Z2.0000
G00 X10.4131 Y16.0087
G01 F350.00
G01 Z-0.1306
G01 F400.00
G01 X10.4131 Y15.3093
G01 X10.6807 Y14.6632
G01 X11.1752 Y14.1687
G01 X11.8213 Y13.9011
G01 X12.5207 Y13.9011
G01 X13.1668 Y14.1687
G01 X13.6613 Y14.6632
G01 X13.9289 Y15.3093
G01 X13.9289 Y16.0087
G01 X13.6613 Y16.6548
G01 X13.1668 Y17.1493
G01 X12.5207 Y17.4169
G01 X11.8213 Y17.4169
G01 X11.1752 Y17.1493
G01 X10.6807 Y16.6548
G01 X10.4131 Y16.0087
G01 X10.4131 Y15.3093
G00 Z2.0000
G00 X9.2848 Y19.9228
G01 F350.00
G01 Z-0.1306
G01 F400.00
G01 X9.2605 Y19.9192
G01 X9.2360 Y19.9180
G01 X9.1651 Y19.9180
G01 X9.1651 Y19.4944
G01 X9.2494 Y19.4101
G01 X9.5870 Y19.4101
G01 X9.7737 Y19.4874
G01 X9.9166 Y19.6303
G01 X9.9939 Y19.8170
G01 X9.9939 Y20.2796
G01 X9.9096 Y20.3639
G01 X9.4860 Y20.3639
G01 X9.4860 Y20.1680
G01 X9.4848 Y20.1435
G01 X9.4812 Y20.1192
G01 X9.4752 Y20.0954
G01 X9.4670 Y20.0723
G01 X9.4565 Y20.0501
G01 X9.4439 Y20.0291
G01 X9.4293 Y20.0094
G01 X9.4128 Y19.9912
G01 X9.3946 Y19.9747
G01 X9.3749 Y19.9601
G01 X9.3539 Y19.9475
G01 X9.3317 Y19.9370
G01 X9.3086 Y19.9288
G01 X9.2848 Y19.9228
G01 X9.2605 Y19.9192
G00 Z2.0000
G00 X9.2848 Y21.3132
G01 F350.00
G01 Z-0.1306
G01 F400.00
G01 X9.3086 Y21.3072
G01 X9.3317 Y21.2990
G01 X9.3539 Y21.2885
G01 X9.3749 Y21.2759
G01 X9.3946 Y21.2613
G01 X9.4128 Y21.2448
G01 X9.4293 Y21.2266
G01 X9.4439 Y21.2069
G01 X9.4565 Y21.1859
G01 X9.4670 Y21.1637
G01 X9.4752 Y21.1406
G01 X9.4812 Y21.1168
G01 X9.4848 Y21.0925
G01 X9.4860 Y21.0680
G01 X9.4860 Y20.8721
G01 X9.9096 Y20.8721
G01 X9.9939 Y20.9564
G01 X9.9939 Y21.4190
G01 X9.9166 Y21.6057
G01 X9.7737 Y21.7486
G01 X9.5870 Y21.8259
G01 X9.2494 Y21.8259
G01 X9.1651 Y21.7416
G01 X9.1651 Y21.3180
G01 X9.2360 Y21.3180
G01 X9.2605 Y21.3168
G01 X9.2848 Y21.3132
G01 X9.3086 Y21.3072
G00 Z2.0000
G00 X8.7950 Y26.5410
G01 F350.00
G01 Z-0.1306
G01 F400.00
G01 X8.7950 Y27.1410
G01 X10.3450 Y27.1410
G01 X10.3450 Y26.5410
G01 X8.7950 Y26.5410
G01 X8.7950 Y27.1410
G00 Z2.0000
G00 X4.9450 Y27.1410
G01 F350.00
G01 Z-0.1306
G01 F400.00
G01 X4.9450 Y27.0951
G01 X5.3686 Y27.0951
G01 X5.4529 Y27.1794
G01 X5.4529 Y27.2420
G01 X5.3762 Y27.4274
G01 X5.3715 Y27.4408
G01 X5.3683 Y27.4547
G01 X5.3667 Y27.4689
G01 X5.3667 Y27.4831
G01 X5.3683 Y27.4973
G01 X5.3715 Y27.5112
G01 X5.3762 Y27.5246
G01 X5.4529 Y27.7100
G01 X5.4529 Y27.7726
G01 X5.4147 Y27.8108
G01 X4.4241 Y27.8108
G01 X4.4241 Y27.1410
G01 X4.9450 Y27.1410
G01 X4.9450 Y27.0951
G00 Z2.0000
G00 X3.3950 Y26.5410
G01 F350.00
G01 Z-0.1306
G01 F400.00
G01 X3.3950 Y26.5869
G01 X2.9714 Y26.5869
G01 X2.8871 Y26.5026
G01 X2.8871 Y26.4400
G01 X2.9644 Y26.2533
G01 X3.1073 Y26.1104
G01 X3.2940 Y26.0331
G01 X3.8316 Y26.0331
G01 X3.8698 Y26.0713
G01 X3.8698 Y26.5410
G01 X3.3950 Y26.5410
G01 X3.3950 Y26.5869
G00 Z2.0000
G00 X3.3950 Y29.0810
G01 F350.00
G01 Z-0.1306
G01 F400.00
G01 X3.3950 Y29.6810
G01 X5.4207 Y29.6812
G01 X6.0528 Y30.3133
G01 X6.0528 Y31.8560
G01 X6.0280 Y31.8560
G01 X6.0035 Y31.8572
G01 X5.9792 Y31.8608
G01 X5.9554 Y31.8668
G01 X5.9323 Y31.8750
G01 X5.9101 Y31.8855
G01 X5.8891 Y31.8981
G01 X5.8694 Y31.9127
G01 X5.8512 Y31.9292
G01 X5.8347 Y31.9474
G01 X5.8201 Y31.9671
G01 X5.8075 Y31.9881
G01 X5.7970 Y32.0103
G01 X5.7888 Y32.0334
G01 X5.7828 Y32.0572
G01 X5.7792 Y32.0815
G01 X5.7780 Y32.1060
G01 X5.7780 Y33.0060
G01 X5.7792 Y33.0305
G01 X5.7828 Y33.0548
G01 X5.7888 Y33.0786
G01 X5.7970 Y33.1017
G01 X5.8075 Y33.1239
G01 X5.8201 Y33.1449
G01 X5.8347 Y33.1646
G01 X5.8512 Y33.1828
G01 X5.8694 Y33.1993
G01 X5.8891 Y33.2139
G01 X5.9101 Y33.2265
G01 X5.9323 Y33.2370
G01 X5.9554 Y33.2452
G01 X5.9792 Y33.2512
G01 X6.0035 Y33.2548
G01 X6.0280 Y33.2560
G01 X6.6285 Y33.2560
G01 X9.6968 Y36.3242
G01 X9.7219 Y36.3467
G01 X9.7493 Y36.3661
G01 X9.7788 Y36.3824
G01 X9.8099 Y36.3953
G01 X9.8422 Y36.4046
G01 X9.8754 Y36.4103
G01 X9.9090 Y36.4122
G01 X27.8476 Y36.4122
G01 X30.2362 Y38.8008
G01 X30.2362 Y39.1381
G01 X30.2061 Y39.1468
G01 X30.1025 Y39.1897
G01 X30.0043 Y39.2439
G01 X29.9129 Y39.3088
G01 X29.8293 Y39.3835
G01 X29.7545 Y39.4672
G01 X29.6896 Y39.5586
G01 X29.6354 Y39.6568
G01 X29.5925 Y39.7604
G01 X29.5614 Y39.8681
G01 X29.5427 Y39.9787
G01 X29.5364 Y40.0906
G01 X29.5427 Y40.2026
G01 X29.5614 Y40.3132
G01 X29.5925 Y40.4209
G01 X29.6354 Y40.5245
G01 X29.6896 Y40.6227
G01 X29.7545 Y40.7141
G01 X29.8293 Y40.7978
G01 X29.9129 Y40.8725
G01 X30.0043 Y40.9374
G01 X30.1025 Y40.9916
G01 X30.2061 Y41.0345
G01 X30.3138 Y41.0656
G01 X30.4244 Y41.0844
G01 X30.5364 Y41.0906
G01 X30.6483 Y41.0844
G01 X30.7589 Y41.0656
G01 X30.8666 Y41.0345
G01 X30.9702 Y40.9916
G01 X31.0684 Y40.9374
G01 X31.1599 Y40.8725
G01 X31.2435 Y40.7978
G01 X31.3182 Y40.7141
G01 X31.3831 Y40.6227
G01 X31.4373 Y40.5245
G01 X31.4802 Y40.4209
G01 X31.5113 Y40.3132
G01 X31.5301 Y40.2026
G01 X31.5364 Y40.0906
G01 X31.5301 Y39.9787
G01 X31.5113 Y39.8681
G01 X31.4802 Y39.7604
G01 X31.4373 Y39.6568
G01 X31.3831 Y39.5586
G01 X31.3182 Y39.4672
G01 X31.2435 Y39.3835
G01 X31.1599 Y39.3088
G01 X31.0684 Y39.2439
G01 X30.9702 Y39.1897
G01 X30.8666 Y39.1468
G01 X30.8365 Y39.1381
G01 X30.8365 Y38.6764
G01 X30.8346 Y38.6428
G01 X30.8290 Y38.6096
G01 X30.8197 Y38.5773
G01 X30.8068 Y38.5462
G01 X30.7905 Y38.5167
G01 X30.7710 Y38.4893
G01 X30.7486 Y38.4642
G01 X28.1842 Y35.8998
G01 X28.1591 Y35.8773
G01 X28.1316 Y35.8579
G01 X28.1022 Y35.8416
G01 X28.0711 Y35.8287
G01 X28.0387 Y35.8194
G01 X28.0055 Y35.8137
G01 X27.9719 Y35.8118
G01 X10.0333 Y35.8118
G01 X6.9280 Y32.7065
G01 X6.9280 Y32.1060
G01 X6.9268 Y32.0815
G01 X6.9232 Y32.0572
G01 X6.9172 Y32.0334
G01 X6.9090 Y32.0103
G01 X6.8985 Y31.9881
G01 X6.8859 Y31.9671
G01 X6.8713 Y31.9474
G01 X6.8548 Y31.9292
G01 X6.8366 Y31.9127
G01 X6.8169 Y31.8981
G01 X6.7959 Y31.8855
G01 X6.7737 Y31.8750
G01 X6.7506 Y31.8668
G01 X6.7268 Y31.8608
G01 X6.7025 Y31.8572
G01 X6.6780 Y31.8560
G01 X6.6532 Y31.8560
G01 X6.6532 Y30.1890
G01 X6.6513 Y30.1554
G01 X6.6456 Y30.1222
G01 X6.6363 Y30.0899
G01 X6.6234 Y30.0588
G01 X6.6071 Y30.0293
G01 X6.5877 Y30.0019
G01 X6.5652 Y29.9768
G01 X5.7572 Y29.1688
G01 X5.7321 Y29.1463
G01 X5.7047 Y29.1269
G01 X5.6752 Y29.1106
G01 X5.6441 Y29.0977
G01 X5.6118 Y29.0884
G01 X5.5786 Y29.0827
G01 X5.5450 Y29.0808
G01 X3.3950 Y29.0810
G01 X3.3950 Y29.6810
G00 Z2.0000
G00 X0.8408 Y30.1592
G01 F350.00
G01 Z-0.1306
G01 F400.00
G01 X0.8372 Y30.1835
G01 X0.8360 Y30.2080
G01 X0.8360 Y30.8580
G01 X0.8372 Y30.8825
G01 X0.8408 Y30.9068
G01 X0.8468 Y30.9306
G01 X0.8550 Y30.9537
G01 X0.8655 Y30.9759
G01 X0.8781 Y30.9969
G01 X0.8927 Y31.0166
G01 X0.9092 Y31.0348
G01 X0.9274 Y31.0513
G01 X0.9471 Y31.0659
G01 X0.9681 Y31.0785
G01 X0.9903 Y31.0890
G01 X1.0134 Y31.0972
G01 X1.0372 Y31.1032
G01 X1.0615 Y31.1068
G01 X1.0860 Y31.1080
G01 X1.9860 Y31.1080
G01 X2.0105 Y31.1068
G01 X2.0348 Y31.1032
G01 X2.0586 Y31.0972
G01 X2.0817 Y31.0890
G01 X2.1039 Y31.0785
G01 X2.1249 Y31.0659
G01 X2.1446 Y31.0513
G01 X2.1628 Y31.0348
G01 X2.1793 Y31.0166
G01 X2.1939 Y30.9969
G01 X2.2065 Y30.9759
G01 X2.2179 Y30.9512
G01 X4.9450 Y30.9510
G01 X4.9450 Y30.3510
G01 X2.2360 Y30.3508
G01 X2.2360 Y30.2080
G01 X2.2348 Y30.1835
G01 X2.2312 Y30.1592
G01 X2.2252 Y30.1354
G01 X2.2170 Y30.1123
G01 X2.2065 Y30.0901
G01 X2.1939 Y30.0691
G01 X2.1793 Y30.0494
G01 X2.1628 Y30.0312
G01 X2.1446 Y30.0147
G01 X2.1249 Y30.0001
G01 X2.1039 Y29.9875
G01 X2.0817 Y29.9770
G01 X2.0586 Y29.9688
G01 X2.0348 Y29.9628
G01 X2.0105 Y29.9592
G01 X1.9860 Y29.9580
G01 X1.0860 Y29.9580
G01 X1.0615 Y29.9592
G01 X1.0372 Y29.9628
G01 X1.0134 Y29.9688
G01 X0.9903 Y29.9770
G01 X0.9681 Y29.9875
G01 X0.9471 Y30.0001
G01 X0.9274 Y30.0147
G01 X0.9092 Y30.0312
G01 X0.8927 Y30.0494
G01 X0.8781 Y30.0691
G01 X0.8655 Y30.0901
G01 X0.8550 Y30.1123
G01 X0.8468 Y30.1354
G01 X0.8408 Y30.1592
G01 X0.8372 Y30.1835
G00 Z2.0000
G00 X8.7950 Y30.9510
G01 F350.00
G01 Z-0.1306
G01 F400.00
G01 X10.3450 Y30.9510
G01 X10.3450 Y30.3510
G01 X8.7950 Y30.3510
G01 X8.7950 Y30.9510
G01 X10.3450 Y30.9510
G00 Z2.0000
G00 X19.4358 Y30.3368
G01 F350.00
G01 Z-0.1306
G01 F400.00
G01 X19.4115 Y30.3332
G01 X19.3870 Y30.3320
G01 X19.3161 Y30.3320
G01 X19.3161 Y29.9084
G01 X19.4004 Y29.8241
G01 X19.7380 Y29.8241
G01 X19.9247 Y29.9014
G01 X20.0676 Y30.0443
G01 X20.1449 Y30.2310
G01 X20.1449 Y30.6936
G01 X20.0606 Y30.7779
G01 X19.6370 Y30.7779
G01 X19.6370 Y30.5820
G01 X19.6358 Y30.5575
G01 X19.6322 Y30.5332
G01 X19.6262 Y30.5094
G01 X19.6180 Y30.4863
G01 X19.6075 Y30.4641
G01 X19.5949 Y30.4431
G01 X19.5803 Y30.4234
G01 X19.5638 Y30.4052
G01 X19.5456 Y30.3887
G01 X19.5259 Y30.3741
G01 X19.5049 Y30.3615
G01 X19.4827 Y30.3510
G01 X19.4596 Y30.3428
G01 X19.4358 Y30.3368
G01 X19.4115 Y30.3332
G00 Z2.0000
G00 X19.4358 Y31.7272
G01 F350.00
G01 Z-0.1306
G01 F400.00
G01 X19.4596 Y31.7212
G01 X19.4827 Y31.7130
G01 X19.5049 Y31.7025
G01 X19.5259 Y31.6899
G01 X19.5456 Y31.6753
G01 X19.5638 Y31.6588
G01 X19.5803 Y31.6406
G01 X19.5949 Y31.6209
G01 X19.6075 Y31.5999
G01 X19.6180 Y31.5777
G01 X19.6262 Y31.5546
G01 X19.6322 Y31.5308
G01 X19.6358 Y31.5065
G01 X19.6370 Y31.4820
G01 X19.6370 Y31.2861
G01 X20.0606 Y31.2861
G01 X20.1449 Y31.3704
G01 X20.1449 Y31.8330
G01 X20.0760 Y31.9994
G01 X20.0713 Y32.0128
G01 X20.0682 Y32.0267
G01 X20.0666 Y32.0409
G01 X20.0666 Y32.0551
G01 X20.0682 Y32.0693
G01 X20.0713 Y32.0832
G01 X20.0760 Y32.0966
G01 X20.1449 Y32.2630
G01 X20.1449 Y32.7256
G01 X20.1067 Y32.7638
G01 X19.6370 Y32.7638
G01 X19.6370 Y32.6140
G01 X19.6358 Y32.5895
G01 X19.6322 Y32.5652
G01 X19.6262 Y32.5414
G01 X19.6180 Y32.5183
G01 X19.6075 Y32.4961
G01 X19.5949 Y32.4751
G01 X19.5803 Y32.4554
G01 X19.5638 Y32.4372
G01 X19.5456 Y32.4207
G01 X19.5259 Y32.4061
G01 X19.5049 Y32.3935
G01 X19.4827 Y32.3830
G01 X19.4596 Y32.3748
G01 X19.4358 Y32.3688
G01 X19.4115 Y32.3652
G01 X19.3870 Y32.3640
G01 X19.3161 Y32.3640
G01 X19.3161 Y31.7320
G01 X19.3870 Y31.7320
G01 X19.4115 Y31.7308
G01 X19.4358 Y31.7272
G01 X19.4596 Y31.7212
G00 Z2.0000
G00 X19.4358 Y33.7592
G01 F350.00
G01 Z-0.1306
G01 F400.00
G01 X19.4596 Y33.7532
G01 X19.4827 Y33.7450
G01 X19.5049 Y33.7345
G01 X19.5259 Y33.7219
G01 X19.5456 Y33.7073
G01 X19.5638 Y33.6908
G01 X19.5803 Y33.6726
G01 X19.5949 Y33.6529
G01 X19.6075 Y33.6319
G01 X19.6180 Y33.6097
G01 X19.6262 Y33.5866
G01 X19.6322 Y33.5628
G01 X19.6358 Y33.5385
G01 X19.6370 Y33.5140
G01 X19.6370 Y33.3642
G01 X20.1067 Y33.3642
G01 X20.1449 Y33.4024
G01 X20.1449 Y33.8650
G01 X20.0676 Y34.0517
G01 X19.9247 Y34.1946
G01 X19.7380 Y34.2719
G01 X19.4004 Y34.2719
G01 X19.3161 Y34.1876
G01 X19.3161 Y33.7640
G01 X19.3870 Y33.7640
G01 X19.4115 Y33.7628
G01 X19.4358 Y33.7592
G01 X19.4596 Y33.7532
G00 Z2.0000
G00 X28.8260 Y34.3341
G01 F350.00
G01 Z-0.1306
G01 F400.00
G01 X28.8289 Y34.3442
G01 X28.8632 Y34.4271
G01 X28.9066 Y34.5056
G01 X28.9585 Y34.5788
G01 X29.0183 Y34.6457
G01 X29.0852 Y34.7055
G01 X29.1584 Y34.7574
G01 X29.2369 Y34.8008
G01 X29.3198 Y34.8351
G01 X29.4060 Y34.8599
G01 X29.4944 Y34.8750
G01 X29.5840 Y34.8800
G01 X29.7299 Y34.8800
G01 X29.7299 Y35.3879
G01 X29.4752 Y35.3879
G01 X28.9775 Y35.2423
G01 X28.5788 Y34.9217
G01 X28.3301 Y34.4672
G01 X28.3262 Y34.4489
G01 X28.3893 Y34.3341
G01 X28.8260 Y34.3341
G01 X28.8289 Y34.3442
G00 Z2.0000
G00 X30.2381 Y34.8800
G01 F350.00
G01 Z-0.1306
G01 F400.00
G01 X30.3840 Y34.8800
G01 X30.4736 Y34.8750
G01 X30.5620 Y34.8599
G01 X30.6482 Y34.8351
G01 X30.7311 Y34.8008
G01 X30.8096 Y34.7574
G01 X30.8828 Y34.7055
G01 X30.9497 Y34.6457
G01 X31.0095 Y34.5788
G01 X31.0614 Y34.5056
G01 X31.1048 Y34.4271
G01 X31.1391 Y34.3442
G01 X31.1420 Y34.3341
G01 X31.5787 Y34.3341
G01 X31.6418 Y34.4489
G01 X31.6379 Y34.4672
G01 X31.3892 Y34.9217
G01 X30.9905 Y35.2423
G01 X30.4928 Y35.3879
G01 X30.2381 Y35.3879
G01 X30.2381 Y34.8800
G01 X30.3840 Y34.8800
G00 Z2.0000
G00 X28.8041 Y31.3620
G01 F350.00
G01 Z-0.1306
G01 F400.00
G01 X28.7890 Y31.4504
G01 X28.7840 Y31.5400
G01 X28.7890 Y31.6296
G01 X28.8041 Y31.7180
G01 X28.8289 Y31.8042
G01 X28.8632 Y31.8871
G01 X28.9066 Y31.9656
G01 X28.9585 Y32.0388
G01 X29.0183 Y32.1057
G01 X29.0852 Y32.1655
G01 X29.1584 Y32.2174
G01 X29.2369 Y32.2608
G01 X29.3198 Y32.2951
G01 X29.4060 Y32.3199
G01 X29.4944 Y32.3350
G01 X29.5840 Y32.3400
G01 X30.3840 Y32.3400
G01 X30.4736 Y32.3350
G01 X30.5620 Y32.3199
G01 X30.6482 Y32.2951
G01 X30.7311 Y32.2608
G01 X30.8096 Y32.2174
G01 X30.8828 Y32.1655
G01 X30.9497 Y32.1057
G01 X31.0095 Y32.0388
G01 X31.0614 Y31.9656
G01 X31.1048 Y31.8871
G01 X31.1391 Y31.8042
G01 X31.1639 Y31.7180
G01 X31.1790 Y31.6296
G01 X31.1840 Y31.5400
G01 X31.1790 Y31.4504
G01 X31.1639 Y31.3620
G01 X31.1391 Y31.2758
G01 X31.1048 Y31.1929
G01 X31.0614 Y31.1144
G01 X31.0095 Y31.0412
G01 X30.9497 Y30.9743
G01 X30.8828 Y30.9145
G01 X30.8096 Y30.8626
G01 X30.7311 Y30.8192
G01 X30.6482 Y30.7849
G01 X30.5620 Y30.7601
G01 X30.4736 Y30.7450
G01 X30.3840 Y30.7400
G01 X29.5840 Y30.7400
G01 X29.4944 Y30.7450
G01 X29.4060 Y30.7601
G01 X29.3198 Y30.7849
G01 X29.2369 Y30.8192
G01 X29.1584 Y30.8626
G01 X29.0852 Y30.9145
G01 X29.0183 Y30.9743
G01 X28.9585 Y31.0412
G01 X28.9066 Y31.1144
G01 X28.8632 Y31.1929
G01 X28.8289 Y31.2758
G01 X28.8041 Y31.3620
G01 X28.7890 Y31.4504
G00 Z2.0000
G00 X28.3932 Y29.2926
G01 F350.00
G01 Z-0.1306
G01 F400.00
G01 X28.4264 Y29.2983
G01 X28.4600 Y29.3002
G01 X28.8438 Y29.3002
G01 X28.8632 Y29.3471
G01 X28.9066 Y29.4256
G01 X28.9585 Y29.4988
G01 X29.0183 Y29.5657
G01 X29.0852 Y29.6255
G01 X29.1584 Y29.6774
G01 X29.2369 Y29.7208
G01 X29.3198 Y29.7551
G01 X29.4060 Y29.7799
G01 X29.4944 Y29.7950
G01 X29.5840 Y29.8000
G01 X30.3840 Y29.8000
G01 X30.4736 Y29.7950
G01 X30.5620 Y29.7799
G01 X30.6482 Y29.7551
G01 X30.7311 Y29.7208
G01 X30.8096 Y29.6774
G01 X30.8828 Y29.6255
G01 X30.9497 Y29.5657
G01 X31.0095 Y29.4988
G01 X31.0614 Y29.4256
G01 X31.1048 Y29.3471
G01 X31.1391 Y29.2642
G01 X31.1420 Y29.2541
G01 X31.5787 Y29.2541
G01 X31.6418 Y29.3689
G01 X31.6379 Y29.3872
G01 X31.3892 Y29.8417
G01 X30.9829 Y30.1685
G01 X30.9725 Y30.1779
G01 X30.9631 Y30.1883
G01 X30.9550 Y30.1997
G01 X30.9482 Y30.2120
G01 X30.9428 Y30.2249
G01 X30.9388 Y30.2383
G01 X30.9364 Y30.2521
G01 X30.9354 Y30.2661
G01 X30.9361 Y30.2801
G01 X30.9382 Y30.2939
G01 X30.9419 Y30.3075
G01 X30.9470 Y30.3205
G01 X30.9536 Y30.3329
G01 X30.9614 Y30.3445
G01 X30.9705 Y30.3551
G01 X30.9807 Y30.3647
G01 X30.9919 Y30.3732
G01 X31.3270 Y30.5970
G01 X31.6160 Y31.0297
G01 X31.7176 Y31.5400
G01 X31.6160 Y32.0503
G01 X31.3270 Y32.4830
G01 X30.9919 Y32.7068
G01 X30.9807 Y32.7153
G01 X30.9705 Y32.7249
G01 X30.9614 Y32.7355
G01 X30.9536 Y32.7471
G01 X30.9470 Y32.7595
G01 X30.9419 Y32.7725
G01 X30.9382 Y32.7861
G01 X30.9361 Y32.7999
G01 X30.9354 Y32.8139
G01 X30.9364 Y32.8279
G01 X30.9388 Y32.8417
G01 X30.9428 Y32.8551
G01 X30.9482 Y32.8680
G01 X30.9550 Y32.8803
G01 X30.9631 Y32.8917
G01 X30.9725 Y32.9021
G01 X30.9829 Y32.9115
G01 X31.3892 Y33.2383
G01 X31.6379 Y33.6928
G01 X31.6418 Y33.7111
G01 X31.5787 Y33.8259
G01 X31.1420 Y33.8259
G01 X31.1391 Y33.8158
G01 X31.1048 Y33.7329
G01 X31.0614 Y33.6544
G01 X31.0095 Y33.5812
G01 X30.9497 Y33.5143
G01 X30.8828 Y33.4545
G01 X30.8096 Y33.4026
G01 X30.7311 Y33.3592
G01 X30.6482 Y33.3249
G01 X30.5620 Y33.3001
G01 X30.4736 Y33.2850
G01 X30.3840 Y33.2800
G01 X29.5840 Y33.2800
G01 X29.4944 Y33.2850
G01 X29.4060 Y33.3001
G01 X29.3198 Y33.3249
G01 X29.2369 Y33.3592
G01 X29.1584 Y33.4026
G01 X29.0852 Y33.4545
G01 X29.0183 Y33.5143
G01 X28.9585 Y33.5812
G01 X28.9066 Y33.6544
G01 X28.8632 Y33.7329
G01 X28.8289 Y33.8158
G01 X28.8260 Y33.8259
G01 X28.3893 Y33.8259
G01 X28.3262 Y33.7111
G01 X28.3301 Y33.6928
G01 X28.5788 Y33.2383
G01 X28.9851 Y32.9115
G01 X28.9955 Y32.9021
G01 X29.0049 Y32.8917
G01 X29.0130 Y32.8803
G01 X29.0198 Y32.8680
G01 X29.0252 Y32.8551
G01 X29.0292 Y32.8417
G01 X29.0316 Y32.8279
G01 X29.0326 Y32.8139
G01 X29.0319 Y32.7999
G01 X29.0298 Y32.7861
G01 X29.0261 Y32.7725
G01 X29.0210 Y32.7595
G01 X29.0144 Y32.7471
G01 X29.0066 Y32.7355
G01 X28.9975 Y32.7249
G01 X28.9873 Y32.7153
G01 X28.9761 Y32.7068
G01 X28.6410 Y32.4830
G01 X28.3520 Y32.0503
G01 X28.2504 Y31.5400
G01 X28.3520 Y31.0297
G01 X28.6410 Y30.5970
G01 X28.9761 Y30.3732
G01 X28.9873 Y30.3647
G01 X28.9975 Y30.3551
G01 X29.0066 Y30.3445
G01 X29.0144 Y30.3329
G01 X29.0210 Y30.3205
G01 X29.0261 Y30.3075
G01 X29.0298 Y30.2939
G01 X29.0319 Y30.2801
G01 X29.0326 Y30.2661
G01 X29.0316 Y30.2521
G01 X29.0292 Y30.2383
G01 X29.0252 Y30.2249
G01 X29.0198 Y30.2120
G01 X29.0130 Y30.1997
G01 X29.0049 Y30.1883
G01 X28.9955 Y30.1779
G01 X28.9851 Y30.1685
G01 X28.5788 Y29.8417
G01 X28.3301 Y29.3872
G01 X28.3262 Y29.3689
G01 X28.3715 Y29.2864
G01 X28.3932 Y29.2926
G01 X28.4264 Y29.2983
G00 Z2.0000
G00 X28.5843 Y28.6998
G01 F350.00
G01 Z-0.1306
G01 F400.00
G01 X28.3892 Y28.5047
G01 X28.5788 Y28.1583
G01 X28.9851 Y27.8315
G01 X28.9955 Y27.8221
G01 X29.0049 Y27.8117
G01 X29.0130 Y27.8003
G01 X29.0198 Y27.7880
G01 X29.0252 Y27.7751
G01 X29.0292 Y27.7617
G01 X29.0316 Y27.7479
G01 X29.0326 Y27.7339
G01 X29.0319 Y27.7199
G01 X29.0298 Y27.7061
G01 X29.0261 Y27.6925
G01 X29.0210 Y27.6795
G01 X29.0144 Y27.6671
G01 X29.0066 Y27.6555
G01 X28.9975 Y27.6449
G01 X28.9873 Y27.6353
G01 X28.9761 Y27.6268
G01 X28.6410 Y27.4030
G01 X28.3520 Y26.9703
G01 X28.2504 Y26.4600
G01 X28.3520 Y25.9497
G01 X28.6410 Y25.5170
G01 X29.0737 Y25.2280
G01 X29.1061 Y25.2209
G01 X29.1179 Y25.2167
G01 X29.1291 Y25.2113
G01 X29.1398 Y25.2049
G01 X29.1608 Y25.1909
G01 X29.4760 Y25.1282
G01 X29.5835 Y25.1496
G01 X29.5958 Y25.1515
G01 X29.6083 Y25.1521
G01 X30.5128 Y25.1521
G01 X30.8943 Y25.2280
G01 X31.3270 Y25.5170
G01 X31.6160 Y25.9497
G01 X31.7176 Y26.4600
G01 X31.6160 Y26.9703
G01 X31.3270 Y27.4030
G01 X30.9919 Y27.6268
G01 X30.9807 Y27.6353
G01 X30.9705 Y27.6449
G01 X30.9614 Y27.6555
G01 X30.9536 Y27.6671
G01 X30.9470 Y27.6795
G01 X30.9419 Y27.6925
G01 X30.9382 Y27.7061
G01 X30.9361 Y27.7199
G01 X30.9354 Y27.7339
G01 X30.9364 Y27.7479
G01 X30.9388 Y27.7617
G01 X30.9428 Y27.7751
G01 X30.9482 Y27.7880
G01 X30.9550 Y27.8003
G01 X30.9631 Y27.8117
G01 X30.9725 Y27.8221
G01 X30.9829 Y27.8315
G01 X31.3892 Y28.1583
G01 X31.6379 Y28.6128
G01 X31.6418 Y28.6311
G01 X31.5787 Y28.7459
G01 X31.1420 Y28.7459
G01 X31.1391 Y28.7358
G01 X31.1048 Y28.6529
G01 X31.0614 Y28.5744
G01 X31.0095 Y28.5012
G01 X30.9497 Y28.4343
G01 X30.8828 Y28.3745
G01 X30.8096 Y28.3226
G01 X30.7311 Y28.2792
G01 X30.6482 Y28.2449
G01 X30.5620 Y28.2201
G01 X30.4736 Y28.2050
G01 X30.3840 Y28.2000
G01 X29.5840 Y28.2000
G01 X29.4944 Y28.2050
G01 X29.4060 Y28.2201
G01 X29.3198 Y28.2449
G01 X29.2369 Y28.2792
G01 X29.1584 Y28.3226
G01 X29.0852 Y28.3745
G01 X29.0183 Y28.4343
G01 X28.9585 Y28.5012
G01 X28.9066 Y28.5744
G01 X28.8632 Y28.6529
G01 X28.8438 Y28.6998
G01 X28.5843 Y28.6998
G01 X28.3892 Y28.5047
G00 Z2.0000
G00 X28.8041 Y26.2820
G01 F350.00
G01 Z-0.1306
G01 F400.00
G01 X28.7890 Y26.3704
G01 X28.7840 Y26.4600
G01 X28.7890 Y26.5496
G01 X28.8041 Y26.6380
G01 X28.8289 Y26.7242
G01 X28.8632 Y26.8071
G01 X28.9066 Y26.8856
G01 X28.9585 Y26.9588
G01 X29.0183 Y27.0257
G01 X29.0852 Y27.0855
G01 X29.1584 Y27.1374
G01 X29.2369 Y27.1808
G01 X29.3198 Y27.2151
G01 X29.4060 Y27.2399
G01 X29.4944 Y27.2550
G01 X29.5840 Y27.2600
G01 X30.3840 Y27.2600
G01 X30.4736 Y27.2550
G01 X30.5620 Y27.2399
G01 X30.6482 Y27.2151
G01 X30.7311 Y27.1808
G01 X30.8096 Y27.1374
G01 X30.8828 Y27.0855
G01 X30.9497 Y27.0257
G01 X31.0095 Y26.9588
G01 X31.0614 Y26.8856
G01 X31.1048 Y26.8071
G01 X31.1391 Y26.7242
G01 X31.1639 Y26.6380
G01 X31.1790 Y26.5496
G01 X31.1840 Y26.4600
G01 X31.1790 Y26.3704
G01 X31.1639 Y26.2820
G01 X31.1391 Y26.1958
G01 X31.1048 Y26.1129
G01 X31.0614 Y26.0344
G01 X31.0095 Y25.9612
G01 X30.9497 Y25.8943
G01 X30.8828 Y25.8345
G01 X30.8096 Y25.7826
G01 X30.7311 Y25.7392
G01 X30.6482 Y25.7049
G01 X30.5620 Y25.6801
G01 X30.4736 Y25.6650
G01 X30.3840 Y25.6600
G01 X29.5840 Y25.6600
G01 X29.5513 Y25.6618
G01 X29.5428 Y25.6594
G01 X29.5096 Y25.6537
G01 X29.4760 Y25.6518
G01 X29.4424 Y25.6537
G01 X29.4092 Y25.6594
G01 X29.3769 Y25.6687
G01 X29.3458 Y25.6816
G01 X29.3163 Y25.6979
G01 X29.2881 Y25.7180
G01 X29.2369 Y25.7392
G01 X29.1584 Y25.7826
G01 X29.0852 Y25.8345
G01 X29.0183 Y25.8943
G01 X28.9585 Y25.9612
G01 X28.9066 Y26.0344
G01 X28.8632 Y26.1129
G01 X28.8289 Y26.1958
G01 X28.8041 Y26.2820
G01 X28.7890 Y26.3704
G00 Z2.0000
G00 X29.7280 Y21.2440
G01 F350.00
G01 Z-0.1306
G01 F400.00
G01 X29.7280 Y23.2440
G01 X31.2280 Y23.2440
G01 X31.2280 Y21.2440
G01 X29.7280 Y21.2440
G01 X29.7280 Y23.2440
G00 Z2.0000
G00 X31.5690 Y20.8600
G01 F350.00
G01 Z-0.1306
G01 F400.00
G01 X31.5823 Y20.8658
G01 X31.5962 Y20.8702
G01 X31.6105 Y20.8729
G01 X31.6250 Y20.8740
G01 X31.6395 Y20.8734
G01 X31.6539 Y20.8711
G01 X31.6679 Y20.8672
G01 X31.6814 Y20.8618
G01 X31.6941 Y20.8548
G01 X31.7060 Y20.8465
G01 X31.7169 Y20.8368
G01 X31.7403 Y20.8134
G01 X31.9270 Y20.7361
G01 X32.4396 Y20.7361
G01 X32.5239 Y20.8204
G01 X32.5239 Y21.2440
G01 X32.0280 Y21.2440
G01 X32.0280 Y23.2440
G01 X32.5239 Y23.2440
G01 X32.5239 Y23.6676
G01 X32.4396 Y23.7519
G01 X31.9270 Y23.7519
G01 X31.7403 Y23.6746
G01 X31.7169 Y23.6512
G01 X31.7060 Y23.6415
G01 X31.6941 Y23.6332
G01 X31.6814 Y23.6262
G01 X31.6679 Y23.6208
G01 X31.6539 Y23.6169
G01 X31.6395 Y23.6146
G01 X31.6250 Y23.6140
G01 X31.6105 Y23.6151
G01 X31.5962 Y23.6178
G01 X31.5823 Y23.6222
G01 X31.5690 Y23.6280
G01 X31.5565 Y23.6354
G01 X31.4262 Y23.7225
G01 X31.2155 Y23.7644
G01 X29.7405 Y23.7644
G01 X29.5298 Y23.7225
G01 X29.3618 Y23.6102
G01 X29.2495 Y23.4422
G01 X29.2076 Y23.2315
G01 X29.2076 Y21.2565
G01 X29.2495 Y21.0458
G01 X29.3618 Y20.8778
G01 X29.5298 Y20.7655
G01 X29.7405 Y20.7236
G01 X31.2155 Y20.7236
G01 X31.4262 Y20.7655
G01 X31.5565 Y20.8526
G01 X31.5690 Y20.8600
G01 X31.5823 Y20.8658
G00 Z2.0000
G00 X34.3280 Y21.2440
G01 F350.00
G01 Z-0.1306
G01 F400.00
G01 X34.3280 Y23.2440
G01 X35.8280 Y23.2440
G01 X35.8280 Y21.9185
G01 X36.3203 Y21.4262
G01 X37.6660 Y21.4262
G01 X37.6660 Y21.4510
G01 X37.6672 Y21.4755
G01 X37.6708 Y21.4998
G01 X37.6768 Y21.5236
G01 X37.6850 Y21.5467
G01 X37.6955 Y21.5689
G01 X37.7081 Y21.5899
G01 X37.7227 Y21.6096
G01 X37.7392 Y21.6278
G01 X37.7574 Y21.6443
G01 X37.7771 Y21.6589
G01 X37.7981 Y21.6715
G01 X37.8203 Y21.6820
G01 X37.8434 Y21.6902
G01 X37.8672 Y21.6962
G01 X37.8915 Y21.6998
G01 X37.9160 Y21.7010
G01 X38.8160 Y21.7010
G01 X38.8405 Y21.6998
G01 X38.8648 Y21.6962
G01 X38.8886 Y21.6902
G01 X38.9117 Y21.6820
G01 X38.9339 Y21.6715
G01 X38.9549 Y21.6589
G01 X38.9746 Y21.6443
G01 X38.9928 Y21.6278
G01 X39.0093 Y21.6096
G01 X39.0239 Y21.5899
G01 X39.0365 Y21.5689
G01 X39.0470 Y21.5467
G01 X39.0552 Y21.5236
G01 X39.0612 Y21.4998
G01 X39.0648 Y21.4755
G01 X39.0660 Y21.4510
G01 X39.0660 Y21.4262
G01 X50.9274 Y21.4262
G01 X50.9610 Y21.4243
G01 X50.9942 Y21.4186
G01 X51.0265 Y21.4093
G01 X51.0576 Y21.3964
G01 X51.0871 Y21.3801
G01 X51.1145 Y21.3607
G01 X51.1396 Y21.3382
G01 X58.3797 Y14.0982
G01 X67.0426 Y14.0982
G01 X67.6547 Y14.7102
G01 X67.6798 Y14.7327
G01 X67.7073 Y14.7522
G01 X67.7367 Y14.7684
G01 X67.7678 Y14.7813
G01 X67.8002 Y14.7906
G01 X67.8334 Y14.7963
G01 X67.8670 Y14.7982
G01 X68.3286 Y14.7982
G01 X68.3373 Y14.8283
G01 X68.3802 Y14.9319
G01 X68.4345 Y15.0300
G01 X68.4993 Y15.1215
G01 X68.5741 Y15.2051
G01 X68.6577 Y15.2798
G01 X68.7491 Y15.3447
G01 X68.8473 Y15.3990
G01 X68.9509 Y15.4419
G01 X69.0587 Y15.4729
G01 X69.1692 Y15.4917
G01 X69.2812 Y15.4980
G01 X69.3931 Y15.4917
G01 X69.5037 Y15.4729
G01 X69.6115 Y15.4419
G01 X69.7151 Y15.3990
G01 X69.8132 Y15.3447
G01 X69.9047 Y15.2798
G01 X69.9883 Y15.2051
G01 X70.0630 Y15.1215
G01 X70.1279 Y15.0300
G01 X70.1821 Y14.9319
G01 X70.2251 Y14.8283
G01 X70.2561 Y14.7205
G01 X70.2749 Y14.6100
G01 X70.2812 Y14.4980
G01 X70.2749 Y14.3860
G01 X70.2561 Y14.2755
G01 X70.2251 Y14.1677
G01 X70.1821 Y14.0641
G01 X70.1279 Y13.9660
G01 X70.0630 Y13.8745
G01 X69.9883 Y13.7909
G01 X69.9047 Y13.7162
G01 X69.8132 Y13.6513
G01 X69.7151 Y13.5970
G01 X69.6115 Y13.5541
G01 X69.5037 Y13.5231
G01 X69.3931 Y13.5043
G01 X69.2812 Y13.4980
G01 X69.1692 Y13.5043
G01 X69.0587 Y13.5231
G01 X68.9509 Y13.5541
G01 X68.8473 Y13.5970
G01 X68.7491 Y13.6513
G01 X68.6577 Y13.7162
G01 X68.5741 Y13.7909
G01 X68.4993 Y13.8745
G01 X68.4345 Y13.9660
G01 X68.3802 Y14.0641
G01 X68.3373 Y14.1677
G01 X68.3286 Y14.1979
G01 X67.9913 Y14.1979
G01 X67.3792 Y13.5858
G01 X67.3541 Y13.5633
G01 X67.3267 Y13.5439
G01 X67.2972 Y13.5276
G01 X67.2661 Y13.5147
G01 X67.2338 Y13.5054
G01 X67.2006 Y13.4997
G01 X67.1670 Y13.4979
G01 X58.2554 Y13.4979
G01 X58.2218 Y13.4997
G01 X58.1886 Y13.5054
G01 X58.1562 Y13.5147
G01 X58.1251 Y13.5276
G01 X58.0957 Y13.5439
G01 X58.0682 Y13.5633
G01 X58.0431 Y13.5858
G01 X50.8031 Y20.8258
G01 X39.0660 Y20.8258
G01 X39.0660 Y20.8010
G01 X39.0648 Y20.7765
G01 X39.0612 Y20.7522
G01 X39.0552 Y20.7284
G01 X39.0470 Y20.7053
G01 X39.0365 Y20.6831
G01 X39.0239 Y20.6621
G01 X39.0093 Y20.6424
G01 X38.9928 Y20.6242
G01 X38.9746 Y20.6077
G01 X38.9549 Y20.5931
G01 X38.9339 Y20.5805
G01 X38.9117 Y20.5700
G01 X38.8886 Y20.5618
G01 X38.8648 Y20.5558
G01 X38.8405 Y20.5522
G01 X38.8160 Y20.5510
G01 X37.9160 Y20.5510
G01 X37.8915 Y20.5522
G01 X37.8672 Y20.5558
G01 X37.8434 Y20.5618
G01 X37.8203 Y20.5700
G01 X37.7981 Y20.5805
G01 X37.7771 Y20.5931
G01 X37.7574 Y20.6077
G01 X37.7392 Y20.6242
G01 X37.7227 Y20.6424
G01 X37.7081 Y20.6621
G01 X37.6955 Y20.6831
G01 X37.6850 Y20.7053
G01 X37.6768 Y20.7284
G01 X37.6708 Y20.7522
G01 X37.6672 Y20.7765
G01 X37.6660 Y20.8010
G01 X37.6660 Y20.8258
G01 X36.1960 Y20.8258
G01 X36.1624 Y20.8277
G01 X36.1292 Y20.8334
G01 X36.0969 Y20.8427
G01 X36.0658 Y20.8556
G01 X36.0363 Y20.8719
G01 X36.0089 Y20.8913
G01 X35.9838 Y20.9138
G01 X35.6535 Y21.2440
G01 X34.3280 Y21.2440
G01 X34.3280 Y23.2440
G00 Z2.0000
G00 X34.6780 Y16.9440
G01 F350.00
G01 Z-0.1306
G01 F400.00
G01 X34.6780 Y16.1981
G01 X35.1016 Y16.1981
G01 X35.1859 Y16.2824
G01 X35.1859 Y17.0450
G01 X35.1086 Y17.2317
G01 X34.9657 Y17.3746
G01 X34.7790 Y17.4519
G01 X33.1164 Y17.4519
G01 X33.0321 Y17.3676
G01 X33.0321 Y16.9440
G01 X34.6780 Y16.9440
G01 X34.6780 Y16.1981
G00 Z2.0000
G00 X34.6780 Y14.9440
G01 F350.00
G01 Z-0.1306
G01 F400.00
G01 X33.0321 Y14.9440
G01 X33.0321 Y14.5204
G01 X33.1164 Y14.4361
G01 X34.7790 Y14.4361
G01 X34.9657 Y14.5134
G01 X35.1086 Y14.6563
G01 X35.1859 Y14.8430
G01 X35.1859 Y15.6056
G01 X35.1016 Y15.6899
G01 X34.6780 Y15.6899
G01 X34.6780 Y14.9440
G01 X33.0321 Y14.9440
G00 Z2.0000
G00 X30.8780 Y14.9440
G01 F350.00
G01 Z-0.1306
G01 F400.00
G01 X30.8780 Y15.6899
G01 X30.4544 Y15.6899
G01 X30.3701 Y15.6056
G01 X30.3701 Y14.8430
G01 X30.4474 Y14.6563
G01 X30.5903 Y14.5134
G01 X30.7770 Y14.4361
G01 X32.4396 Y14.4361
G01 X32.5239 Y14.5204
G01 X32.5239 Y14.9440
G01 X30.8780 Y14.9440
G01 X30.8780 Y15.6899
G00 Z2.0000
G00 X30.8780 Y16.9440
G01 F350.00
G01 Z-0.1306
G01 F400.00
G01 X32.5239 Y16.9440
G01 X32.5239 Y17.3676
G01 X32.4396 Y17.4519
G01 X30.7770 Y17.4519
G01 X30.5903 Y17.3746
G01 X30.4474 Y17.2317
G01 X30.3701 Y17.0450
G01 X30.3701 Y16.2824
G01 X30.4544 Y16.1981
G01 X30.8780 Y16.1981
G01 X30.8780 Y16.9440
G01 X32.5239 Y16.9440
G00 Z2.0000
G00 X34.6235 Y9.7230
G01 F350.00
G01 Z-0.1306
G01 F400.00
G01 X34.6235 Y7.8570
G01 X34.9688 Y7.5116
G01 X35.5231 Y7.2821
G01 X36.1229 Y7.2821
G01 X36.6772 Y7.5116
G01 X37.1014 Y7.9358
G01 X37.3309 Y8.4901
G01 X37.3309 Y9.0899
G01 X37.1014 Y9.6442
G01 X36.6772 Y10.0684
G01 X36.1229 Y10.2979
G01 X35.5231 Y10.2979
G01 X34.9688 Y10.0684
G01 X34.6235 Y9.7230
G01 X34.6235 Y7.8570
G00 Z2.0000
G00 X41.1268 Y9.3272
G01 F350.00
G01 Z-0.1306
G01 F400.00
G01 X41.1232 Y9.3515
G01 X41.1220 Y9.3760
G01 X41.1220 Y10.3719
G01 X40.6984 Y10.3719
G01 X40.6141 Y10.2876
G01 X40.6141 Y9.0250
G01 X40.6914 Y8.8383
G01 X40.8343 Y8.6954
G01 X41.0210 Y8.6181
G01 X41.5836 Y8.6181
G01 X41.6679 Y8.7024
G01 X41.6679 Y9.1260
G01 X41.3720 Y9.1260
G01 X41.3475 Y9.1272
G01 X41.3232 Y9.1308
G01 X41.2994 Y9.1368
G01 X41.2763 Y9.1450
G01 X41.2542 Y9.1555
G01 X41.2331 Y9.1681
G01 X41.2134 Y9.1827
G01 X41.1952 Y9.1992
G01 X41.1787 Y9.2174
G01 X41.1641 Y9.2371
G01 X41.1515 Y9.2582
G01 X41.1410 Y9.2803
G01 X41.1328 Y9.3034
G01 X41.1268 Y9.3272
G01 X41.1232 Y9.3515
G00 Z2.0000
G00 X42.5208 Y9.1308
G01 F350.00
G01 Z-0.1306
G01 F400.00
G01 X42.4965 Y9.1272
G01 X42.4720 Y9.1260
G01 X42.1761 Y9.1260
G01 X42.1761 Y8.7024
G01 X42.2604 Y8.6181
G01 X42.8230 Y8.6181
G01 X43.0097 Y8.6954
G01 X43.1526 Y8.8383
G01 X43.2299 Y9.0250
G01 X43.2299 Y10.2876
G01 X43.1456 Y10.3719
G01 X42.7220 Y10.3719
G01 X42.7220 Y9.3760
G01 X42.7208 Y9.3515
G01 X42.7172 Y9.3272
G01 X42.7112 Y9.3034
G01 X42.7030 Y9.2803
G01 X42.6925 Y9.2582
G01 X42.6799 Y9.2371
G01 X42.6653 Y9.2174
G01 X42.6488 Y9.1992
G01 X42.6306 Y9.1827
G01 X42.6109 Y9.1681
G01 X42.5898 Y9.1555
G01 X42.5677 Y9.1450
G01 X42.5446 Y9.1368
G01 X42.5208 Y9.1308
G01 X42.4965 Y9.1272
G00 Z2.0000
G00 X41.1220 Y10.8801
G01 F350.00
G01 Z-0.1306
G01 F400.00
G01 X41.1220 Y11.8760
G01 X41.1232 Y11.9005
G01 X41.1268 Y11.9248
G01 X41.1328 Y11.9486
G01 X41.1410 Y11.9717
G01 X41.1515 Y11.9938
G01 X41.1641 Y12.0149
G01 X41.1787 Y12.0346
G01 X41.1952 Y12.0528
G01 X41.2134 Y12.0693
G01 X41.2331 Y12.0839
G01 X41.2542 Y12.0965
G01 X41.2763 Y12.1070
G01 X41.2994 Y12.1152
G01 X41.3232 Y12.1212
G01 X41.3475 Y12.1248
G01 X41.3720 Y12.1260
G01 X41.6679 Y12.1260
G01 X41.6679 Y12.5496
G01 X41.5836 Y12.6339
G01 X41.0210 Y12.6339
G01 X40.8343 Y12.5566
G01 X40.6914 Y12.4137
G01 X40.6141 Y12.2270
G01 X40.6141 Y10.9644
G01 X40.6984 Y10.8801
G01 X41.1220 Y10.8801
G01 X41.1220 Y11.8760
G00 Z2.0000
G00 X42.5208 Y12.1212
G01 F350.00
G01 Z-0.1306
G01 F400.00
G01 X42.5446 Y12.1152
G01 X42.5677 Y12.1070
G01 X42.5898 Y12.0965
G01 X42.6109 Y12.0839
G01 X42.6306 Y12.0693
G01 X42.6488 Y12.0528
G01 X42.6653 Y12.0346
G01 X42.6799 Y12.0149
G01 X42.6925 Y11.9938
G01 X42.7030 Y11.9717
G01 X42.7112 Y11.9486
G01 X42.7172 Y11.9248
G01 X42.7208 Y11.9005
G01 X42.7220 Y11.8760
G01 X42.7220 Y10.8801
G01 X43.1456 Y10.8801
G01 X43.2299 Y10.9644
G01 X43.2299 Y12.2270
G01 X43.1526 Y12.4137
G01 X43.0097 Y12.5566
G01 X42.8230 Y12.6339
G01 X42.2604 Y12.6339
G01 X42.1761 Y12.5496
G01 X42.1761 Y12.1260
G01 X42.4720 Y12.1260
G01 X42.4965 Y12.1248
G01 X42.5208 Y12.1212
G01 X42.5446 Y12.1152
G00 Z2.0000
G00 X40.7629 Y17.3619
G01 F350.00
G01 Z-0.1306
G01 F400.00
G01 X40.5334 Y17.9162
G01 X40.1092 Y18.3404
G01 X39.5549 Y18.5699
G01 X38.9551 Y18.5699
G01 X38.4008 Y18.3404
G01 X37.9766 Y17.9162
G01 X37.7471 Y17.3619
G01 X37.7471 Y16.7621
G01 X37.9766 Y16.2078
G01 X38.4008 Y15.7836
G01 X38.9551 Y15.5541
G01 X39.5549 Y15.5541
G01 X40.1092 Y15.7836
G01 X40.5334 Y16.2078
G01 X40.7629 Y16.7621
G01 X40.7629 Y17.3619
G01 X40.5334 Y17.9162
G00 Z2.0000
G00 X45.1131 Y17.3619
G01 F350.00
G01 Z-0.1306
G01 F400.00
G01 X45.1131 Y16.7621
G01 X45.3426 Y16.2078
G01 X45.7668 Y15.7836
G01 X46.3211 Y15.5541
G01 X46.9209 Y15.5541
G01 X47.4752 Y15.7836
G01 X47.8994 Y16.2078
G01 X48.1289 Y16.7621
G01 X48.1289 Y17.3619
G01 X47.8994 Y17.9162
G01 X47.4752 Y18.3404
G01 X46.9209 Y18.5699
G01 X46.3211 Y18.5699
G01 X45.7668 Y18.3404
G01 X45.3426 Y17.9162
G01 X45.1131 Y17.3619
G01 X45.1131 Y16.7621
G00 Z2.0000
G00 X52.8748 Y23.1331
G01 F350.00
G01 Z-0.1306
G01 F400.00
G01 X52.8607 Y23.2160
G01 X52.8560 Y23.3000
G01 X52.8560 Y23.8000
G01 X52.8607 Y23.8840
G01 X52.8748 Y23.9669
G01 X52.8981 Y24.0477
G01 X52.9303 Y24.1254
G01 X52.9710 Y24.1990
G01 X53.0196 Y24.2676
G01 X53.0757 Y24.3303
G01 X53.1384 Y24.3864
G01 X53.2070 Y24.4350
G01 X53.2806 Y24.4757
G01 X53.3583 Y24.5079
G01 X53.4391 Y24.5312
G01 X53.5220 Y24.5453
G01 X53.6060 Y24.5500
G01 X53.6900 Y24.5453
G01 X53.7729 Y24.5312
G01 X53.8537 Y24.5079
G01 X53.9314 Y24.4757
G01 X54.0050 Y24.4350
G01 X54.0736 Y24.3864
G01 X54.1363 Y24.3303
G01 X54.1924 Y24.2676
G01 X54.2410 Y24.1990
G01 X54.2817 Y24.1254
G01 X54.3139 Y24.0477
G01 X54.3372 Y23.9669
G01 X54.3513 Y23.8840
G01 X54.3560 Y23.8000
G01 X54.3560 Y23.3000
G01 X54.3513 Y23.2160
G01 X54.3372 Y23.1331
G01 X54.3139 Y23.0523
G01 X54.2817 Y22.9746
G01 X54.2410 Y22.9010
G01 X54.1924 Y22.8324
G01 X54.1363 Y22.7697
G01 X54.0736 Y22.7136
G01 X54.0050 Y22.6650
G01 X53.9314 Y22.6243
G01 X53.8537 Y22.5921
G01 X53.7729 Y22.5688
G01 X53.6900 Y22.5547
G01 X53.6060 Y22.5500
G01 X53.5220 Y22.5547
G01 X53.4391 Y22.5688
G01 X53.3583 Y22.5921
G01 X53.2806 Y22.6243
G01 X53.2070 Y22.6650
G01 X53.1384 Y22.7136
G01 X53.0757 Y22.7697
G01 X53.0196 Y22.8324
G01 X52.9710 Y22.9010
G01 X52.9303 Y22.9746
G01 X52.8981 Y23.0523
G01 X52.8748 Y23.1331
G01 X52.8607 Y23.2160
G00 Z2.0000
G00 X54.1847 Y22.1303
G01 F350.00
G01 Z-0.1306
G01 F400.00
G01 X54.1883 Y22.1439
G01 X54.1935 Y22.1569
G01 X54.2000 Y22.1693
G01 X54.2079 Y22.1809
G01 X54.2170 Y22.1916
G01 X54.2272 Y22.2012
G01 X54.2384 Y22.2096
G01 X54.5129 Y22.3931
G01 X54.7704 Y22.7783
G01 X54.7792 Y22.7901
G01 X54.7893 Y22.8007
G01 X54.8006 Y22.8100
G01 X54.8129 Y22.8180
G01 X54.8260 Y22.8246
G01 X54.8398 Y22.8296
G01 X54.8541 Y22.8329
G01 X54.8687 Y22.8346
G01 X54.8833 Y22.8346
G01 X54.8979 Y22.8329
G01 X54.9122 Y22.8296
G01 X54.9260 Y22.8246
G01 X54.9391 Y22.8180
G01 X54.9514 Y22.8100
G01 X54.9627 Y22.8007
G01 X54.9728 Y22.7901
G01 X54.9816 Y22.7783
G01 X55.2391 Y22.3931
G01 X55.6552 Y22.1151
G01 X56.1460 Y22.0174
G01 X56.6368 Y22.1151
G01 X57.0529 Y22.3931
G01 X57.3104 Y22.7783
G01 X57.3192 Y22.7901
G01 X57.3293 Y22.8007
G01 X57.3406 Y22.8100
G01 X57.3529 Y22.8180
G01 X57.3660 Y22.8246
G01 X57.3798 Y22.8296
G01 X57.3941 Y22.8329
G01 X57.4087 Y22.8346
G01 X57.4233 Y22.8346
G01 X57.4379 Y22.8329
G01 X57.4522 Y22.8296
G01 X57.4660 Y22.8246
G01 X57.4791 Y22.8180
G01 X57.4914 Y22.8100
G01 X57.5027 Y22.8007
G01 X57.5128 Y22.7901
G01 X57.5216 Y22.7783
G01 X57.7791 Y22.3931
G01 X58.1952 Y22.1151
G01 X58.6860 Y22.0174
G01 X59.1768 Y22.1151
G01 X59.5929 Y22.3931
G01 X59.8504 Y22.7783
G01 X59.8592 Y22.7901
G01 X59.8693 Y22.8007
G01 X59.8806 Y22.8100
G01 X59.8929 Y22.8180
G01 X59.9060 Y22.8246
G01 X59.9198 Y22.8296
G01 X59.9341 Y22.8329
G01 X59.9487 Y22.8346
G01 X59.9633 Y22.8346
G01 X59.9779 Y22.8329
G01 X59.9922 Y22.8296
G01 X60.0060 Y22.8246
G01 X60.0191 Y22.8180
G01 X60.0314 Y22.8100
G01 X60.0427 Y22.8007
G01 X60.0528 Y22.7901
G01 X60.0616 Y22.7783
G01 X60.3191 Y22.3931
G01 X60.7352 Y22.1151
G01 X61.2260 Y22.0174
G01 X61.7168 Y22.1151
G01 X62.1329 Y22.3931
G01 X62.3904 Y22.7783
G01 X62.3992 Y22.7901
G01 X62.4093 Y22.8007
G01 X62.4206 Y22.8100
G01 X62.4329 Y22.8180
G01 X62.4460 Y22.8246
G01 X62.4598 Y22.8296
G01 X62.4741 Y22.8329
G01 X62.4887 Y22.8346
G01 X62.5033 Y22.8346
G01 X62.5179 Y22.8329
G01 X62.5322 Y22.8296
G01 X62.5460 Y22.8246
G01 X62.5591 Y22.8180
G01 X62.5714 Y22.8100
G01 X62.5827 Y22.8007
G01 X62.5928 Y22.7901
G01 X62.6016 Y22.7783
G01 X62.8591 Y22.3931
G01 X63.2752 Y22.1151
G01 X63.7660 Y22.0174
G01 X64.2568 Y22.1151
G01 X64.6729 Y22.3931
G01 X64.9304 Y22.7783
G01 X64.9392 Y22.7901
G01 X64.9493 Y22.8007
G01 X64.9606 Y22.8100
G01 X64.9729 Y22.8180
G01 X64.9860 Y22.8246
G01 X64.9998 Y22.8296
G01 X65.0141 Y22.8329
G01 X65.0287 Y22.8346
G01 X65.0433 Y22.8346
G01 X65.0579 Y22.8329
G01 X65.0722 Y22.8296
G01 X65.0860 Y22.8246
G01 X65.0991 Y22.8180
G01 X65.1114 Y22.8100
G01 X65.1227 Y22.8007
G01 X65.1328 Y22.7901
G01 X65.1416 Y22.7783
G01 X65.3991 Y22.3931
G01 X65.8152 Y22.1151
G01 X66.3060 Y22.0174
G01 X66.7968 Y22.1151
G01 X67.2129 Y22.3931
G01 X67.4704 Y22.7783
G01 X67.4792 Y22.7901
G01 X67.4893 Y22.8007
G01 X67.5006 Y22.8100
G01 X67.5129 Y22.8180
G01 X67.5260 Y22.8246
G01 X67.5398 Y22.8296
G01 X67.5541 Y22.8329
G01 X67.5687 Y22.8346
G01 X67.5833 Y22.8346
G01 X67.5979 Y22.8329
G01 X67.6122 Y22.8296
G01 X67.6260 Y22.8246
G01 X67.6391 Y22.8180
G01 X67.6514 Y22.8100
G01 X67.6627 Y22.8007
G01 X67.6728 Y22.7901
G01 X67.6816 Y22.7783
G01 X67.9391 Y22.3931
G01 X68.3552 Y22.1151
G01 X68.8460 Y22.0174
G01 X69.3368 Y22.1151
G01 X69.7529 Y22.3931
G01 X70.0104 Y22.7783
G01 X70.0192 Y22.7901
G01 X70.0293 Y22.8007
G01 X70.0406 Y22.8100
G01 X70.0529 Y22.8180
G01 X70.0660 Y22.8246
G01 X70.0798 Y22.8296
G01 X70.0941 Y22.8329
G01 X70.1087 Y22.8346
G01 X70.1233 Y22.8346
G01 X70.1379 Y22.8329
G01 X70.1522 Y22.8296
G01 X70.1660 Y22.8246
G01 X70.1791 Y22.8180
G01 X70.1914 Y22.8100
G01 X70.2027 Y22.8007
G01 X70.2128 Y22.7901
G01 X70.2216 Y22.7783
G01 X70.4791 Y22.3931
G01 X70.8952 Y22.1151
G01 X71.3860 Y22.0174
G01 X71.8768 Y22.1151
G01 X72.2929 Y22.3931
G01 X72.5504 Y22.7783
G01 X72.5592 Y22.7901
G01 X72.5693 Y22.8007
G01 X72.5806 Y22.8100
G01 X72.5929 Y22.8180
G01 X72.6060 Y22.8246
G01 X72.6198 Y22.8296
G01 X72.6341 Y22.8329
G01 X72.6487 Y22.8346
G01 X72.6633 Y22.8346
G01 X72.6779 Y22.8329
G01 X72.6922 Y22.8296
G01 X72.7060 Y22.8246
G01 X72.7191 Y22.8180
G01 X72.7314 Y22.8100
G01 X72.7427 Y22.8007
G01 X72.7528 Y22.7901
G01 X72.7616 Y22.7783
G01 X73.0191 Y22.3931
G01 X73.4352 Y22.1151
G01 X73.9260 Y22.0174
G01 X74.4168 Y22.1151
G01 X74.8329 Y22.3931
G01 X75.0904 Y22.7783
G01 X75.0992 Y22.7901
G01 X75.1093 Y22.8007
G01 X75.1206 Y22.8100
G01 X75.1329 Y22.8180
G01 X75.1460 Y22.8246
G01 X75.1598 Y22.8296
G01 X75.1741 Y22.8329
G01 X75.1887 Y22.8346
G01 X75.2033 Y22.8346
G01 X75.2179 Y22.8329
G01 X75.2322 Y22.8296
G01 X75.2460 Y22.8246
G01 X75.2591 Y22.8180
G01 X75.2714 Y22.8100
G01 X75.2827 Y22.8007
G01 X75.2928 Y22.7901
G01 X75.3016 Y22.7783
G01 X75.5591 Y22.3931
G01 X75.9752 Y22.1151
G01 X76.4660 Y22.0174
G01 X76.9568 Y22.1151
G01 X77.3729 Y22.3931
G01 X77.6304 Y22.7783
G01 X77.6392 Y22.7901
G01 X77.6493 Y22.8007
G01 X77.6606 Y22.8100
G01 X77.6729 Y22.8180
G01 X77.6860 Y22.8246
G01 X77.6998 Y22.8296
G01 X77.7141 Y22.8329
G01 X77.7287 Y22.8346
G01 X77.7433 Y22.8346
G01 X77.7579 Y22.8329
G01 X77.7722 Y22.8296
G01 X77.7860 Y22.8246
G01 X77.7991 Y22.8180
G01 X77.8114 Y22.8100
G01 X77.8227 Y22.8007
G01 X77.8328 Y22.7901
G01 X77.8416 Y22.7783
G01 X78.0991 Y22.3931
G01 X78.5152 Y22.1151
G01 X79.0060 Y22.0174
G01 X79.4968 Y22.1151
G01 X79.9129 Y22.3931
G01 X80.1704 Y22.7783
G01 X80.1792 Y22.7901
G01 X80.1893 Y22.8007
G01 X80.2006 Y22.8100
G01 X80.2129 Y22.8180
G01 X80.2260 Y22.8246
G01 X80.2398 Y22.8296
G01 X80.2541 Y22.8329
G01 X80.2687 Y22.8346
G01 X80.2833 Y22.8346
G01 X80.2979 Y22.8329
G01 X80.3122 Y22.8296
G01 X80.3260 Y22.8246
G01 X80.3391 Y22.8180
G01 X80.3514 Y22.8100
G01 X80.3627 Y22.8007
G01 X80.3728 Y22.7901
G01 X80.3816 Y22.7783
G01 X80.6391 Y22.3931
G01 X81.0552 Y22.1151
G01 X81.5460 Y22.0174
G01 X82.0368 Y22.1151
G01 X82.4529 Y22.3931
G01 X82.7104 Y22.7783
G01 X82.7192 Y22.7901
G01 X82.7293 Y22.8007
G01 X82.7406 Y22.8100
G01 X82.7529 Y22.8180
G01 X82.7660 Y22.8246
G01 X82.7798 Y22.8296
G01 X82.7941 Y22.8329
G01 X82.8087 Y22.8346
G01 X82.8233 Y22.8346
G01 X82.8379 Y22.8329
G01 X82.8522 Y22.8296
G01 X82.8660 Y22.8246
G01 X82.8791 Y22.8180
G01 X82.8914 Y22.8100
G01 X82.9027 Y22.8007
G01 X82.9128 Y22.7901
G01 X82.9216 Y22.7783
G01 X83.1791 Y22.3931
G01 X83.5952 Y22.1151
G01 X84.0860 Y22.0174
G01 X84.5768 Y22.1151
G01 X84.9929 Y22.3931
G01 X85.2504 Y22.7783
G01 X85.2592 Y22.7901
G01 X85.2693 Y22.8007
G01 X85.2806 Y22.8100
G01 X85.2929 Y22.8180
G01 X85.3060 Y22.8246
G01 X85.3198 Y22.8296
G01 X85.3341 Y22.8329
G01 X85.3487 Y22.8346
G01 X85.3633 Y22.8346
G01 X85.3779 Y22.8329
G01 X85.3922 Y22.8296
G01 X85.4060 Y22.8246
G01 X85.4191 Y22.8180
G01 X85.4314 Y22.8100
G01 X85.4427 Y22.8007
G01 X85.4528 Y22.7901
G01 X85.4616 Y22.7783
G01 X85.7191 Y22.3931
G01 X86.1352 Y22.1151
G01 X86.6260 Y22.0174
G01 X87.1168 Y22.1151
G01 X87.5329 Y22.3931
G01 X87.7904 Y22.7783
G01 X87.7992 Y22.7901
G01 X87.8093 Y22.8007
G01 X87.8206 Y22.8100
G01 X87.8329 Y22.8180
G01 X87.8460 Y22.8246
G01 X87.8598 Y22.8296
G01 X87.8741 Y22.8329
G01 X87.8887 Y22.8346
G01 X87.9033 Y22.8346
G01 X87.9179 Y22.8329
G01 X87.9322 Y22.8296
G01 X87.9460 Y22.8246
G01 X87.9591 Y22.8180
G01 X87.9714 Y22.8100
G01 X87.9827 Y22.8007
G01 X87.9928 Y22.7901
G01 X88.0016 Y22.7783
G01 X88.2591 Y22.3931
G01 X88.6752 Y22.1151
G01 X89.1660 Y22.0174
G01 X89.6568 Y22.1151
G01 X90.0729 Y22.3931
G01 X90.3304 Y22.7783
G01 X90.3392 Y22.7901
G01 X90.3493 Y22.8007
G01 X90.3606 Y22.8100
G01 X90.3729 Y22.8180
G01 X90.3860 Y22.8246
G01 X90.3998 Y22.8296
G01 X90.4141 Y22.8329
G01 X90.4287 Y22.8346
G01 X90.4433 Y22.8346
G01 X90.4579 Y22.8329
G01 X90.4722 Y22.8296
G01 X90.4860 Y22.8246
G01 X90.4991 Y22.8180
G01 X90.5114 Y22.8100
G01 X90.5227 Y22.8007
G01 X90.5328 Y22.7901
G01 X90.5416 Y22.7783
G01 X90.7991 Y22.3931
G01 X91.2152 Y22.1151
G01 X91.7060 Y22.0174
G01 X92.1968 Y22.1151
G01 X92.6129 Y22.3931
G01 X92.8704 Y22.7783
G01 X92.8792 Y22.7901
G01 X92.8893 Y22.8007
G01 X92.9006 Y22.8100
G01 X92.9129 Y22.8180
G01 X92.9260 Y22.8246
G01 X92.9398 Y22.8296
G01 X92.9541 Y22.8329
G01 X92.9687 Y22.8346
G01 X92.9833 Y22.8346
G01 X92.9979 Y22.8329
G01 X93.0122 Y22.8296
G01 X93.0260 Y22.8246
G01 X93.0391 Y22.8180
G01 X93.0514 Y22.8100
G01 X93.0627 Y22.8007
G01 X93.0728 Y22.7901
G01 X93.0816 Y22.7783
G01 X93.3391 Y22.3931
G01 X93.7552 Y22.1151
G01 X94.2460 Y22.0174
G01 X94.7368 Y22.1151
G01 X95.1529 Y22.3931
G01 X95.4104 Y22.7783
G01 X95.4192 Y22.7901
G01 X95.4293 Y22.8007
G01 X95.4406 Y22.8100
G01 X95.4529 Y22.8180
G01 X95.4660 Y22.8246
G01 X95.4798 Y22.8296
G01 X95.4941 Y22.8329
G01 X95.5087 Y22.8346
G01 X95.5233 Y22.8346
G01 X95.5379 Y22.8329
G01 X95.5522 Y22.8296
G01 X95.5660 Y22.8246
G01 X95.5791 Y22.8180
G01 X95.5914 Y22.8100
G01 X95.6027 Y22.8007
G01 X95.6128 Y22.7901
G01 X95.6216 Y22.7783
G01 X95.8791 Y22.3931
G01 X96.2952 Y22.1151
G01 X96.7860 Y22.0174
G01 X97.2768 Y22.1151
G01 X97.6929 Y22.3931
G01 X97.9589 Y22.7911
G01 X97.9676 Y22.8027
G01 X97.9777 Y22.8133
G01 X97.9888 Y22.8226
G01 X98.0009 Y22.8306
G01 X98.0139 Y22.8371
G01 X98.0275 Y22.8421
G01 X98.0417 Y22.8455
G01 X98.0561 Y22.8473
G01 X98.0706 Y22.8475
G01 X98.0850 Y22.8460
G01 X98.0992 Y22.8428
G01 X98.1129 Y22.8380
G01 X98.1260 Y22.8318
G01 X98.1383 Y22.8240
G01 X98.1496 Y22.8149
G01 X98.1599 Y22.8046
G01 X98.1688 Y22.7932
G01 X98.1764 Y22.7808
G01 X98.1826 Y22.7676
G01 X98.1920 Y22.7360
G01 X98.4942 Y22.3450
G01 X98.9260 Y22.0976
G01 X98.9620 Y22.0910
G01 X99.0719 Y22.1540
G01 X99.0719 Y22.5947
G01 X99.0006 Y22.6243
G01 X98.9270 Y22.6650
G01 X98.8584 Y22.7136
G01 X98.7957 Y22.7697
G01 X98.7396 Y22.8324
G01 X98.6910 Y22.9010
G01 X98.6503 Y22.9746
G01 X98.6181 Y23.0523
G01 X98.5948 Y23.1331
G01 X98.5807 Y23.2160
G01 X98.5760 Y23.3000
G01 X98.5760 Y23.8000
G01 X98.5807 Y23.8840
G01 X98.5948 Y23.9669
G01 X98.6181 Y24.0477
G01 X98.6503 Y24.1254
G01 X98.6910 Y24.1990
G01 X98.7396 Y24.2676
G01 X98.7957 Y24.3303
G01 X98.8584 Y24.3864
G01 X98.9270 Y24.4350
G01 X99.0006 Y24.4757
G01 X99.0719 Y24.5053
G01 X99.0719 Y24.9460
G01 X98.9620 Y25.0090
G01 X98.9260 Y25.0024
G01 X98.4942 Y24.7550
G01 X98.1920 Y24.3640
G01 X98.1826 Y24.3324
G01 X98.1764 Y24.3192
G01 X98.1688 Y24.3068
G01 X98.1599 Y24.2954
G01 X98.1496 Y24.2851
G01 X98.1383 Y24.2760
G01 X98.1260 Y24.2682
G01 X98.1129 Y24.2620
G01 X98.0992 Y24.2572
G01 X98.0850 Y24.2540
G01 X98.0706 Y24.2525
G01 X98.0561 Y24.2527
G01 X98.0417 Y24.2545
G01 X98.0275 Y24.2579
G01 X98.0139 Y24.2629
G01 X98.0009 Y24.2694
G01 X97.9888 Y24.2774
G01 X97.9777 Y24.2867
G01 X97.9676 Y24.2973
G01 X97.9589 Y24.3089
G01 X97.6929 Y24.7069
G01 X97.2768 Y24.9849
G01 X96.7860 Y25.0826
G01 X96.2952 Y24.9849
G01 X95.8791 Y24.7069
G01 X95.6216 Y24.3217
G01 X95.6133 Y24.3106
G01 X95.6039 Y24.3005
G01 X95.5934 Y24.2914
G01 X95.5819 Y24.2836
G01 X95.5697 Y24.2771
G01 X95.5568 Y24.2719
G01 X95.5435 Y24.2682
G01 X95.5298 Y24.2659
G01 X95.5160 Y24.2652
G01 X95.5022 Y24.2659
G01 X95.4885 Y24.2682
G01 X95.4752 Y24.2719
G01 X95.4623 Y24.2771
G01 X95.4501 Y24.2836
G01 X95.4386 Y24.2914
G01 X95.4281 Y24.3005
G01 X95.4187 Y24.3106
G01 X95.4104 Y24.3217
G01 X95.1529 Y24.7069
G01 X94.7368 Y24.9849
G01 X94.2460 Y25.0826
G01 X93.7552 Y24.9849
G01 X93.3391 Y24.7069
G01 X93.0816 Y24.3217
G01 X93.0733 Y24.3106
G01 X93.0639 Y24.3005
G01 X93.0534 Y24.2914
G01 X93.0419 Y24.2836
G01 X93.0297 Y24.2771
G01 X93.0168 Y24.2719
G01 X93.0035 Y24.2682
G01 X92.9898 Y24.2659
G01 X92.9760 Y24.2652
G01 X92.9622 Y24.2659
G01 X92.9485 Y24.2682
G01 X92.9352 Y24.2719
G01 X92.9223 Y24.2771
G01 X92.9101 Y24.2836
G01 X92.8986 Y24.2914
G01 X92.8881 Y24.3005
G01 X92.8787 Y24.3106
G01 X92.8704 Y24.3217
G01 X92.6129 Y24.7069
G01 X92.1968 Y24.9849
G01 X91.7060 Y25.0826
G01 X91.2152 Y24.9849
G01 X90.7991 Y24.7069
G01 X90.5416 Y24.3217
G01 X90.5333 Y24.3106
G01 X90.5239 Y24.3005
G01 X90.5134 Y24.2914
G01 X90.5019 Y24.2836
G01 X90.4897 Y24.2771
G01 X90.4768 Y24.2719
G01 X90.4635 Y24.2682
G01 X90.4498 Y24.2659
G01 X90.4360 Y24.2652
G01 X90.4222 Y24.2659
G01 X90.4085 Y24.2682
G01 X90.3952 Y24.2719
G01 X90.3823 Y24.2771
G01 X90.3701 Y24.2836
G01 X90.3586 Y24.2914
G01 X90.3481 Y24.3005
G01 X90.3387 Y24.3106
G01 X90.3304 Y24.3217
G01 X90.0729 Y24.7069
G01 X89.6568 Y24.9849
G01 X89.1660 Y25.0826
G01 X88.8078 Y25.0113
G01 X88.7939 Y25.0094
G01 X88.7798 Y25.0089
G01 X88.7658 Y25.0101
G01 X88.7519 Y25.0128
G01 X88.7385 Y25.0170
G01 X88.7256 Y25.0226
G01 X88.7134 Y25.0297
G01 X88.7020 Y25.0381
G01 X88.6917 Y25.0477
G01 X88.6825 Y25.0583
G01 X88.6745 Y25.0699
G01 X88.6678 Y25.0824
G01 X88.6626 Y25.0955
G01 X88.6589 Y25.1090
G01 X88.6567 Y25.1230
G01 X88.6560 Y25.1370
G01 X88.6569 Y25.1511
G01 X88.6594 Y25.1650
G01 X88.6633 Y25.1785
G01 X88.6688 Y25.1915
G01 X88.6756 Y25.2038
G01 X88.6838 Y25.2153
G01 X88.6932 Y25.2258
G01 X89.4280 Y25.9606
G01 X89.4386 Y25.9701
G01 X89.4502 Y25.9783
G01 X89.4627 Y25.9852
G01 X89.4759 Y25.9907
G01 X89.4896 Y25.9946
G01 X89.5036 Y25.9970
G01 X89.5178 Y25.9978
G01 X90.1305 Y25.9978
G01 X90.6847 Y26.2274
G01 X91.1089 Y26.6516
G01 X91.3385 Y27.2058
G01 X91.3385 Y27.8057
G01 X91.1089 Y28.3599
G01 X90.6847 Y28.7841
G01 X90.2622 Y28.9591
G01 X90.2497 Y28.9651
G01 X90.2379 Y28.9724
G01 X90.2270 Y28.9810
G01 X90.2171 Y28.9907
G01 X90.2083 Y29.0014
G01 X90.2008 Y29.0130
G01 X90.1945 Y29.0253
G01 X90.1896 Y29.0383
G01 X90.1862 Y29.0517
G01 X90.1842 Y29.0654
G01 X90.1838 Y29.0793
G01 X90.1848 Y29.0931
G01 X90.1874 Y29.1067
G01 X90.1914 Y29.1200
G01 X90.1969 Y29.1327
G01 X90.2036 Y29.1448
G01 X90.2117 Y29.1561
G01 X90.2210 Y29.1664
G01 X90.6262 Y29.5716
G01 X90.6354 Y29.5800
G01 X90.6455 Y29.5874
G01 X90.7025 Y29.6255
G01 X90.8811 Y29.8928
G01 X90.9438 Y30.2080
G01 X90.9304 Y30.2753
G01 X90.9286 Y30.2876
G01 X90.9279 Y30.3001
G01 X90.9279 Y36.8179
G01 X90.9286 Y36.8303
G01 X90.9304 Y36.8427
G01 X90.9438 Y36.9100
G01 X90.8811 Y37.2252
G01 X90.7025 Y37.4924
G01 X90.6455 Y37.5306
G01 X90.6354 Y37.5380
G01 X90.6262 Y37.5464
G01 X77.8454 Y50.3272
G01 X77.8359 Y50.3378
G01 X77.8277 Y50.3494
G01 X77.8208 Y50.3619
G01 X77.8153 Y50.3750
G01 X77.8114 Y50.3887
G01 X77.8090 Y50.4028
G01 X77.8082 Y50.4170
G01 X77.8090 Y50.4312
G01 X77.8114 Y50.4453
G01 X77.8153 Y50.4590
G01 X77.8208 Y50.4721
G01 X77.8277 Y50.4846
G01 X77.8359 Y50.4962
G01 X77.8454 Y50.5068
G01 X77.8560 Y50.5163
G01 X77.8677 Y50.5246
G01 X77.8801 Y50.5315
G01 X77.8933 Y50.5369
G01 X77.9070 Y50.5409
G01 X77.9210 Y50.5433
G01 X77.9353 Y50.5441
G01 X101.6116 Y50.5441
G01 X101.6258 Y50.5433
G01 X101.6399 Y50.5409
G01 X101.6536 Y50.5369
G01 X101.6667 Y50.5315
G01 X101.6792 Y50.5246
G01 X101.6908 Y50.5163
G01 X101.7014 Y50.5068
G01 X101.7109 Y50.4962
G01 X101.7192 Y50.4846
G01 X101.7261 Y50.4721
G01 X101.7315 Y50.4590
G01 X101.7355 Y50.4453
G01 X101.7379 Y50.4312
G01 X101.7387 Y50.4170
G01 X101.7387 Y46.0680
G01 X101.7379 Y46.0538
G01 X101.7355 Y46.0398
G01 X101.7315 Y46.0261
G01 X101.7261 Y46.0129
G01 X101.7192 Y46.0004
G01 X101.7109 Y45.9888
G01 X101.7014 Y45.9782
G01 X97.2958 Y41.5726
G01 X97.2866 Y41.5642
G01 X97.2766 Y41.5568
G01 X97.2195 Y41.5187
G01 X97.0409 Y41.2514
G01 X96.9782 Y40.9362
G01 X96.9916 Y40.8689
G01 X96.9935 Y40.8565
G01 X96.9941 Y40.8441
G01 X96.9941 Y28.0912
G01 X96.9933 Y28.0770
G01 X96.9909 Y28.0630
G01 X96.9869 Y28.0493
G01 X96.9815 Y28.0361
G01 X96.9746 Y28.0236
G01 X96.9663 Y28.0120
G01 X96.9568 Y28.0014
G01 X96.5236 Y27.5682
G01 X96.2941 Y27.0139
G01 X96.2941 Y26.4141
G01 X96.5236 Y25.8598
G01 X96.9478 Y25.4356
G01 X97.5021 Y25.2061
G01 X98.1019 Y25.2061
G01 X98.6562 Y25.4356
G01 X99.0894 Y25.8688
G01 X99.1000 Y25.8783
G01 X99.1116 Y25.8866
G01 X99.1241 Y25.8935
G01 X99.1373 Y25.8989
G01 X99.1510 Y25.9029
G01 X99.1650 Y25.9053
G01 X99.1792 Y25.9061
G01 X103.2567 Y25.9061
G01 X103.2709 Y25.9053
G01 X103.2850 Y25.9029
G01 X103.2987 Y25.8989
G01 X103.3118 Y25.8935
G01 X103.3243 Y25.8866
G01 X103.3359 Y25.8783
G01 X103.3466 Y25.8688
G01 X103.8148 Y25.4006
G01 X103.8243 Y25.3899
G01 X103.8326 Y25.3783
G01 X103.8395 Y25.3658
G01 X103.8449 Y25.3527
G01 X103.8489 Y25.3390
G01 X103.8513 Y25.3249
G01 X103.8521 Y25.3107
G01 X103.8521 Y22.2753
G01 X103.8513 Y22.2611
G01 X103.8489 Y22.2470
G01 X103.8449 Y22.2333
G01 X103.8395 Y22.2202
G01 X103.8326 Y22.2077
G01 X103.8243 Y22.1961
G01 X103.8148 Y22.1854
G01 X100.0446 Y18.4152
G01 X100.0339 Y18.4057
G01 X100.0223 Y18.3974
G01 X100.0098 Y18.3905
G01 X99.9967 Y18.3851
G01 X99.9830 Y18.3811
G01 X99.9689 Y18.3787
G01 X99.9547 Y18.3779
G01 X84.4321 Y18.3779
G01 X84.4196 Y18.3785
G01 X84.4073 Y18.3804
G01 X84.3400 Y18.3938
G01 X84.0248 Y18.3311
G01 X83.7575 Y18.1525
G01 X83.7194 Y18.0954
G01 X83.7120 Y18.0854
G01 X83.7036 Y18.0762
G01 X79.4706 Y13.8432
G01 X79.4599 Y13.8337
G01 X79.4483 Y13.8254
G01 X79.4358 Y13.8185
G01 X79.4227 Y13.8131
G01 X79.4090 Y13.8091
G01 X79.3949 Y13.8067
G01 X79.3807 Y13.8059
G01 X70.8169 Y13.8059
G01 X70.8030 Y13.8067
G01 X70.7894 Y13.8089
G01 X70.7760 Y13.8127
G01 X70.7632 Y13.8178
G01 X70.7509 Y13.8244
G01 X70.7395 Y13.8322
G01 X70.7290 Y13.8412
G01 X70.7195 Y13.8513
G01 X70.7112 Y13.8624
G01 X70.7041 Y13.8743
G01 X70.6984 Y13.8869
G01 X70.6941 Y13.9001
G01 X70.6913 Y13.9137
G01 X70.6899 Y13.9275
G01 X70.6901 Y13.9413
G01 X70.6917 Y13.9551
G01 X70.6949 Y13.9686
G01 X70.6995 Y13.9816
G01 X70.7891 Y14.1981
G01 X70.7891 Y14.7980
G01 X70.5595 Y15.3522
G01 X70.1354 Y15.7764
G01 X69.5811 Y16.0059
G01 X68.9812 Y16.0059
G01 X68.4270 Y15.7764
G01 X68.0029 Y15.3523
G01 X67.9926 Y15.3431
G01 X67.9814 Y15.3350
G01 X67.9693 Y15.3282
G01 X67.9565 Y15.3228
G01 X67.9433 Y15.3187
G01 X67.9297 Y15.3162
G01 X67.9159 Y15.3151
G01 X67.9020 Y15.3156
G01 X67.8670 Y15.3218
G01 X67.5517 Y15.2591
G01 X67.2845 Y15.0805
G01 X67.2464 Y15.0234
G01 X67.2389 Y15.0134
G01 X67.2306 Y15.0042
G01 X66.8695 Y14.6432
G01 X66.8589 Y14.6337
G01 X66.8473 Y14.6254
G01 X66.8348 Y14.6185
G01 X66.8216 Y14.6131
G01 X66.8080 Y14.6091
G01 X66.7939 Y14.6067
G01 X66.7797 Y14.6059
G01 X63.2506 Y14.6059
G01 X63.2367 Y14.6067
G01 X63.2231 Y14.6090
G01 X63.2097 Y14.6127
G01 X63.1969 Y14.6179
G01 X63.1847 Y14.6244
G01 X63.1732 Y14.6322
G01 X63.1627 Y14.6412
G01 X63.1532 Y14.6513
G01 X63.1449 Y14.6624
G01 X63.1379 Y14.6743
G01 X63.1321 Y14.6870
G01 X63.1278 Y14.7001
G01 X63.1250 Y14.7137
G01 X63.1236 Y14.7275
G01 X63.1238 Y14.7413
G01 X63.1254 Y14.7551
G01 X63.1286 Y14.7686
G01 X63.1332 Y14.7816
G01 X63.2228 Y14.9981
G01 X63.2228 Y15.5980
G01 X62.9933 Y16.1522
G01 X62.5691 Y16.5764
G01 X62.0148 Y16.8060
G01 X61.4149 Y16.8060
G01 X60.8607 Y16.5764
G01 X60.4275 Y16.1432
G01 X60.4169 Y16.1337
G01 X60.4053 Y16.1254
G01 X60.3928 Y16.1185
G01 X60.3796 Y16.1131
G01 X60.3659 Y16.1091
G01 X60.3519 Y16.1068
G01 X60.3377 Y16.1060
G01 X60.1800 Y16.1060
G01 X60.1657 Y16.1068
G01 X60.1517 Y16.1091
G01 X60.1380 Y16.1131
G01 X60.1248 Y16.1185
G01 X60.1124 Y16.1254
G01 X60.1007 Y16.1337
G01 X60.0901 Y16.1432
G01 X54.2191 Y22.0142
G01 X54.2098 Y22.0246
G01 X54.2016 Y22.0360
G01 X54.1948 Y22.0483
G01 X54.1894 Y22.0612
G01 X54.1854 Y22.0746
G01 X54.1829 Y22.0884
G01 X54.1819 Y22.1024
G01 X54.1825 Y22.1165
G01 X54.1847 Y22.1303
G01 X54.1883 Y22.1439
G00 Z2.0000
G00 X55.4148 Y23.1331
G01 F350.00
G01 Z-0.1306
G01 F400.00
G01 X55.4007 Y23.2160
G01 X55.3960 Y23.3000
G01 X55.3960 Y23.8000
G01 X55.4007 Y23.8840
G01 X55.4148 Y23.9669
G01 X55.4381 Y24.0477
G01 X55.4703 Y24.1254
G01 X55.5110 Y24.1990
G01 X55.5596 Y24.2676
G01 X55.6157 Y24.3303
G01 X55.6784 Y24.3864
G01 X55.7470 Y24.4350
G01 X55.8206 Y24.4757
G01 X55.8983 Y24.5079
G01 X55.9791 Y24.5312
G01 X56.0620 Y24.5453
G01 X56.1460 Y24.5500
G01 X56.2300 Y24.5453
G01 X56.3129 Y24.5312
G01 X56.3937 Y24.5079
G01 X56.4714 Y24.4757
G01 X56.5450 Y24.4350
G01 X56.6136 Y24.3864
G01 X56.6763 Y24.3303
G01 X56.7324 Y24.2676
G01 X56.7810 Y24.1990
G01 X56.8217 Y24.1254
G01 X56.8539 Y24.0477
G01 X56.8772 Y23.9669
G01 X56.8913 Y23.8840
G01 X56.8960 Y23.8000
G01 X56.8960 Y23.3000
G01 X56.8913 Y23.2160
G01 X56.8772 Y23.1331
G01 X56.8539 Y23.0523
G01 X56.8217 Y22.9746
G01 X56.7810 Y22.9010
G01 X56.7324 Y22.8324
G01 X56.6763 Y22.7697
G01 X56.6136 Y22.7136
G01 X56.5450 Y22.6650
G01 X56.4714 Y22.6243
G01 X56.3937 Y22.5921
G01 X56.3129 Y22.5688
G01 X56.2300 Y22.5547
G01 X56.1460 Y22.5500
G01 X56.0620 Y22.5547
G01 X55.9791 Y22.5688
G01 X55.8983 Y22.5921
G01 X55.8206 Y22.6243
G01 X55.7470 Y22.6650
G01 X55.6784 Y22.7136
G01 X55.6157 Y22.7697
G01 X55.5596 Y22.8324
G01 X55.5110 Y22.9010
G01 X55.4703 Y22.9746
G01 X55.4381 Y23.0523
G01 X55.4148 Y23.1331
G01 X55.4007 Y23.2160
G00 Z2.0000
G00 X57.9548 Y23.1331
G01 F350.00
G01 Z-0.1306
G01 F400.00
G01 X57.9407 Y23.2160
G01 X57.9360 Y23.3000
G01 X57.9360 Y23.8000
G01 X57.9407 Y23.8840
G01 X57.9548 Y23.9669
G01 X57.9781 Y24.0477
G01 X58.0103 Y24.1254
G01 X58.0510 Y24.1990
G01 X58.0996 Y24.2676
G01 X58.1557 Y24.3303
G01 X58.2184 Y24.3864
G01 X58.2870 Y24.4350
G01 X58.3606 Y24.4757
G01 X58.4383 Y24.5079
G01 X58.5191 Y24.5312
G01 X58.6020 Y24.5453
G01 X58.6860 Y24.5500
G01 X58.7700 Y24.5453
G01 X58.8529 Y24.5312
G01 X58.9337 Y24.5079
G01 X59.0114 Y24.4757
G01 X59.0850 Y24.4350
G01 X59.1536 Y24.3864
G01 X59.2163 Y24.3303
G01 X59.2724 Y24.2676
G01 X59.3210 Y24.1990
G01 X59.3617 Y24.1254
G01 X59.3939 Y24.0477
G01 X59.4172 Y23.9669
G01 X59.4313 Y23.8840
G01 X59.4360 Y23.8000
G01 X59.4360 Y23.3000
G01 X59.4313 Y23.2160
G01 X59.4172 Y23.1331
G01 X59.3939 Y23.0523
G01 X59.3617 Y22.9746
G01 X59.3210 Y22.9010
G01 X59.2724 Y22.8324
G01 X59.2163 Y22.7697
G01 X59.1536 Y22.7136
G01 X59.0850 Y22.6650
G01 X59.0114 Y22.6243
G01 X58.9337 Y22.5921
G01 X58.8529 Y22.5688
G01 X58.7700 Y22.5547
G01 X58.6860 Y22.5500
G01 X58.6020 Y22.5547
G01 X58.5191 Y22.5688
G01 X58.4383 Y22.5921
G01 X58.3606 Y22.6243
G01 X58.2870 Y22.6650
G01 X58.2184 Y22.7136
G01 X58.1557 Y22.7697
G01 X58.0996 Y22.8324
G01 X58.0510 Y22.9010
G01 X58.0103 Y22.9746
G01 X57.9781 Y23.0523
G01 X57.9548 Y23.1331
G01 X57.9407 Y23.2160
G00 Z2.0000
G00 X60.4948 Y23.1331
G01 F350.00
G01 Z-0.1306
G01 F400.00
G01 X60.4807 Y23.2160
G01 X60.4760 Y23.3000
G01 X60.4760 Y23.8000
G01 X60.4807 Y23.8840
G01 X60.4948 Y23.9669
G01 X60.5181 Y24.0477
G01 X60.5503 Y24.1254
G01 X60.5910 Y24.1990
G01 X60.6396 Y24.2676
G01 X60.6957 Y24.3303
G01 X60.7584 Y24.3864
G01 X60.8270 Y24.4350
G01 X60.9006 Y24.4757
G01 X60.9783 Y24.5079
G01 X61.0591 Y24.5312
G01 X61.1420 Y24.5453
G01 X61.2260 Y24.5500
G01 X61.3100 Y24.5453
G01 X61.3929 Y24.5312
G01 X61.4737 Y24.5079
G01 X61.5514 Y24.4757
G01 X61.6250 Y24.4350
G01 X61.6936 Y24.3864
G01 X61.7563 Y24.3303
G01 X61.8124 Y24.2676
G01 X61.8610 Y24.1990
G01 X61.9017 Y24.1254
G01 X61.9339 Y24.0477
G01 X61.9572 Y23.9669
G01 X61.9713 Y23.8840
G01 X61.9760 Y23.8000
G01 X61.9760 Y23.3000
G01 X61.9713 Y23.2160
G01 X61.9572 Y23.1331
G01 X61.9339 Y23.0523
G01 X61.9017 Y22.9746
G01 X61.8610 Y22.9010
G01 X61.8124 Y22.8324
G01 X61.7563 Y22.7697
G01 X61.6936 Y22.7136
G01 X61.6250 Y22.6650
G01 X61.5514 Y22.6243
G01 X61.4737 Y22.5921
G01 X61.3929 Y22.5688
G01 X61.3100 Y22.5547
G01 X61.2260 Y22.5500
G01 X61.1420 Y22.5547
G01 X61.0591 Y22.5688
G01 X60.9783 Y22.5921
G01 X60.9006 Y22.6243
G01 X60.8270 Y22.6650
G01 X60.7584 Y22.7136
G01 X60.6957 Y22.7697
G01 X60.6396 Y22.8324
G01 X60.5910 Y22.9010
G01 X60.5503 Y22.9746
G01 X60.5181 Y23.0523
G01 X60.4948 Y23.1331
G01 X60.4807 Y23.2160
G00 Z2.0000
G00 X63.0348 Y23.1331
G01 F350.00
G01 Z-0.1306
G01 F400.00
G01 X63.0207 Y23.2160
G01 X63.0160 Y23.3000
G01 X63.0160 Y23.8000
G01 X63.0207 Y23.8840
G01 X63.0348 Y23.9669
G01 X63.0581 Y24.0477
G01 X63.0903 Y24.1254
G01 X63.1310 Y24.1990
G01 X63.1796 Y24.2676
G01 X63.2357 Y24.3303
G01 X63.2984 Y24.3864
G01 X63.3670 Y24.4350
G01 X63.4406 Y24.4757
G01 X63.5183 Y24.5079
G01 X63.5991 Y24.5312
G01 X63.6820 Y24.5453
G01 X63.7660 Y24.5500
G01 X63.8500 Y24.5453
G01 X63.9329 Y24.5312
G01 X64.0137 Y24.5079
G01 X64.0914 Y24.4757
G01 X64.1650 Y24.4350
G01 X64.2336 Y24.3864
G01 X64.2963 Y24.3303
G01 X64.3524 Y24.2676
G01 X64.4010 Y24.1990
G01 X64.4417 Y24.1254
G01 X64.4739 Y24.0477
G01 X64.4972 Y23.9669
G01 X64.5113 Y23.8840
G01 X64.5160 Y23.8000
G01 X64.5160 Y23.3000
G01 X64.5113 Y23.2160
G01 X64.4972 Y23.1331
G01 X64.4739 Y23.0523
G01 X64.4417 Y22.9746
G01 X64.4010 Y22.9010
G01 X64.3524 Y22.8324
G01 X64.2963 Y22.7697
G01 X64.2336 Y22.7136
G01 X64.1650 Y22.6650
G01 X64.0914 Y22.6243
G01 X64.0137 Y22.5921
G01 X63.9329 Y22.5688
G01 X63.8500 Y22.5547
G01 X63.7660 Y22.5500
G01 X63.6820 Y22.5547
G01 X63.5991 Y22.5688
G01 X63.5183 Y22.5921
G01 X63.4406 Y22.6243
G01 X63.3670 Y22.6650
G01 X63.2984 Y22.7136
G01 X63.2357 Y22.7697
G01 X63.1796 Y22.8324
G01 X63.1310 Y22.9010
G01 X63.0903 Y22.9746
G01 X63.0581 Y23.0523
G01 X63.0348 Y23.1331
G01 X63.0207 Y23.2160
G00 Z2.0000
G00 X65.5748 Y23.1331
G01 F350.00
G01 Z-0.1306
G01 F400.00
G01 X65.5607 Y23.2160
G01 X65.5560 Y23.3000
G01 X65.5560 Y23.8000
G01 X65.5607 Y23.8840
G01 X65.5748 Y23.9669
G01 X65.5981 Y24.0477
G01 X65.6303 Y24.1254
G01 X65.6710 Y24.1990
G01 X65.7196 Y24.2676
G01 X65.7757 Y24.3303
G01 X65.8384 Y24.3864
G01 X65.9070 Y24.4350
G01 X65.9806 Y24.4757
G01 X66.0583 Y24.5079
G01 X66.1391 Y24.5312
G01 X66.2220 Y24.5453
G01 X66.3060 Y24.5500
G01 X66.3900 Y24.5453
G01 X66.4729 Y24.5312
G01 X66.5537 Y24.5079
G01 X66.6314 Y24.4757
G01 X66.7050 Y24.4350
G01 X66.7736 Y24.3864
G01 X66.8363 Y24.3303
G01 X66.8924 Y24.2676
G01 X66.9410 Y24.1990
G01 X66.9817 Y24.1254
G01 X67.0139 Y24.0477
G01 X67.0372 Y23.9669
G01 X67.0513 Y23.8840
G01 X67.0560 Y23.8000
G01 X67.0560 Y23.3000
G01 X67.0513 Y23.2160
G01 X67.0372 Y23.1331
G01 X67.0139 Y23.0523
G01 X66.9817 Y22.9746
G01 X66.9410 Y22.9010
G01 X66.8924 Y22.8324
G01 X66.8363 Y22.7697
G01 X66.7736 Y22.7136
G01 X66.7050 Y22.6650
G01 X66.6314 Y22.6243
G01 X66.5537 Y22.5921
G01 X66.4729 Y22.5688
G01 X66.3900 Y22.5547
G01 X66.3060 Y22.5500
G01 X66.2220 Y22.5547
G01 X66.1391 Y22.5688
G01 X66.0583 Y22.5921
G01 X65.9806 Y22.6243
G01 X65.9070 Y22.6650
G01 X65.8384 Y22.7136
G01 X65.7757 Y22.7697
G01 X65.7196 Y22.8324
G01 X65.6710 Y22.9010
G01 X65.6303 Y22.9746
G01 X65.5981 Y23.0523
G01 X65.5748 Y23.1331
G01 X65.5607 Y23.2160
G00 Z2.0000
G00 X68.1148 Y23.1331
G01 F350.00
G01 Z-0.1306
G01 F400.00
G01 X68.1007 Y23.2160
G01 X68.0960 Y23.3000
G01 X68.0960 Y23.8000
G01 X68.1007 Y23.8840
G01 X68.1148 Y23.9669
G01 X68.1381 Y24.0477
G01 X68.1703 Y24.1254
G01 X68.2110 Y24.1990
G01 X68.2596 Y24.2676
G01 X68.3157 Y24.3303
G01 X68.3784 Y24.3864
G01 X68.4470 Y24.4350
G01 X68.5206 Y24.4757
G01 X68.5983 Y24.5079
G01 X68.6791 Y24.5312
G01 X68.7620 Y24.5453
G01 X68.8460 Y24.5500
G01 X68.9300 Y24.5453
G01 X69.0129 Y24.5312
G01 X69.0937 Y24.5079
G01 X69.1714 Y24.4757
G01 X69.2450 Y24.4350
G01 X69.3136 Y24.3864
G01 X69.3763 Y24.3303
G01 X69.4324 Y24.2676
G01 X69.4810 Y24.1990
G01 X69.5217 Y24.1254
G01 X69.5539 Y24.0477
G01 X69.5772 Y23.9669
G01 X69.5913 Y23.8840
G01 X69.5960 Y23.8000
G01 X69.5960 Y23.3000
G01 X69.5913 Y23.2160
G01 X69.5772 Y23.1331
G01 X69.5539 Y23.0523
G01 X69.5217 Y22.9746
G01 X69.4810 Y22.9010
G01 X69.4324 Y22.8324
G01 X69.3763 Y22.7697
G01 X69.3136 Y22.7136
G01 X69.2450 Y22.6650
G01 X69.1714 Y22.6243
G01 X69.0937 Y22.5921
G01 X69.0129 Y22.5688
G01 X68.9300 Y22.5547
G01 X68.8460 Y22.5500
G01 X68.7620 Y22.5547
G01 X68.6791 Y22.5688
G01 X68.5983 Y22.5921
G01 X68.5206 Y22.6243
G01 X68.4470 Y22.6650
G01 X68.3784 Y22.7136
G01 X68.3157 Y22.7697
G01 X68.2596 Y22.8324
G01 X68.2110 Y22.9010
G01 X68.1703 Y22.9746
G01 X68.1381 Y23.0523
G01 X68.1148 Y23.1331
G01 X68.1007 Y23.2160
G00 Z2.0000
G00 X70.6548 Y23.1331
G01 F350.00
G01 Z-0.1306
G01 F400.00
G01 X70.6407 Y23.2160
G01 X70.6360 Y23.3000
G01 X70.6360 Y23.8000
G01 X70.6407 Y23.8840
G01 X70.6548 Y23.9669
G01 X70.6781 Y24.0477
G01 X70.7103 Y24.1254
G01 X70.7510 Y24.1990
G01 X70.7996 Y24.2676
G01 X70.8557 Y24.3303
G01 X70.9184 Y24.3864
G01 X70.9870 Y24.4350
G01 X71.0606 Y24.4757
G01 X71.1383 Y24.5079
G01 X71.2191 Y24.5312
G01 X71.3020 Y24.5453
G01 X71.3860 Y24.5500
G01 X71.4700 Y24.5453
G01 X71.5529 Y24.5312
G01 X71.6337 Y24.5079
G01 X71.7114 Y24.4757
G01 X71.7850 Y24.4350
G01 X71.8536 Y24.3864
G01 X71.9163 Y24.3303
G01 X71.9724 Y24.2676
G01 X72.0210 Y24.1990
G01 X72.0617 Y24.1254
G01 X72.0939 Y24.0477
G01 X72.1172 Y23.9669
G01 X72.1313 Y23.8840
G01 X72.1360 Y23.8000
G01 X72.1360 Y23.3000
G01 X72.1313 Y23.2160
G01 X72.1172 Y23.1331
G01 X72.0939 Y23.0523
G01 X72.0617 Y22.9746
G01 X72.0210 Y22.9010
G01 X71.9724 Y22.8324
G01 X71.9163 Y22.7697
G01 X71.8536 Y22.7136
G01 X71.7850 Y22.6650
G01 X71.7114 Y22.6243
G01 X71.6337 Y22.5921
G01 X71.5529 Y22.5688
G01 X71.4700 Y22.5547
G01 X71.3860 Y22.5500
G01 X71.3020 Y22.5547
G01 X71.2191 Y22.5688
G01 X71.1383 Y22.5921
G01 X71.0606 Y22.6243
G01 X70.9870 Y22.6650
G01 X70.9184 Y22.7136
G01 X70.8557 Y22.7697
G01 X70.7996 Y22.8324
G01 X70.7510 Y22.9010
G01 X70.7103 Y22.9746
G01 X70.6781 Y23.0523
G01 X70.6548 Y23.1331
G01 X70.6407 Y23.2160
G00 Z2.0000
G00 X73.1948 Y23.1331
G01 F350.00
G01 Z-0.1306
G01 F400.00
G01 X73.1807 Y23.2160
G01 X73.1760 Y23.3000
G01 X73.1760 Y23.8000
G01 X73.1807 Y23.8840
G01 X73.1948 Y23.9669
G01 X73.2181 Y24.0477
G01 X73.2503 Y24.1254
G01 X73.2910 Y24.1990
G01 X73.3396 Y24.2676
G01 X73.3957 Y24.3303
G01 X73.4584 Y24.3864
G01 X73.5270 Y24.4350
G01 X73.6006 Y24.4757
G01 X73.6783 Y24.5079
G01 X73.7591 Y24.5312
G01 X73.8420 Y24.5453
G01 X73.9260 Y24.5500
G01 X74.0100 Y24.5453
G01 X74.0929 Y24.5312
G01 X74.1737 Y24.5079
G01 X74.2514 Y24.4757
G01 X74.3250 Y24.4350
G01 X74.3936 Y24.3864
G01 X74.4563 Y24.3303
G01 X74.5124 Y24.2676
G01 X74.5610 Y24.1990
G01 X74.6017 Y24.1254
G01 X74.6339 Y24.0477
G01 X74.6572 Y23.9669
G01 X74.6713 Y23.8840
G01 X74.6760 Y23.8000
G01 X74.6760 Y23.3000
G01 X74.6713 Y23.2160
G01 X74.6572 Y23.1331
G01 X74.6339 Y23.0523
G01 X74.6017 Y22.9746
G01 X74.5610 Y22.9010
G01 X74.5124 Y22.8324
G01 X74.4563 Y22.7697
G01 X74.3936 Y22.7136
G01 X74.3250 Y22.6650
G01 X74.2514 Y22.6243
G01 X74.1737 Y22.5921
G01 X74.0929 Y22.5688
G01 X74.0100 Y22.5547
G01 X73.9260 Y22.5500
G01 X73.8420 Y22.5547
G01 X73.7591 Y22.5688
G01 X73.6783 Y22.5921
G01 X73.6006 Y22.6243
G01 X73.5270 Y22.6650
G01 X73.4584 Y22.7136
G01 X73.3957 Y22.7697
G01 X73.3396 Y22.8324
G01 X73.2910 Y22.9010
G01 X73.2503 Y22.9746
G01 X73.2181 Y23.0523
G01 X73.1948 Y23.1331
G01 X73.1807 Y23.2160
G00 Z2.0000
G00 X75.7348 Y23.1331
G01 F350.00
G01 Z-0.1306
G01 F400.00
G01 X75.7207 Y23.2160
G01 X75.7160 Y23.3000
G01 X75.7160 Y23.8000
G01 X75.7207 Y23.8840
G01 X75.7348 Y23.9669
G01 X75.7581 Y24.0477
G01 X75.7903 Y24.1254
G01 X75.8310 Y24.1990
G01 X75.8796 Y24.2676
G01 X75.9357 Y24.3303
G01 X75.9984 Y24.3864
G01 X76.0670 Y24.4350
G01 X76.1406 Y24.4757
G01 X76.2183 Y24.5079
G01 X76.2991 Y24.5312
G01 X76.3820 Y24.5453
G01 X76.4660 Y24.5500
G01 X76.5500 Y24.5453
G01 X76.6329 Y24.5312
G01 X76.7137 Y24.5079
G01 X76.7914 Y24.4757
G01 X76.8650 Y24.4350
G01 X76.9336 Y24.3864
G01 X76.9963 Y24.3303
G01 X77.0524 Y24.2676
G01 X77.1010 Y24.1990
G01 X77.1417 Y24.1254
G01 X77.1739 Y24.0477
G01 X77.1972 Y23.9669
G01 X77.2113 Y23.8840
G01 X77.2160 Y23.8000
G01 X77.2160 Y23.3000
G01 X77.2113 Y23.2160
G01 X77.1972 Y23.1331
G01 X77.1739 Y23.0523
G01 X77.1417 Y22.9746
G01 X77.1010 Y22.9010
G01 X77.0524 Y22.8324
G01 X76.9963 Y22.7697
G01 X76.9336 Y22.7136
G01 X76.8650 Y22.6650
G01 X76.7914 Y22.6243
G01 X76.7137 Y22.5921
G01 X76.6329 Y22.5688
G01 X76.5500 Y22.5547
G01 X76.4660 Y22.5500
G01 X76.3820 Y22.5547
G01 X76.2991 Y22.5688
G01 X76.2183 Y22.5921
G01 X76.1406 Y22.6243
G01 X76.0670 Y22.6650
G01 X75.9984 Y22.7136
G01 X75.9357 Y22.7697
G01 X75.8796 Y22.8324
G01 X75.8310 Y22.9010
G01 X75.7903 Y22.9746
G01 X75.7581 Y23.0523
G01 X75.7348 Y23.1331
G01 X75.7207 Y23.2160
G00 Z2.0000
G00 X78.2748 Y23.1331
G01 F350.00
G01 Z-0.1306
G01 F400.00
G01 X78.2607 Y23.2160
G01 X78.2560 Y23.3000
G01 X78.2560 Y23.8000
G01 X78.2607 Y23.8840
G01 X78.2748 Y23.9669
G01 X78.2981 Y24.0477
G01 X78.3303 Y24.1254
G01 X78.3710 Y24.1990
G01 X78.4196 Y24.2676
G01 X78.4757 Y24.3303
G01 X78.5384 Y24.3864
G01 X78.6070 Y24.4350
G01 X78.6806 Y24.4757
G01 X78.7583 Y24.5079
G01 X78.8391 Y24.5312
G01 X78.9220 Y24.5453
G01 X79.0060 Y24.5500
G01 X79.0900 Y24.5453
G01 X79.1729 Y24.5312
G01 X79.2537 Y24.5079
G01 X79.3314 Y24.4757
G01 X79.4050 Y24.4350
G01 X79.4736 Y24.3864
G01 X79.5363 Y24.3303
G01 X79.5924 Y24.2676
G01 X79.6410 Y24.1990
G01 X79.6817 Y24.1254
G01 X79.7139 Y24.0477
G01 X79.7372 Y23.9669
G01 X79.7513 Y23.8840
G01 X79.7560 Y23.8000
G01 X79.7560 Y23.3000
G01 X79.7513 Y23.2160
G01 X79.7372 Y23.1331
G01 X79.7139 Y23.0523
G01 X79.6817 Y22.9746
G01 X79.6410 Y22.9010
G01 X79.5924 Y22.8324
G01 X79.5363 Y22.7697
G01 X79.4736 Y22.7136
G01 X79.4050 Y22.6650
G01 X79.3314 Y22.6243
G01 X79.2537 Y22.5921
G01 X79.1729 Y22.5688
G01 X79.0900 Y22.5547
G01 X79.0060 Y22.5500
G01 X78.9220 Y22.5547
G01 X78.8391 Y22.5688
G01 X78.7583 Y22.5921
G01 X78.6806 Y22.6243
G01 X78.6070 Y22.6650
G01 X78.5384 Y22.7136
G01 X78.4757 Y22.7697
G01 X78.4196 Y22.8324
G01 X78.3710 Y22.9010
G01 X78.3303 Y22.9746
G01 X78.2981 Y23.0523
G01 X78.2748 Y23.1331
G01 X78.2607 Y23.2160
G00 Z2.0000
G00 X80.8148 Y23.1331
G01 F350.00
G01 Z-0.1306
G01 F400.00
G01 X80.8007 Y23.2160
G01 X80.7960 Y23.3000
G01 X80.7960 Y23.8000
G01 X80.8007 Y23.8840
G01 X80.8148 Y23.9669
G01 X80.8381 Y24.0477
G01 X80.8703 Y24.1254
G01 X80.9110 Y24.1990
G01 X80.9596 Y24.2676
G01 X81.0157 Y24.3303
G01 X81.0784 Y24.3864
G01 X81.1470 Y24.4350
G01 X81.2206 Y24.4757
G01 X81.2983 Y24.5079
G01 X81.3791 Y24.5312
G01 X81.4620 Y24.5453
G01 X81.5460 Y24.5500
G01 X81.6300 Y24.5453
G01 X81.7129 Y24.5312
G01 X81.7937 Y24.5079
G01 X81.8714 Y24.4757
G01 X81.9450 Y24.4350
G01 X82.0136 Y24.3864
G01 X82.0763 Y24.3303
G01 X82.1324 Y24.2676
G01 X82.1810 Y24.1990
G01 X82.2217 Y24.1254
G01 X82.2539 Y24.0477
G01 X82.2772 Y23.9669
G01 X82.2913 Y23.8840
G01 X82.2960 Y23.8000
G01 X82.2960 Y23.3000
G01 X82.2913 Y23.2160
G01 X82.2772 Y23.1331
G01 X82.2539 Y23.0523
G01 X82.2217 Y22.9746
G01 X82.1810 Y22.9010
G01 X82.1324 Y22.8324
G01 X82.0763 Y22.7697
G01 X82.0136 Y22.7136
G01 X81.9450 Y22.6650
G01 X81.8714 Y22.6243
G01 X81.7937 Y22.5921
G01 X81.7129 Y22.5688
G01 X81.6300 Y22.5547
G01 X81.5460 Y22.5500
G01 X81.4620 Y22.5547
G01 X81.3791 Y22.5688
G01 X81.2983 Y22.5921
G01 X81.2206 Y22.6243
G01 X81.1470 Y22.6650
G01 X81.0784 Y22.7136
G01 X81.0157 Y22.7697
G01 X80.9596 Y22.8324
G01 X80.9110 Y22.9010
G01 X80.8703 Y22.9746
G01 X80.8381 Y23.0523
G01 X80.8148 Y23.1331
G01 X80.8007 Y23.2160
G00 Z2.0000
G00 X83.3548 Y23.1331
G01 F350.00
G01 Z-0.1306
G01 F400.00
G01 X83.3407 Y23.2160
G01 X83.3360 Y23.3000
G01 X83.3360 Y23.8000
G01 X83.3407 Y23.8840
G01 X83.3548 Y23.9669
G01 X83.3781 Y24.0477
G01 X83.4103 Y24.1254
G01 X83.4510 Y24.1990
G01 X83.4996 Y24.2676
G01 X83.5557 Y24.3303
G01 X83.6184 Y24.3864
G01 X83.6870 Y24.4350
G01 X83.7606 Y24.4757
G01 X83.8383 Y24.5079
G01 X83.9191 Y24.5312
G01 X84.0020 Y24.5453
G01 X84.0860 Y24.5500
G01 X84.1700 Y24.5453
G01 X84.2529 Y24.5312
G01 X84.3337 Y24.5079
G01 X84.4114 Y24.4757
G01 X84.4850 Y24.4350
G01 X84.5536 Y24.3864
G01 X84.6163 Y24.3303
G01 X84.6724 Y24.2676
G01 X84.7210 Y24.1990
G01 X84.7617 Y24.1254
G01 X84.7939 Y24.0477
G01 X84.8172 Y23.9669
G01 X84.8313 Y23.8840
G01 X84.8360 Y23.8000
G01 X84.8360 Y23.3000
G01 X84.8313 Y23.2160
G01 X84.8172 Y23.1331
G01 X84.7939 Y23.0523
G01 X84.7617 Y22.9746
G01 X84.7210 Y22.9010
G01 X84.6724 Y22.8324
G01 X84.6163 Y22.7697
G01 X84.5536 Y22.7136
G01 X84.4850 Y22.6650
G01 X84.4114 Y22.6243
G01 X84.3337 Y22.5921
G01 X84.2529 Y22.5688
G01 X84.1700 Y22.5547
G01 X84.0860 Y22.5500
G01 X84.0020 Y22.5547
G01 X83.9191 Y22.5688
G01 X83.8383 Y22.5921
G01 X83.7606 Y22.6243
G01 X83.6870 Y22.6650
G01 X83.6184 Y22.7136
G01 X83.5557 Y22.7697
G01 X83.4996 Y22.8324
G01 X83.4510 Y22.9010
G01 X83.4103 Y22.9746
G01 X83.3781 Y23.0523
G01 X83.3548 Y23.1331
G01 X83.3407 Y23.2160
G00 Z2.0000
G00 X85.8948 Y23.1331
G01 F350.00
G01 Z-0.1306
G01 F400.00
G01 X85.8807 Y23.2160
G01 X85.8760 Y23.3000
G01 X85.8760 Y23.8000
G01 X85.8807 Y23.8840
G01 X85.8948 Y23.9669
G01 X85.9181 Y24.0477
G01 X85.9503 Y24.1254
G01 X85.9910 Y24.1990
G01 X86.0396 Y24.2676
G01 X86.0957 Y24.3303
G01 X86.1584 Y24.3864
G01 X86.2270 Y24.4350
G01 X86.3006 Y24.4757
G01 X86.3783 Y24.5079
G01 X86.4591 Y24.5312
G01 X86.5420 Y24.5453
G01 X86.6260 Y24.5500
G01 X86.7100 Y24.5453
G01 X86.7929 Y24.5312
G01 X86.8737 Y24.5079
G01 X86.9514 Y24.4757
G01 X87.0250 Y24.4350
G01 X87.0936 Y24.3864
G01 X87.1563 Y24.3303
G01 X87.2124 Y24.2676
G01 X87.2610 Y24.1990
G01 X87.3017 Y24.1254
G01 X87.3339 Y24.0477
G01 X87.3572 Y23.9669
G01 X87.3713 Y23.8840
G01 X87.3760 Y23.8000
G01 X87.3760 Y23.3000
G01 X87.3713 Y23.2160
G01 X87.3572 Y23.1331
G01 X87.3339 Y23.0523
G01 X87.3017 Y22.9746
G01 X87.2610 Y22.9010
G01 X87.2124 Y22.8324
G01 X87.1563 Y22.7697
G01 X87.0936 Y22.7136
G01 X87.0250 Y22.6650
G01 X86.9514 Y22.6243
G01 X86.8737 Y22.5921
G01 X86.7929 Y22.5688
G01 X86.7100 Y22.5547
G01 X86.6260 Y22.5500
G01 X86.5420 Y22.5547
G01 X86.4591 Y22.5688
G01 X86.3783 Y22.5921
G01 X86.3006 Y22.6243
G01 X86.2270 Y22.6650
G01 X86.1584 Y22.7136
G01 X86.0957 Y22.7697
G01 X86.0396 Y22.8324
G01 X85.9910 Y22.9010
G01 X85.9503 Y22.9746
G01 X85.9181 Y23.0523
G01 X85.8948 Y23.1331
G01 X85.8807 Y23.2160
G00 Z2.0000
G00 X88.4348 Y23.1331
G01 F350.00
G01 Z-0.1306
G01 F400.00
G01 X88.4207 Y23.2160
G01 X88.4160 Y23.3000
G01 X88.4160 Y23.8000
G01 X88.4207 Y23.8840
G01 X88.4348 Y23.9669
G01 X88.4581 Y24.0477
G01 X88.4903 Y24.1254
G01 X88.5310 Y24.1990
G01 X88.5796 Y24.2676
G01 X88.6357 Y24.3303
G01 X88.6984 Y24.3864
G01 X88.7670 Y24.4350
G01 X88.8406 Y24.4757
G01 X88.9183 Y24.5079
G01 X88.9991 Y24.5312
G01 X89.0820 Y24.5453
G01 X89.1660 Y24.5500
G01 X89.2500 Y24.5453
G01 X89.3329 Y24.5312
G01 X89.4137 Y24.5079
G01 X89.4914 Y24.4757
G01 X89.5650 Y24.4350
G01 X89.6336 Y24.3864
G01 X89.6963 Y24.3303
G01 X89.7524 Y24.2676
G01 X89.8010 Y24.1990
G01 X89.8417 Y24.1254
G01 X89.8739 Y24.0477
G01 X89.8972 Y23.9669
G01 X89.9113 Y23.8840
G01 X89.9160 Y23.8000
G01 X89.9160 Y23.3000
G01 X89.9113 Y23.2160
G01 X89.8972 Y23.1331
G01 X89.8739 Y23.0523
G01 X89.8417 Y22.9746
G01 X89.8010 Y22.9010
G01 X89.7524 Y22.8324
G01 X89.6963 Y22.7697
G01 X89.6336 Y22.7136
G01 X89.5650 Y22.6650
G01 X89.4914 Y22.6243
G01 X89.4137 Y22.5921
G01 X89.3329 Y22.5688
G01 X89.2500 Y22.5547
G01 X89.1660 Y22.5500
G01 X89.0820 Y22.5547
G01 X88.9991 Y22.5688
G01 X88.9183 Y22.5921
G01 X88.8406 Y22.6243
G01 X88.7670 Y22.6650
G01 X88.6984 Y22.7136
G01 X88.6357 Y22.7697
G01 X88.5796 Y22.8324
G01 X88.5310 Y22.9010
G01 X88.4903 Y22.9746
G01 X88.4581 Y23.0523
G01 X88.4348 Y23.1331
G01 X88.4207 Y23.2160
G00 Z2.0000
G00 X90.9748 Y23.1331
G01 F350.00
G01 Z-0.1306
G01 F400.00
G01 X90.9607 Y23.2160
G01 X90.9560 Y23.3000
G01 X90.9560 Y23.8000
G01 X90.9607 Y23.8840
G01 X90.9748 Y23.9669
G01 X90.9981 Y24.0477
G01 X91.0303 Y24.1254
G01 X91.0710 Y24.1990
G01 X91.1196 Y24.2676
G01 X91.1757 Y24.3303
G01 X91.2384 Y24.3864
G01 X91.3070 Y24.4350
G01 X91.3806 Y24.4757
G01 X91.4583 Y24.5079
G01 X91.5391 Y24.5312
G01 X91.6220 Y24.5453
G01 X91.7060 Y24.5500
G01 X91.7900 Y24.5453
G01 X91.8729 Y24.5312
G01 X91.9537 Y24.5079
G01 X92.0314 Y24.4757
G01 X92.1050 Y24.4350
G01 X92.1736 Y24.3864
G01 X92.2363 Y24.3303
G01 X92.2924 Y24.2676
G01 X92.3410 Y24.1990
G01 X92.3817 Y24.1254
G01 X92.4139 Y24.0477
G01 X92.4372 Y23.9669
G01 X92.4513 Y23.8840
G01 X92.4560 Y23.8000
G01 X92.4560 Y23.3000
G01 X92.4513 Y23.2160
G01 X92.4372 Y23.1331
G01 X92.4139 Y23.0523
G01 X92.3817 Y22.9746
G01 X92.3410 Y22.9010
G01 X92.2924 Y22.8324
G01 X92.2363 Y22.7697
G01 X92.1736 Y22.7136
G01 X92.1050 Y22.6650
G01 X92.0314 Y22.6243
G01 X91.9537 Y22.5921
G01 X91.8729 Y22.5688
G01 X91.7900 Y22.5547
G01 X91.7060 Y22.5500
G01 X91.6220 Y22.5547
G01 X91.5391 Y22.5688
G01 X91.4583 Y22.5921
G01 X91.3806 Y22.6243
G01 X91.3070 Y22.6650
G01 X91.2384 Y22.7136
G01 X91.1757 Y22.7697
G01 X91.1196 Y22.8324
G01 X91.0710 Y22.9010
G01 X91.0303 Y22.9746
G01 X90.9981 Y23.0523
G01 X90.9748 Y23.1331
G01 X90.9607 Y23.2160
G00 Z2.0000
G00 X93.5148 Y23.1331
G01 F350.00
G01 Z-0.1306
G01 F400.00
G01 X93.5007 Y23.2160
G01 X93.4960 Y23.3000
G01 X93.4960 Y23.8000
G01 X93.5007 Y23.8840
G01 X93.5148 Y23.9669
G01 X93.5381 Y24.0477
G01 X93.5703 Y24.1254
G01 X93.6110 Y24.1990
G01 X93.6596 Y24.2676
G01 X93.7157 Y24.3303
G01 X93.7784 Y24.3864
G01 X93.8470 Y24.4350
G01 X93.9206 Y24.4757
G01 X93.9983 Y24.5079
G01 X94.0791 Y24.5312
G01 X94.1620 Y24.5453
G01 X94.2460 Y24.5500
G01 X94.3300 Y24.5453
G01 X94.4129 Y24.5312
G01 X94.4937 Y24.5079
G01 X94.5714 Y24.4757
G01 X94.6450 Y24.4350
G01 X94.7136 Y24.3864
G01 X94.7763 Y24.3303
G01 X94.8324 Y24.2676
G01 X94.8810 Y24.1990
G01 X94.9217 Y24.1254
G01 X94.9539 Y24.0477
G01 X94.9772 Y23.9669
G01 X94.9913 Y23.8840
G01 X94.9960 Y23.8000
G01 X94.9960 Y23.3000
G01 X94.9913 Y23.2160
G01 X94.9772 Y23.1331
G01 X94.9539 Y23.0523
G01 X94.9217 Y22.9746
G01 X94.8810 Y22.9010
G01 X94.8324 Y22.8324
G01 X94.7763 Y22.7697
G01 X94.7136 Y22.7136
G01 X94.6450 Y22.6650
G01 X94.5714 Y22.6243
G01 X94.4937 Y22.5921
G01 X94.4129 Y22.5688
G01 X94.3300 Y22.5547
G01 X94.2460 Y22.5500
G01 X94.1620 Y22.5547
G01 X94.0791 Y22.5688
G01 X93.9983 Y22.5921
G01 X93.9206 Y22.6243
G01 X93.8470 Y22.6650
G01 X93.7784 Y22.7136
G01 X93.7157 Y22.7697
G01 X93.6596 Y22.8324
G01 X93.6110 Y22.9010
G01 X93.5703 Y22.9746
G01 X93.5381 Y23.0523
G01 X93.5148 Y23.1331
G01 X93.5007 Y23.2160
G00 Z2.0000
G00 X96.0548 Y23.1331
G01 F350.00
G01 Z-0.1306
G01 F400.00
G01 X96.0407 Y23.2160
G01 X96.0360 Y23.3000
G01 X96.0360 Y23.8000
G01 X96.0407 Y23.8840
G01 X96.0548 Y23.9669
G01 X96.0781 Y24.0477
G01 X96.1103 Y24.1254
G01 X96.1510 Y24.1990
G01 X96.1996 Y24.2676
G01 X96.2557 Y24.3303
G01 X96.3184 Y24.3864
G01 X96.3870 Y24.4350
G01 X96.4606 Y24.4757
G01 X96.5383 Y24.5079
G01 X96.6191 Y24.5312
G01 X96.7020 Y24.5453
G01 X96.7860 Y24.5500
G01 X96.8700 Y24.5453
G01 X96.9529 Y24.5312
G01 X97.0337 Y24.5079
G01 X97.1114 Y24.4757
G01 X97.1850 Y24.4350
G01 X97.2536 Y24.3864
G01 X97.3163 Y24.3303
G01 X97.3724 Y24.2676
G01 X97.4210 Y24.1990
G01 X97.4617 Y24.1254
G01 X97.4939 Y24.0477
G01 X97.5172 Y23.9669
G01 X97.5313 Y23.8840
G01 X97.5360 Y23.8000
G01 X97.5360 Y23.3000
G01 X97.5313 Y23.2160
G01 X97.5172 Y23.1331
G01 X97.4939 Y23.0523
G01 X97.4617 Y22.9746
G01 X97.4210 Y22.9010
G01 X97.3724 Y22.8324
G01 X97.3163 Y22.7697
G01 X97.2536 Y22.7136
G01 X97.1850 Y22.6650
G01 X97.1114 Y22.6243
G01 X97.0337 Y22.5921
G01 X96.9529 Y22.5688
G01 X96.8700 Y22.5547
G01 X96.7860 Y22.5500
G01 X96.7020 Y22.5547
G01 X96.6191 Y22.5688
G01 X96.5383 Y22.5921
G01 X96.4606 Y22.6243
G01 X96.3870 Y22.6650
G01 X96.3184 Y22.7136
G01 X96.2557 Y22.7697
G01 X96.1996 Y22.8324
G01 X96.1510 Y22.9010
G01 X96.1103 Y22.9746
G01 X96.0781 Y23.0523
G01 X96.0548 Y23.1331
G01 X96.0407 Y23.2160
G00 Z2.0000
G00 X99.5801 Y24.5053
G01 F350.00
G01 Z-0.1306
G01 F400.00
G01 X99.6514 Y24.4757
G01 X99.7250 Y24.4350
G01 X99.7936 Y24.3864
G01 X99.8563 Y24.3303
G01 X99.9124 Y24.2676
G01 X99.9610 Y24.1990
G01 X100.0017 Y24.1254
G01 X100.0339 Y24.0477
G01 X100.0572 Y23.9669
G01 X100.0713 Y23.8840
G01 X100.0760 Y23.8000
G01 X100.0760 Y23.3000
G01 X100.0713 Y23.2160
G01 X100.0572 Y23.1331
G01 X100.0339 Y23.0523
G01 X100.0017 Y22.9746
G01 X99.9610 Y22.9010
G01 X99.9124 Y22.8324
G01 X99.8563 Y22.7697
G01 X99.7936 Y22.7136
G01 X99.7250 Y22.6650
G01 X99.6514 Y22.6243
G01 X99.5801 Y22.5947
G01 X99.5801 Y22.1540
G01 X99.6900 Y22.0910
G01 X99.7260 Y22.0976
G01 X100.1578 Y22.3450
G01 X100.4600 Y22.7360
G01 X100.4694 Y22.7676
G01 X100.4756 Y22.7808
G01 X100.4832 Y22.7932
G01 X100.4921 Y22.8046
G01 X100.5024 Y22.8149
G01 X100.5137 Y22.8240
G01 X100.5260 Y22.8318
G01 X100.5391 Y22.8380
G01 X100.5528 Y22.8428
G01 X100.5670 Y22.8460
G01 X100.5814 Y22.8475
G01 X100.5959 Y22.8473
G01 X100.6103 Y22.8455
G01 X100.6245 Y22.8421
G01 X100.6381 Y22.8371
G01 X100.6511 Y22.8306
G01 X100.6632 Y22.8226
G01 X100.6743 Y22.8133
G01 X100.6844 Y22.8027
G01 X100.6931 Y22.7911
G01 X100.9591 Y22.3931
G01 X101.3752 Y22.1151
G01 X101.8660 Y22.0174
G01 X102.3568 Y22.1151
G01 X102.7729 Y22.3931
G01 X103.0509 Y22.8092
G01 X103.1239 Y23.1761
G01 X103.1239 Y23.9239
G01 X103.0509 Y24.2908
G01 X102.7729 Y24.7069
G01 X102.3568 Y24.9849
G01 X101.8660 Y25.0826
G01 X101.3752 Y24.9849
G01 X100.9591 Y24.7069
G01 X100.6931 Y24.3089
G01 X100.6844 Y24.2973
G01 X100.6743 Y24.2867
G01 X100.6632 Y24.2774
G01 X100.6511 Y24.2694
G01 X100.6381 Y24.2629
G01 X100.6245 Y24.2579
G01 X100.6103 Y24.2545
G01 X100.5959 Y24.2527
G01 X100.5814 Y24.2525
G01 X100.5670 Y24.2540
G01 X100.5528 Y24.2572
G01 X100.5391 Y24.2620
G01 X100.5260 Y24.2682
G01 X100.5137 Y24.2760
G01 X100.5024 Y24.2851
G01 X100.4921 Y24.2954
G01 X100.4832 Y24.3068
G01 X100.4756 Y24.3192
G01 X100.4694 Y24.3324
G01 X100.4600 Y24.3640
G01 X100.1578 Y24.7550
G01 X99.7260 Y25.0024
G01 X99.6900 Y25.0090
G01 X99.5801 Y24.9460
G01 X99.5801 Y24.5053
G01 X99.6514 Y24.4757
G00 Z2.0000
G00 X101.1348 Y23.1331
G01 F350.00
G01 Z-0.1306
G01 F400.00
G01 X101.1207 Y23.2160
G01 X101.1160 Y23.3000
G01 X101.1160 Y23.8000
G01 X101.1207 Y23.8840
G01 X101.1348 Y23.9669
G01 X101.1581 Y24.0477
G01 X101.1903 Y24.1254
G01 X101.2310 Y24.1990
G01 X101.2796 Y24.2676
G01 X101.3357 Y24.3303
G01 X101.3984 Y24.3864
G01 X101.4670 Y24.4350
G01 X101.5406 Y24.4757
G01 X101.6183 Y24.5079
G01 X101.6991 Y24.5312
G01 X101.7820 Y24.5453
G01 X101.8660 Y24.5500
G01 X101.9500 Y24.5453
G01 X102.0329 Y24.5312
G01 X102.1137 Y24.5079
G01 X102.1914 Y24.4757
G01 X102.2650 Y24.4350
G01 X102.3336 Y24.3864
G01 X102.3963 Y24.3303
G01 X102.4524 Y24.2676
G01 X102.5010 Y24.1990
G01 X102.5417 Y24.1254
G01 X102.5739 Y24.0477
G01 X102.5972 Y23.9669
G01 X102.6113 Y23.8840
G01 X102.6160 Y23.8000
G01 X102.6160 Y23.3000
G01 X102.6113 Y23.2160
G01 X102.5972 Y23.1331
G01 X102.5739 Y23.0523
G01 X102.5417 Y22.9746
G01 X102.5010 Y22.9010
G01 X102.4524 Y22.8324
G01 X102.3963 Y22.7697
G01 X102.3336 Y22.7136
G01 X102.2650 Y22.6650
G01 X102.1914 Y22.6243
G01 X102.1137 Y22.5921
G01 X102.0329 Y22.5688
G01 X101.9500 Y22.5547
G01 X101.8660 Y22.5500
G01 X101.7820 Y22.5547
G01 X101.6991 Y22.5688
G01 X101.6183 Y22.5921
G01 X101.5406 Y22.6243
G01 X101.4670 Y22.6650
G01 X101.3984 Y22.7136
G01 X101.3357 Y22.7697
G01 X101.2796 Y22.8324
G01 X101.2310 Y22.9010
G01 X101.1903 Y22.9746
G01 X101.1581 Y23.0523
G01 X101.1348 Y23.1331
G01 X101.1207 Y23.2160
G00 Z2.0000
G00 X101.1348 Y8.6331
G01 F350.00
G01 Z-0.1306
G01 F400.00
G01 X101.1207 Y8.7160
G01 X101.1160 Y8.8000
G01 X101.1160 Y9.3000
G01 X101.1207 Y9.3840
G01 X101.1348 Y9.4669
G01 X101.1581 Y9.5477
G01 X101.1903 Y9.6254
G01 X101.2310 Y9.6990
G01 X101.2796 Y9.7676
G01 X101.3357 Y9.8303
G01 X101.3984 Y9.8864
G01 X101.4670 Y9.9350
G01 X101.5406 Y9.9757
G01 X101.6183 Y10.0079
G01 X101.6991 Y10.0312
G01 X101.7820 Y10.0453
G01 X101.8660 Y10.0500
G01 X101.9500 Y10.0453
G01 X102.0329 Y10.0312
G01 X102.1137 Y10.0079
G01 X102.1914 Y9.9757
G01 X102.2650 Y9.9350
G01 X102.3336 Y9.8864
G01 X102.3963 Y9.8303
G01 X102.4524 Y9.7676
G01 X102.5010 Y9.6990
G01 X102.5417 Y9.6254
G01 X102.5739 Y9.5477
G01 X102.5972 Y9.4669
G01 X102.6113 Y9.3840
G01 X102.6160 Y9.3000
G01 X102.6160 Y8.8000
G01 X102.6113 Y8.7160
G01 X102.5972 Y8.6331
G01 X102.5739 Y8.5523
G01 X102.5417 Y8.4746
G01 X102.5010 Y8.4010
G01 X102.4524 Y8.3324
G01 X102.3963 Y8.2697
G01 X102.3336 Y8.2136
G01 X102.2650 Y8.1650
G01 X102.1914 Y8.1243
G01 X102.1137 Y8.0921
G01 X102.0329 Y8.0688
G01 X101.9500 Y8.0547
G01 X101.8660 Y8.0500
G01 X101.7820 Y8.0547
G01 X101.6991 Y8.0688
G01 X101.6183 Y8.0921
G01 X101.5406 Y8.1243
G01 X101.4670 Y8.1650
G01 X101.3984 Y8.2136
G01 X101.3357 Y8.2697
G01 X101.2796 Y8.3324
