(G-CODE GENERATED BY FLATCAM v8.905 - www.flatcam.org - Version Date: 2019/01/29)

(Name: V2.drl_mill_cnc)
(Type: G-code from Geometry)
(Units: MM)

(Created on Monday, 11 February 2019 at 18:04)

(TOOL DIAMETER: 0.8 mm)
(Feedrate: 400.0 mm/min)
(Feedrate_Z: 350.0 mm/min)
(Feedrate rapids 800.0 mm/min)

(Z_Cut: -2.1 mm)
(Z_Move: 2.0 mm)
(Z Toolchange: 50.0 mm)
(X,Y Toolchange: 0.0000, 0.0000 mm)
(Z Start: 1.0 mm)
(Z End: 20.0 mm)
(Steps per circle: 64)
(Postprocessor Geometry: default)
(Spindle Speed: 18000 RPM)
G94 ( Millimeters per minute feed rate. )
G21 ( Units == Millimeters. )
G90 ( Absolute coordinates. )
G64 P0.01000 ( set maximum deviation from commanded toolpath )
G21
G90
G94
G21
G90
G94

G01 F400.00
G00 Z2.0000
G00 Z1.0000
M03 S18000
G00 X5.4992 Y5.1240
G01 F350.00
G01 Z-2.1000
G01 F400.00
G01 X5.4984 Y5.1090
G01 X5.4962 Y5.0941
G01 X5.4926 Y5.0795
G01 X5.4875 Y5.0654
G01 X5.4811 Y5.0518
G01 X5.4733 Y5.0389
G01 X5.4644 Y5.0268
G01 X5.4543 Y5.0157
G01 X5.4432 Y5.0056
G01 X5.4311 Y4.9967
G01 X5.4182 Y4.9889
G01 X5.4046 Y4.9825
G01 X5.3905 Y4.9774
G01 X5.3759 Y4.9738
G01 X5.3610 Y4.9716
G01 X5.3460 Y4.9708
G01 X5.3310 Y4.9716
G01 X5.3161 Y4.9738
G01 X5.3015 Y4.9774
G01 X5.2874 Y4.9825
G01 X5.2738 Y4.9889
G01 X5.2609 Y4.9967
G01 X5.2488 Y5.0056
G01 X5.2377 Y5.0157
G01 X5.2276 Y5.0268
G01 X5.2187 Y5.0389
G01 X5.2109 Y5.0518
G01 X5.2045 Y5.0654
G01 X5.1994 Y5.0795
G01 X5.1958 Y5.0941
G01 X5.1936 Y5.1090
G01 X5.1928 Y5.1240
G01 X5.1936 Y5.1390
G01 X5.1958 Y5.1539
G01 X5.1994 Y5.1685
G01 X5.2045 Y5.1826
G01 X5.2109 Y5.1962
G01 X5.2187 Y5.2091
G01 X5.2276 Y5.2212
G01 X5.2377 Y5.2323
G01 X5.2488 Y5.2424
G01 X5.2609 Y5.2513
G01 X5.2738 Y5.2591
G01 X5.2874 Y5.2655
G01 X5.3015 Y5.2706
G01 X5.3161 Y5.2742
G01 X5.3310 Y5.2764
G01 X5.3460 Y5.2771
G01 X5.3610 Y5.2764
G01 X5.3759 Y5.2742
G01 X5.3905 Y5.2706
G01 X5.4046 Y5.2655
G01 X5.4182 Y5.2591
G01 X5.4311 Y5.2513
G01 X5.4432 Y5.2424
G01 X5.4543 Y5.2323
G01 X5.4644 Y5.2212
G01 X5.4733 Y5.2091
G01 X5.4811 Y5.1962
G01 X5.4875 Y5.1826
G01 X5.4926 Y5.1685
G01 X5.4962 Y5.1539
G01 X5.4984 Y5.1390
G01 X5.4992 Y5.1240
G00 Z2.0000
G00 X9.7031 Y6.5000
G01 F350.00
G01 Z-2.1000
G01 F400.00
G01 X9.6978 Y6.3919
G01 X9.6820 Y6.2848
G01 X9.6556 Y6.1798
G01 X9.6192 Y6.0778
G01 X9.5729 Y5.9800
G01 X9.5172 Y5.8871
G01 X9.4527 Y5.8002
G01 X9.3800 Y5.7200
G01 X9.2998 Y5.6473
G01 X9.2129 Y5.5828
G01 X9.1200 Y5.5271
G01 X9.0222 Y5.4808
G01 X8.9202 Y5.4444
G01 X8.8152 Y5.4180
G01 X8.7081 Y5.4022
G01 X8.6000 Y5.3968
G01 X8.4919 Y5.4022
G01 X8.3848 Y5.4180
G01 X8.2798 Y5.4444
G01 X8.1778 Y5.4808
G01 X8.0800 Y5.5271
G01 X7.9871 Y5.5828
G01 X7.9002 Y5.6473
G01 X7.8200 Y5.7200
G01 X7.7473 Y5.8002
G01 X7.6828 Y5.8871
G01 X7.6271 Y5.9800
G01 X7.5808 Y6.0778
G01 X7.5444 Y6.1798
G01 X7.5180 Y6.2848
G01 X7.5022 Y6.3919
G01 X7.4968 Y6.5000
G01 X7.5022 Y6.6081
G01 X7.5180 Y6.7152
G01 X7.5444 Y6.8202
G01 X7.5808 Y6.9222
G01 X7.6271 Y7.0200
G01 X7.6828 Y7.1129
G01 X7.7473 Y7.1998
G01 X7.8200 Y7.2800
G01 X7.9002 Y7.3527
G01 X7.9871 Y7.4172
G01 X8.0800 Y7.4729
G01 X8.1778 Y7.5192
G01 X8.2798 Y7.5556
G01 X8.3848 Y7.5820
G01 X8.4919 Y7.5978
G01 X8.6000 Y7.6032
G01 X8.7081 Y7.5978
G01 X8.8152 Y7.5820
G01 X8.9202 Y7.5556
G01 X9.0222 Y7.5192
G01 X9.1200 Y7.4729
G01 X9.2129 Y7.4172
G01 X9.2998 Y7.3527
G01 X9.3800 Y7.2800
G01 X9.4527 Y7.1998
G01 X9.5172 Y7.1129
G01 X9.5729 Y7.0200
G01 X9.6192 Y6.9222
G01 X9.6556 Y6.8202
G01 X9.6820 Y6.7152
G01 X9.6978 Y6.6081
G01 X9.7031 Y6.5000
G00 Z2.0000
G00 X12.1031 Y8.1720
G01 F350.00
G01 Z-2.1000
G01 F400.00
G01 X12.1024 Y8.1570
G01 X12.1002 Y8.1421
G01 X12.0966 Y8.1275
G01 X12.0915 Y8.1134
G01 X12.0851 Y8.0998
G01 X12.0773 Y8.0869
G01 X12.0684 Y8.0748
G01 X12.0583 Y8.0637
G01 X12.0472 Y8.0536
G01 X12.0351 Y8.0447
G01 X12.0222 Y8.0369
G01 X12.0086 Y8.0305
G01 X11.9945 Y8.0254
G01 X11.9799 Y8.0218
G01 X11.9650 Y8.0196
G01 X11.9500 Y8.0189
G01 X11.9350 Y8.0196
G01 X11.9201 Y8.0218
G01 X11.9055 Y8.0254
G01 X11.8914 Y8.0305
G01 X11.8778 Y8.0369
G01 X11.8649 Y8.0447
G01 X11.8528 Y8.0536
G01 X11.8417 Y8.0637
G01 X11.8316 Y8.0748
G01 X11.8227 Y8.0869
G01 X11.8149 Y8.0998
G01 X11.8085 Y8.1134
G01 X11.8034 Y8.1275
G01 X11.7998 Y8.1421
G01 X11.7976 Y8.1570
G01 X11.7968 Y8.1720
G01 X11.7976 Y8.1870
G01 X11.7998 Y8.2019
G01 X11.8034 Y8.2165
G01 X11.8085 Y8.2306
G01 X11.8149 Y8.2442
G01 X11.8227 Y8.2571
G01 X11.8316 Y8.2692
G01 X11.8417 Y8.2803
G01 X11.8528 Y8.2904
G01 X11.8649 Y8.2993
G01 X11.8778 Y8.3071
G01 X11.8914 Y8.3135
G01 X11.9055 Y8.3186
G01 X11.9201 Y8.3222
G01 X11.9350 Y8.3244
G01 X11.9500 Y8.3252
G01 X11.9650 Y8.3244
G01 X11.9799 Y8.3222
G01 X11.9945 Y8.3186
G01 X12.0086 Y8.3135
G01 X12.0222 Y8.3071
G01 X12.0351 Y8.2993
G01 X12.0472 Y8.2904
G01 X12.0583 Y8.2803
G01 X12.0684 Y8.2692
G01 X12.0773 Y8.2571
G01 X12.0851 Y8.2442
G01 X12.0915 Y8.2306
G01 X12.0966 Y8.2165
G01 X12.1002 Y8.2019
G01 X12.1024 Y8.1870
G01 X12.1031 Y8.1720
G00 Z2.0000
G00 X12.7921 Y5.5280
G01 F350.00
G01 Z-2.1000
G01 F400.00
G01 X12.7914 Y5.5130
G01 X12.7892 Y5.4981
G01 X12.7856 Y5.4835
G01 X12.7805 Y5.4694
G01 X12.7741 Y5.4558
G01 X12.7663 Y5.4429
G01 X12.7574 Y5.4308
G01 X12.7473 Y5.4197
G01 X12.7362 Y5.4096
G01 X12.7241 Y5.4007
G01 X12.7112 Y5.3929
G01 X12.6976 Y5.3865
G01 X12.6835 Y5.3814
G01 X12.6689 Y5.3778
G01 X12.6540 Y5.3756
G01 X12.6390 Y5.3748
G01 X12.6240 Y5.3756
G01 X12.6091 Y5.3778
G01 X12.5945 Y5.3814
G01 X12.5804 Y5.3865
G01 X12.5668 Y5.3929
G01 X12.5539 Y5.4007
G01 X12.5418 Y5.4096
G01 X12.5307 Y5.4197
G01 X12.5206 Y5.4308
G01 X12.5117 Y5.4429
G01 X12.5039 Y5.4558
G01 X12.4975 Y5.4694
G01 X12.4924 Y5.4835
G01 X12.4888 Y5.4981
G01 X12.4866 Y5.5130
G01 X12.4858 Y5.5280
G01 X12.4866 Y5.5430
G01 X12.4888 Y5.5579
G01 X12.4924 Y5.5725
G01 X12.4975 Y5.5866
G01 X12.5039 Y5.6002
G01 X12.5117 Y5.6131
G01 X12.5206 Y5.6252
G01 X12.5307 Y5.6363
G01 X12.5418 Y5.6464
G01 X12.5539 Y5.6553
G01 X12.5668 Y5.6631
G01 X12.5804 Y5.6695
G01 X12.5945 Y5.6746
G01 X12.6091 Y5.6782
G01 X12.6240 Y5.6804
G01 X12.6390 Y5.6811
G01 X12.6540 Y5.6804
G01 X12.6689 Y5.6782
G01 X12.6835 Y5.6746
G01 X12.6976 Y5.6695
G01 X12.7112 Y5.6631
G01 X12.7241 Y5.6553
G01 X12.7362 Y5.6464
G01 X12.7473 Y5.6363
G01 X12.7574 Y5.6252
G01 X12.7663 Y5.6131
G01 X12.7741 Y5.6002
G01 X12.7805 Y5.5866
G01 X12.7856 Y5.5725
G01 X12.7892 Y5.5579
G01 X12.7914 Y5.5430
G01 X12.7921 Y5.5280
G00 Z2.0000
G00 X15.9531 Y9.4360
G01 F350.00
G01 Z-2.1000
G01 F400.00
G01 X15.9514 Y9.4014
G01 X15.9464 Y9.3671
G01 X15.9379 Y9.3335
G01 X15.9263 Y9.3009
G01 X15.9115 Y9.2695
G01 X15.8936 Y9.2398
G01 X15.8730 Y9.2120
G01 X15.8497 Y9.1863
G01 X15.8240 Y9.1630
G01 X15.7962 Y9.1424
G01 X15.7665 Y9.1245
G01 X15.7351 Y9.1097
G01 X15.7025 Y9.0981
G01 X15.6689 Y9.0896
G01 X15.6346 Y9.0846
G01 X15.6000 Y9.0829
G01 X15.5654 Y9.0846
G01 X15.5311 Y9.0896
G01 X15.4975 Y9.0981
G01 X15.4649 Y9.1097
G01 X15.4335 Y9.1245
G01 X15.4038 Y9.1424
G01 X15.3760 Y9.1630
G01 X15.3503 Y9.1863
G01 X15.3270 Y9.2120
G01 X15.3064 Y9.2398
G01 X15.2885 Y9.2695
G01 X15.2737 Y9.3009
G01 X15.2621 Y9.3335
G01 X15.2536 Y9.3671
G01 X15.2486 Y9.4014
G01 X15.2469 Y9.4360
G01 X15.2486 Y9.4706
G01 X15.2536 Y9.5049
G01 X15.2621 Y9.5385
G01 X15.2737 Y9.5711
G01 X15.2885 Y9.6025
G01 X15.3064 Y9.6322
G01 X15.3270 Y9.6600
G01 X15.3503 Y9.6857
G01 X15.3760 Y9.7090
G01 X15.4038 Y9.7296
G01 X15.4335 Y9.7475
G01 X15.4649 Y9.7623
G01 X15.4975 Y9.7739
G01 X15.5311 Y9.7824
G01 X15.5654 Y9.7874
G01 X15.6000 Y9.7891
G01 X15.6346 Y9.7874
G01 X15.6689 Y9.7824
G01 X15.7025 Y9.7739
G01 X15.7351 Y9.7623
G01 X15.7665 Y9.7475
G01 X15.7962 Y9.7296
G01 X15.8240 Y9.7090
G01 X15.8497 Y9.6857
G01 X15.8730 Y9.6600
G01 X15.8936 Y9.6322
G01 X15.9115 Y9.6025
G01 X15.9263 Y9.5711
G01 X15.9379 Y9.5385
G01 X15.9464 Y9.5049
G01 X15.9514 Y9.4706
G01 X15.9531 Y9.4360
G00 Z2.0000
G00 X19.3821 Y11.3410
G01 F350.00
G01 Z-2.1000
G01 F400.00
G01 X19.3804 Y11.3064
G01 X19.3754 Y11.2721
G01 X19.3669 Y11.2385
G01 X19.3553 Y11.2059
G01 X19.3405 Y11.1745
G01 X19.3226 Y11.1448
G01 X19.3020 Y11.1170
G01 X19.2787 Y11.0913
G01 X19.2530 Y11.0680
G01 X19.2252 Y11.0474
G01 X19.1955 Y11.0295
G01 X19.1641 Y11.0147
G01 X19.1315 Y11.0031
G01 X19.0979 Y10.9946
G01 X19.0636 Y10.9896
G01 X19.0290 Y10.9878
G01 X18.9944 Y10.9896
G01 X18.9601 Y10.9946
G01 X18.9265 Y11.0031
G01 X18.8939 Y11.0147
G01 X18.8625 Y11.0295
G01 X18.8328 Y11.0474
G01 X18.8050 Y11.0680
G01 X18.7793 Y11.0913
G01 X18.7560 Y11.1170
G01 X18.7354 Y11.1448
G01 X18.7175 Y11.1745
G01 X18.7027 Y11.2059
G01 X18.6911 Y11.2385
G01 X18.6826 Y11.2721
G01 X18.6776 Y11.3064
G01 X18.6759 Y11.3410
G01 X18.6776 Y11.3756
G01 X18.6826 Y11.4099
G01 X18.6911 Y11.4435
G01 X18.7027 Y11.4761
G01 X18.7175 Y11.5075
G01 X18.7354 Y11.5372
G01 X18.7560 Y11.5650
G01 X18.7793 Y11.5907
G01 X18.8050 Y11.6140
G01 X18.8328 Y11.6346
G01 X18.8625 Y11.6525
G01 X18.8939 Y11.6673
G01 X18.9265 Y11.6789
G01 X18.9601 Y11.6874
G01 X18.9944 Y11.6924
G01 X19.0290 Y11.6941
G01 X19.0636 Y11.6924
G01 X19.0979 Y11.6874
G01 X19.1315 Y11.6789
G01 X19.1641 Y11.6673
G01 X19.1955 Y11.6525
G01 X19.2252 Y11.6346
G01 X19.2530 Y11.6140
G01 X19.2787 Y11.5907
G01 X19.3020 Y11.5650
G01 X19.3226 Y11.5372
G01 X19.3405 Y11.5075
G01 X19.3553 Y11.4761
G01 X19.3669 Y11.4435
G01 X19.3754 Y11.4099
G01 X19.3804 Y11.3756
G01 X19.3821 Y11.3410
G00 Z2.0000
G00 X15.9531 Y13.5000
G01 F350.00
G01 Z-2.1000
G01 F400.00
G01 X15.9514 Y13.4654
G01 X15.9464 Y13.4311
G01 X15.9379 Y13.3975
G01 X15.9263 Y13.3649
G01 X15.9115 Y13.3335
G01 X15.8936 Y13.3038
G01 X15.8730 Y13.2760
G01 X15.8497 Y13.2503
G01 X15.8240 Y13.2270
G01 X15.7962 Y13.2064
G01 X15.7665 Y13.1885
G01 X15.7351 Y13.1737
G01 X15.7025 Y13.1621
G01 X15.6689 Y13.1536
G01 X15.6346 Y13.1486
G01 X15.6000 Y13.1469
G01 X15.5654 Y13.1486
G01 X15.5311 Y13.1536
G01 X15.4975 Y13.1621
G01 X15.4649 Y13.1737
G01 X15.4335 Y13.1885
G01 X15.4038 Y13.2064
G01 X15.3760 Y13.2270
G01 X15.3503 Y13.2503
G01 X15.3270 Y13.2760
G01 X15.3064 Y13.3038
G01 X15.2885 Y13.3335
G01 X15.2737 Y13.3649
G01 X15.2621 Y13.3975
G01 X15.2536 Y13.4311
G01 X15.2486 Y13.4654
G01 X15.2469 Y13.5000
G01 X15.2486 Y13.5346
G01 X15.2536 Y13.5689
G01 X15.2621 Y13.6025
G01 X15.2737 Y13.6351
G01 X15.2885 Y13.6665
G01 X15.3064 Y13.6962
G01 X15.3270 Y13.7240
G01 X15.3503 Y13.7497
G01 X15.3760 Y13.7730
G01 X15.4038 Y13.7936
G01 X15.4335 Y13.8115
G01 X15.4649 Y13.8263
G01 X15.4975 Y13.8379
G01 X15.5311 Y13.8464
G01 X15.5654 Y13.8514
G01 X15.6000 Y13.8531
G01 X15.6346 Y13.8514
G01 X15.6689 Y13.8464
G01 X15.7025 Y13.8379
G01 X15.7351 Y13.8263
G01 X15.7665 Y13.8115
G01 X15.7962 Y13.7936
G01 X15.8240 Y13.7730
G01 X15.8497 Y13.7497
G01 X15.8730 Y13.7240
G01 X15.8936 Y13.6962
G01 X15.9115 Y13.6665
G01 X15.9263 Y13.6351
G01 X15.9379 Y13.6025
G01 X15.9464 Y13.5689
G01 X15.9514 Y13.5346
G01 X15.9531 Y13.5000
G00 Z2.0000
G00 X12.5241 Y11.5950
G01 F350.00
G01 Z-2.1000
G01 F400.00
G01 X12.5224 Y11.5604
G01 X12.5174 Y11.5261
G01 X12.5089 Y11.4925
G01 X12.4973 Y11.4599
G01 X12.4825 Y11.4285
G01 X12.4646 Y11.3988
G01 X12.4440 Y11.3710
G01 X12.4207 Y11.3453
G01 X12.3950 Y11.3220
G01 X12.3672 Y11.3014
G01 X12.3375 Y11.2835
G01 X12.3061 Y11.2687
G01 X12.2735 Y11.2571
G01 X12.2399 Y11.2486
G01 X12.2056 Y11.2436
G01 X12.1710 Y11.2419
G01 X12.1364 Y11.2436
G01 X12.1021 Y11.2486
G01 X12.0685 Y11.2571
G01 X12.0359 Y11.2687
G01 X12.0045 Y11.2835
G01 X11.9748 Y11.3014
G01 X11.9470 Y11.3220
G01 X11.9213 Y11.3453
G01 X11.8980 Y11.3710
G01 X11.8774 Y11.3988
G01 X11.8595 Y11.4285
G01 X11.8447 Y11.4599
G01 X11.8331 Y11.4925
G01 X11.8246 Y11.5261
G01 X11.8196 Y11.5604
G01 X11.8178 Y11.5950
G01 X11.8196 Y11.6296
G01 X11.8246 Y11.6639
G01 X11.8331 Y11.6975
G01 X11.8447 Y11.7301
G01 X11.8595 Y11.7615
G01 X11.8774 Y11.7912
G01 X11.8980 Y11.8190
G01 X11.9213 Y11.8447
G01 X11.9470 Y11.8680
G01 X11.9748 Y11.8886
G01 X12.0045 Y11.9065
G01 X12.0359 Y11.9213
G01 X12.0685 Y11.9329
G01 X12.1021 Y11.9414
G01 X12.1364 Y11.9464
G01 X12.1710 Y11.9482
G01 X12.2056 Y11.9464
G01 X12.2399 Y11.9414
G01 X12.2735 Y11.9329
G01 X12.3061 Y11.9213
G01 X12.3375 Y11.9065
G01 X12.3672 Y11.8886
G01 X12.3950 Y11.8680
G01 X12.4207 Y11.8447
G01 X12.4440 Y11.8190
G01 X12.4646 Y11.7912
G01 X12.4825 Y11.7615
G01 X12.4973 Y11.7301
G01 X12.5089 Y11.6975
G01 X12.5174 Y11.6639
G01 X12.5224 Y11.6296
G01 X12.5241 Y11.5950
G00 Z2.0000
G00 X9.5632 Y9.4420
G01 F350.00
G01 Z-2.1000
G01 F400.00
G01 X9.5624 Y9.4270
G01 X9.5602 Y9.4121
G01 X9.5566 Y9.3975
G01 X9.5515 Y9.3834
G01 X9.5451 Y9.3698
G01 X9.5373 Y9.3569
G01 X9.5284 Y9.3448
G01 X9.5183 Y9.3337
G01 X9.5072 Y9.3236
G01 X9.4951 Y9.3147
G01 X9.4822 Y9.3069
G01 X9.4686 Y9.3005
G01 X9.4545 Y9.2954
G01 X9.4399 Y9.2918
G01 X9.4250 Y9.2896
G01 X9.4100 Y9.2889
G01 X9.3950 Y9.2896
G01 X9.3801 Y9.2918
G01 X9.3655 Y9.2954
G01 X9.3514 Y9.3005
G01 X9.3378 Y9.3069
G01 X9.3249 Y9.3147
G01 X9.3128 Y9.3236
G01 X9.3017 Y9.3337
G01 X9.2916 Y9.3448
G01 X9.2827 Y9.3569
G01 X9.2749 Y9.3698
G01 X9.2685 Y9.3834
G01 X9.2634 Y9.3975
G01 X9.2598 Y9.4121
G01 X9.2576 Y9.4270
G01 X9.2569 Y9.4420
G01 X9.2576 Y9.4570
G01 X9.2598 Y9.4719
G01 X9.2634 Y9.4865
G01 X9.2685 Y9.5006
G01 X9.2749 Y9.5142
G01 X9.2827 Y9.5271
G01 X9.2916 Y9.5392
G01 X9.3017 Y9.5503
G01 X9.3128 Y9.5604
G01 X9.3249 Y9.5693
G01 X9.3378 Y9.5771
G01 X9.3514 Y9.5835
G01 X9.3655 Y9.5886
G01 X9.3801 Y9.5922
G01 X9.3950 Y9.5944
G01 X9.4100 Y9.5952
G01 X9.4250 Y9.5944
G01 X9.4399 Y9.5922
G01 X9.4545 Y9.5886
G01 X9.4686 Y9.5835
G01 X9.4822 Y9.5771
G01 X9.4951 Y9.5693
G01 X9.5072 Y9.5604
G01 X9.5183 Y9.5503
G01 X9.5284 Y9.5392
G01 X9.5373 Y9.5271
G01 X9.5451 Y9.5142
G01 X9.5515 Y9.5006
G01 X9.5566 Y9.4865
G01 X9.5602 Y9.4719
G01 X9.5624 Y9.4570
G01 X9.5632 Y9.4420
G00 Z2.0000
G00 X7.5312 Y10.9660
G01 F350.00
G01 Z-2.1000
G01 F400.00
G01 X7.5304 Y10.9510
G01 X7.5282 Y10.9361
G01 X7.5246 Y10.9215
G01 X7.5195 Y10.9074
G01 X7.5131 Y10.8938
G01 X7.5053 Y10.8809
G01 X7.4964 Y10.8688
G01 X7.4863 Y10.8577
G01 X7.4752 Y10.8476
G01 X7.4631 Y10.8387
G01 X7.4502 Y10.8309
G01 X7.4366 Y10.8245
G01 X7.4225 Y10.8194
G01 X7.4079 Y10.8158
G01 X7.3930 Y10.8136
G01 X7.3780 Y10.8128
G01 X7.3630 Y10.8136
G01 X7.3481 Y10.8158
G01 X7.3335 Y10.8194
G01 X7.3194 Y10.8245
G01 X7.3058 Y10.8309
G01 X7.2929 Y10.8387
G01 X7.2808 Y10.8476
G01 X7.2697 Y10.8577
G01 X7.2596 Y10.8688
G01 X7.2507 Y10.8809
G01 X7.2429 Y10.8938
G01 X7.2365 Y10.9074
G01 X7.2314 Y10.9215
G01 X7.2278 Y10.9361
G01 X7.2256 Y10.9510
G01 X7.2248 Y10.9660
G01 X7.2256 Y10.9810
G01 X7.2278 Y10.9959
G01 X7.2314 Y11.0105
G01 X7.2365 Y11.0246
G01 X7.2429 Y11.0382
G01 X7.2507 Y11.0511
G01 X7.2596 Y11.0632
G01 X7.2697 Y11.0743
G01 X7.2808 Y11.0844
G01 X7.2929 Y11.0933
G01 X7.3058 Y11.1011
G01 X7.3194 Y11.1075
G01 X7.3335 Y11.1126
G01 X7.3481 Y11.1162
G01 X7.3630 Y11.1184
G01 X7.3780 Y11.1191
G01 X7.3930 Y11.1184
G01 X7.4079 Y11.1162
G01 X7.4225 Y11.1126
G01 X7.4366 Y11.1075
G01 X7.4502 Y11.1011
G01 X7.4631 Y11.0933
G01 X7.4752 Y11.0844
G01 X7.4863 Y11.0743
G01 X7.4964 Y11.0632
G01 X7.5053 Y11.0511
G01 X7.5131 Y11.0382
G01 X7.5195 Y11.0246
G01 X7.5246 Y11.0105
G01 X7.5282 Y10.9959
G01 X7.5304 Y10.9810
G01 X7.5312 Y10.9660
G00 Z2.0000
G00 X2.1231 Y11.9900
G01 F350.00
G01 Z-2.1000
G01 F400.00
G01 X2.1224 Y11.9750
G01 X2.1202 Y11.9601
G01 X2.1166 Y11.9455
G01 X2.1115 Y11.9314
G01 X2.1051 Y11.9178
G01 X2.0973 Y11.9049
G01 X2.0884 Y11.8928
G01 X2.0783 Y11.8817
G01 X2.0672 Y11.8716
G01 X2.0551 Y11.8627
G01 X2.0422 Y11.8549
G01 X2.0286 Y11.8485
G01 X2.0145 Y11.8434
G01 X1.9999 Y11.8398
G01 X1.9850 Y11.8376
G01 X1.9700 Y11.8369
G01 X1.9550 Y11.8376
G01 X1.9401 Y11.8398
G01 X1.9255 Y11.8434
G01 X1.9114 Y11.8485
G01 X1.8978 Y11.8549
G01 X1.8849 Y11.8627
G01 X1.8728 Y11.8716
G01 X1.8617 Y11.8817
G01 X1.8516 Y11.8928
G01 X1.8427 Y11.9049
G01 X1.8349 Y11.9178
G01 X1.8285 Y11.9314
G01 X1.8234 Y11.9455
G01 X1.8198 Y11.9601
G01 X1.8176 Y11.9750
G01 X1.8168 Y11.9900
G01 X1.8176 Y12.0050
G01 X1.8198 Y12.0199
G01 X1.8234 Y12.0345
G01 X1.8285 Y12.0486
G01 X1.8349 Y12.0622
G01 X1.8427 Y12.0751
G01 X1.8516 Y12.0872
G01 X1.8617 Y12.0983
G01 X1.8728 Y12.1084
G01 X1.8849 Y12.1173
G01 X1.8978 Y12.1251
G01 X1.9114 Y12.1315
G01 X1.9255 Y12.1366
G01 X1.9401 Y12.1402
G01 X1.9550 Y12.1424
G01 X1.9700 Y12.1432
G01 X1.9850 Y12.1424
G01 X1.9999 Y12.1402
G01 X2.0145 Y12.1366
G01 X2.0286 Y12.1315
G01 X2.0422 Y12.1251
G01 X2.0551 Y12.1173
G01 X2.0672 Y12.1084
G01 X2.0783 Y12.0983
G01 X2.0884 Y12.0872
G01 X2.0973 Y12.0751
G01 X2.1051 Y12.0622
G01 X2.1115 Y12.0486
G01 X2.1166 Y12.0345
G01 X2.1202 Y12.0199
G01 X2.1224 Y12.0050
G01 X2.1231 Y11.9900
G00 Z2.0000
G00 X4.4832 Y20.3710
G01 F350.00
G01 Z-2.1000
G01 F400.00
G01 X4.4824 Y20.3560
G01 X4.4802 Y20.3411
G01 X4.4766 Y20.3265
G01 X4.4715 Y20.3124
G01 X4.4651 Y20.2988
G01 X4.4573 Y20.2859
G01 X4.4484 Y20.2738
G01 X4.4383 Y20.2627
G01 X4.4272 Y20.2526
G01 X4.4151 Y20.2437
G01 X4.4022 Y20.2359
G01 X4.3886 Y20.2295
G01 X4.3745 Y20.2244
G01 X4.3599 Y20.2208
G01 X4.3450 Y20.2186
G01 X4.3300 Y20.2178
G01 X4.3150 Y20.2186
G01 X4.3001 Y20.2208
G01 X4.2855 Y20.2244
G01 X4.2714 Y20.2295
G01 X4.2578 Y20.2359
G01 X4.2449 Y20.2437
G01 X4.2328 Y20.2526
G01 X4.2217 Y20.2627
G01 X4.2116 Y20.2738
G01 X4.2027 Y20.2859
G01 X4.1949 Y20.2988
G01 X4.1885 Y20.3124
G01 X4.1834 Y20.3265
G01 X4.1798 Y20.3411
G01 X4.1776 Y20.3560
G01 X4.1768 Y20.3710
G01 X4.1776 Y20.3860
G01 X4.1798 Y20.4009
G01 X4.1834 Y20.4155
G01 X4.1885 Y20.4296
G01 X4.1949 Y20.4432
G01 X4.2027 Y20.4561
G01 X4.2116 Y20.4682
G01 X4.2217 Y20.4793
G01 X4.2328 Y20.4894
G01 X4.2449 Y20.4983
G01 X4.2578 Y20.5061
G01 X4.2714 Y20.5125
G01 X4.2855 Y20.5176
G01 X4.3001 Y20.5212
G01 X4.3150 Y20.5234
G01 X4.3300 Y20.5241
G01 X4.3450 Y20.5234
G01 X4.3599 Y20.5212
G01 X4.3745 Y20.5176
G01 X4.3886 Y20.5125
G01 X4.4022 Y20.5061
G01 X4.4151 Y20.4983
G01 X4.4272 Y20.4894
G01 X4.4383 Y20.4793
G01 X4.4484 Y20.4682
G01 X4.4573 Y20.4561
G01 X4.4651 Y20.4432
G01 X4.4715 Y20.4296
G01 X4.4766 Y20.4155
G01 X4.4802 Y20.4009
G01 X4.4824 Y20.3860
G01 X4.4832 Y20.3710
G00 Z2.0000
G00 X1.4352 Y21.6340
G01 F350.00
G01 Z-2.1000
G01 F400.00
G01 X1.4344 Y21.6190
G01 X1.4322 Y21.6041
G01 X1.4286 Y21.5895
G01 X1.4235 Y21.5754
G01 X1.4171 Y21.5618
G01 X1.4093 Y21.5489
G01 X1.4004 Y21.5368
G01 X1.3903 Y21.5257
G01 X1.3792 Y21.5156
G01 X1.3671 Y21.5067
G01 X1.3542 Y21.4989
G01 X1.3406 Y21.4925
G01 X1.3265 Y21.4874
G01 X1.3119 Y21.4838
G01 X1.2970 Y21.4816
G01 X1.2820 Y21.4809
G01 X1.2670 Y21.4816
G01 X1.2521 Y21.4838
G01 X1.2375 Y21.4874
G01 X1.2234 Y21.4925
G01 X1.2098 Y21.4989
G01 X1.1969 Y21.5067
G01 X1.1848 Y21.5156
G01 X1.1737 Y21.5257
G01 X1.1636 Y21.5368
G01 X1.1547 Y21.5489
G01 X1.1469 Y21.5618
G01 X1.1405 Y21.5754
G01 X1.1354 Y21.5895
G01 X1.1318 Y21.6041
G01 X1.1296 Y21.6190
G01 X1.1288 Y21.6340
G01 X1.1296 Y21.6490
G01 X1.1318 Y21.6639
G01 X1.1354 Y21.6785
G01 X1.1405 Y21.6926
G01 X1.1469 Y21.7062
G01 X1.1547 Y21.7191
G01 X1.1636 Y21.7312
G01 X1.1737 Y21.7423
G01 X1.1848 Y21.7524
G01 X1.1969 Y21.7613
G01 X1.2098 Y21.7691
G01 X1.2234 Y21.7755
G01 X1.2375 Y21.7806
G01 X1.2521 Y21.7842
G01 X1.2670 Y21.7864
G01 X1.2820 Y21.7872
G01 X1.2970 Y21.7864
G01 X1.3119 Y21.7842
G01 X1.3265 Y21.7806
G01 X1.3406 Y21.7755
G01 X1.3542 Y21.7691
G01 X1.3671 Y21.7613
G01 X1.3792 Y21.7524
G01 X1.3903 Y21.7423
G01 X1.4004 Y21.7312
G01 X1.4093 Y21.7191
G01 X1.4171 Y21.7062
G01 X1.4235 Y21.6926
G01 X1.4286 Y21.6785
G01 X1.4322 Y21.6639
G01 X1.4344 Y21.6490
G01 X1.4352 Y21.6340
G00 Z2.0000
G00 X12.5241 Y15.6590
G01 F350.00
G01 Z-2.1000
G01 F400.00
G01 X12.5224 Y15.6244
G01 X12.5174 Y15.5901
G01 X12.5089 Y15.5565
G01 X12.4973 Y15.5239
G01 X12.4825 Y15.4925
G01 X12.4646 Y15.4628
G01 X12.4440 Y15.4350
G01 X12.4207 Y15.4093
G01 X12.3950 Y15.3860
G01 X12.3672 Y15.3654
G01 X12.3375 Y15.3475
G01 X12.3061 Y15.3327
G01 X12.2735 Y15.3211
G01 X12.2399 Y15.3126
G01 X12.2056 Y15.3076
G01 X12.1710 Y15.3059
G01 X12.1364 Y15.3076
G01 X12.1021 Y15.3126
G01 X12.0685 Y15.3211
G01 X12.0359 Y15.3327
G01 X12.0045 Y15.3475
G01 X11.9748 Y15.3654
G01 X11.9470 Y15.3860
G01 X11.9213 Y15.4093
G01 X11.8980 Y15.4350
G01 X11.8774 Y15.4628
G01 X11.8595 Y15.4925
G01 X11.8447 Y15.5239
G01 X11.8331 Y15.5565
G01 X11.8246 Y15.5901
G01 X11.8196 Y15.6244
G01 X11.8178 Y15.6590
G01 X11.8196 Y15.6936
G01 X11.8246 Y15.7279
G01 X11.8331 Y15.7615
G01 X11.8447 Y15.7941
G01 X11.8595 Y15.8255
G01 X11.8774 Y15.8552
G01 X11.8980 Y15.8830
G01 X11.9213 Y15.9087
G01 X11.9470 Y15.9320
G01 X11.9748 Y15.9526
G01 X12.0045 Y15.9705
G01 X12.0359 Y15.9853
G01 X12.0685 Y15.9969
G01 X12.1021 Y16.0054
G01 X12.1364 Y16.0104
G01 X12.1710 Y16.0122
G01 X12.2056 Y16.0104
G01 X12.2399 Y16.0054
G01 X12.2735 Y15.9969
G01 X12.3061 Y15.9853
G01 X12.3375 Y15.9705
G01 X12.3672 Y15.9526
G01 X12.3950 Y15.9320
G01 X12.4207 Y15.9087
G01 X12.4440 Y15.8830
G01 X12.4646 Y15.8552
G01 X12.4825 Y15.8255
G01 X12.4973 Y15.7941
G01 X12.5089 Y15.7615
G01 X12.5174 Y15.7279
G01 X12.5224 Y15.6936
G01 X12.5241 Y15.6590
G00 Z2.0000
G00 X15.9531 Y17.5640
G01 F350.00
G01 Z-2.1000
G01 F400.00
G01 X15.9514 Y17.5294
G01 X15.9464 Y17.4951
G01 X15.9379 Y17.4615
G01 X15.9263 Y17.4289
G01 X15.9115 Y17.3975
G01 X15.8936 Y17.3678
G01 X15.8730 Y17.3400
G01 X15.8497 Y17.3143
G01 X15.8240 Y17.2910
G01 X15.7962 Y17.2704
G01 X15.7665 Y17.2525
G01 X15.7351 Y17.2377
G01 X15.7025 Y17.2261
G01 X15.6689 Y17.2176
G01 X15.6346 Y17.2126
G01 X15.6000 Y17.2109
G01 X15.5654 Y17.2126
G01 X15.5311 Y17.2176
G01 X15.4975 Y17.2261
G01 X15.4649 Y17.2377
G01 X15.4335 Y17.2525
G01 X15.4038 Y17.2704
G01 X15.3760 Y17.2910
G01 X15.3503 Y17.3143
G01 X15.3270 Y17.3400
G01 X15.3064 Y17.3678
G01 X15.2885 Y17.3975
G01 X15.2737 Y17.4289
G01 X15.2621 Y17.4615
G01 X15.2536 Y17.4951
G01 X15.2486 Y17.5294
G01 X15.2469 Y17.5640
G01 X15.2486 Y17.5986
G01 X15.2536 Y17.6329
G01 X15.2621 Y17.6665
G01 X15.2737 Y17.6991
G01 X15.2885 Y17.7305
G01 X15.3064 Y17.7602
G01 X15.3270 Y17.7880
G01 X15.3503 Y17.8137
G01 X15.3760 Y17.8370
G01 X15.4038 Y17.8576
G01 X15.4335 Y17.8755
G01 X15.4649 Y17.8903
G01 X15.4975 Y17.9019
G01 X15.5311 Y17.9104
G01 X15.5654 Y17.9154
G01 X15.6000 Y17.9171
G01 X15.6346 Y17.9154
G01 X15.6689 Y17.9104
G01 X15.7025 Y17.9019
G01 X15.7351 Y17.8903
G01 X15.7665 Y17.8755
G01 X15.7962 Y17.8576
G01 X15.8240 Y17.8370
G01 X15.8497 Y17.8137
G01 X15.8730 Y17.7880
G01 X15.8936 Y17.7602
G01 X15.9115 Y17.7305
G01 X15.9263 Y17.6991
G01 X15.9379 Y17.6665
G01 X15.9464 Y17.6329
G01 X15.9514 Y17.5986
G01 X15.9531 Y17.5640
G00 Z2.0000
G00 X19.3821 Y15.5320
G01 F350.00
G01 Z-2.1000
G01 F400.00
G01 X19.3804 Y15.4974
G01 X19.3754 Y15.4631
G01 X19.3669 Y15.4295
G01 X19.3553 Y15.3969
G01 X19.3405 Y15.3655
G01 X19.3226 Y15.3358
G01 X19.3020 Y15.3080
G01 X19.2787 Y15.2823
G01 X19.2530 Y15.2590
G01 X19.2252 Y15.2384
G01 X19.1955 Y15.2205
G01 X19.1641 Y15.2057
G01 X19.1315 Y15.1941
G01 X19.0979 Y15.1856
G01 X19.0636 Y15.1806
G01 X19.0290 Y15.1789
G01 X18.9944 Y15.1806
G01 X18.9601 Y15.1856
G01 X18.9265 Y15.1941
G01 X18.8939 Y15.2057
G01 X18.8625 Y15.2205
G01 X18.8328 Y15.2384
G01 X18.8050 Y15.2590
G01 X18.7793 Y15.2823
G01 X18.7560 Y15.3080
G01 X18.7354 Y15.3358
G01 X18.7175 Y15.3655
G01 X18.7027 Y15.3969
G01 X18.6911 Y15.4295
G01 X18.6826 Y15.4631
G01 X18.6776 Y15.4974
G01 X18.6759 Y15.5320
G01 X18.6776 Y15.5666
G01 X18.6826 Y15.6009
G01 X18.6911 Y15.6345
G01 X18.7027 Y15.6671
G01 X18.7175 Y15.6985
G01 X18.7354 Y15.7282
G01 X18.7560 Y15.7560
G01 X18.7793 Y15.7817
G01 X18.8050 Y15.8050
G01 X18.8328 Y15.8256
G01 X18.8625 Y15.8435
G01 X18.8939 Y15.8583
G01 X18.9265 Y15.8699
G01 X18.9601 Y15.8784
G01 X18.9944 Y15.8834
G01 X19.0290 Y15.8851
G01 X19.0636 Y15.8834
G01 X19.0979 Y15.8784
G01 X19.1315 Y15.8699
G01 X19.1641 Y15.8583
G01 X19.1955 Y15.8435
G01 X19.2252 Y15.8256
G01 X19.2530 Y15.8050
G01 X19.2787 Y15.7817
G01 X19.3020 Y15.7560
G01 X19.3226 Y15.7282
G01 X19.3405 Y15.6985
G01 X19.3553 Y15.6671
G01 X19.3669 Y15.6345
G01 X19.3754 Y15.6009
G01 X19.3804 Y15.5666
G01 X19.3821 Y15.5320
G00 Z2.0000
G00 X24.0412 Y14.5220
G01 F350.00
G01 Z-2.1000
G01 F400.00
G01 X24.0404 Y14.5070
G01 X24.0382 Y14.4921
G01 X24.0346 Y14.4775
G01 X24.0295 Y14.4634
G01 X24.0231 Y14.4498
G01 X24.0153 Y14.4369
G01 X24.0064 Y14.4248
G01 X23.9963 Y14.4137
G01 X23.9852 Y14.4036
G01 X23.9731 Y14.3947
G01 X23.9602 Y14.3869
G01 X23.9466 Y14.3805
G01 X23.9325 Y14.3754
G01 X23.9179 Y14.3718
G01 X23.9030 Y14.3696
G01 X23.8880 Y14.3689
G01 X23.8730 Y14.3696
G01 X23.8581 Y14.3718
G01 X23.8435 Y14.3754
G01 X23.8294 Y14.3805
G01 X23.8158 Y14.3869
G01 X23.8029 Y14.3947
G01 X23.7908 Y14.4036
G01 X23.7797 Y14.4137
G01 X23.7696 Y14.4248
G01 X23.7607 Y14.4369
G01 X23.7529 Y14.4498
G01 X23.7465 Y14.4634
G01 X23.7414 Y14.4775
G01 X23.7378 Y14.4921
G01 X23.7356 Y14.5070
G01 X23.7349 Y14.5220
G01 X23.7356 Y14.5370
G01 X23.7378 Y14.5519
G01 X23.7414 Y14.5665
G01 X23.7465 Y14.5806
G01 X23.7529 Y14.5942
G01 X23.7607 Y14.6071
G01 X23.7696 Y14.6192
G01 X23.7797 Y14.6303
G01 X23.7908 Y14.6404
G01 X23.8029 Y14.6493
G01 X23.8158 Y14.6571
G01 X23.8294 Y14.6635
G01 X23.8435 Y14.6686
G01 X23.8581 Y14.6722
G01 X23.8730 Y14.6744
G01 X23.8880 Y14.6752
G01 X23.9030 Y14.6744
G01 X23.9179 Y14.6722
G01 X23.9325 Y14.6686
G01 X23.9466 Y14.6635
G01 X23.9602 Y14.6571
G01 X23.9731 Y14.6493
G01 X23.9852 Y14.6404
G01 X23.9963 Y14.6303
G01 X24.0064 Y14.6192
G01 X24.0153 Y14.6071
G01 X24.0231 Y14.5942
G01 X24.0295 Y14.5806
G01 X24.0346 Y14.5665
G01 X24.0382 Y14.5519
G01 X24.0404 Y14.5370
G01 X24.0412 Y14.5220
G00 Z2.0000
G00 X23.7032 Y20.5000
G01 F350.00
G01 Z-2.1000
G01 F400.00
G01 X23.6978 Y20.3919
G01 X23.6820 Y20.2848
G01 X23.6556 Y20.1798
G01 X23.6192 Y20.0778
G01 X23.5729 Y19.9800
G01 X23.5172 Y19.8871
G01 X23.4527 Y19.8002
G01 X23.3800 Y19.7200
G01 X23.2998 Y19.6473
G01 X23.2129 Y19.5828
G01 X23.1200 Y19.5271
G01 X23.0222 Y19.4808
G01 X22.9202 Y19.4444
G01 X22.8152 Y19.4180
G01 X22.7081 Y19.4022
G01 X22.6000 Y19.3969
G01 X22.4919 Y19.4022
G01 X22.3848 Y19.4180
G01 X22.2798 Y19.4444
G01 X22.1778 Y19.4808
G01 X22.0800 Y19.5271
G01 X21.9871 Y19.5828
G01 X21.9002 Y19.6473
G01 X21.8200 Y19.7200
G01 X21.7473 Y19.8002
G01 X21.6828 Y19.8871
G01 X21.6271 Y19.9800
G01 X21.5808 Y20.0778
G01 X21.5444 Y20.1798
G01 X21.5180 Y20.2848
G01 X21.5022 Y20.3919
G01 X21.4969 Y20.5000
G01 X21.5022 Y20.6081
G01 X21.5180 Y20.7152
G01 X21.5444 Y20.8202
G01 X21.5808 Y20.9222
G01 X21.6271 Y21.0200
G01 X21.6828 Y21.1129
G01 X21.7473 Y21.1998
G01 X21.8200 Y21.2800
G01 X21.9002 Y21.3527
G01 X21.9871 Y21.4172
G01 X22.0800 Y21.4729
G01 X22.1778 Y21.5192
G01 X22.2798 Y21.5556
G01 X22.3848 Y21.5820
G01 X22.4919 Y21.5978
G01 X22.6000 Y21.6031
G01 X22.7081 Y21.5978
G01 X22.8152 Y21.5820
G01 X22.9202 Y21.5556
G01 X23.0222 Y21.5192
G01 X23.1200 Y21.4729
G01 X23.2129 Y21.4172
G01 X23.2998 Y21.3527
G01 X23.3800 Y21.2800
G01 X23.4527 Y21.1998
G01 X23.5172 Y21.1129
G01 X23.5729 Y21.0200
G01 X23.6192 Y20.9222
G01 X23.6556 Y20.8202
G01 X23.6820 Y20.7152
G01 X23.6978 Y20.6081
G01 X23.7032 Y20.5000
G00 Z2.0000
G00 X26.8351 Y20.6180
G01 F350.00
G01 Z-2.1000
G01 F400.00
G01 X26.8344 Y20.6030
G01 X26.8322 Y20.5881
G01 X26.8286 Y20.5735
G01 X26.8235 Y20.5594
G01 X26.8171 Y20.5458
G01 X26.8093 Y20.5329
G01 X26.8004 Y20.5208
G01 X26.7903 Y20.5097
G01 X26.7792 Y20.4996
G01 X26.7671 Y20.4907
G01 X26.7542 Y20.4829
G01 X26.7406 Y20.4765
G01 X26.7265 Y20.4714
G01 X26.7119 Y20.4678
G01 X26.6970 Y20.4656
G01 X26.6820 Y20.4648
G01 X26.6670 Y20.4656
G01 X26.6521 Y20.4678
G01 X26.6375 Y20.4714
G01 X26.6234 Y20.4765
G01 X26.6098 Y20.4829
G01 X26.5969 Y20.4907
G01 X26.5848 Y20.4996
G01 X26.5737 Y20.5097
G01 X26.5636 Y20.5208
G01 X26.5547 Y20.5329
G01 X26.5469 Y20.5458
G01 X26.5405 Y20.5594
G01 X26.5354 Y20.5735
G01 X26.5318 Y20.5881
G01 X26.5296 Y20.6030
G01 X26.5288 Y20.6180
G01 X26.5296 Y20.6330
G01 X26.5318 Y20.6479
G01 X26.5354 Y20.6625
G01 X26.5405 Y20.6766
G01 X26.5469 Y20.6902
G01 X26.5547 Y20.7031
G01 X26.5636 Y20.7152
G01 X26.5737 Y20.7263
G01 X26.5848 Y20.7364
G01 X26.5969 Y20.7453
G01 X26.6098 Y20.7531
G01 X26.6234 Y20.7595
G01 X26.6375 Y20.7646
G01 X26.6521 Y20.7682
G01 X26.6670 Y20.7704
G01 X26.6820 Y20.7711
G01 X26.6970 Y20.7704
G01 X26.7119 Y20.7682
G01 X26.7265 Y20.7646
G01 X26.7406 Y20.7595
G01 X26.7542 Y20.7531
G01 X26.7671 Y20.7453
G01 X26.7792 Y20.7364
G01 X26.7903 Y20.7263
G01 X26.8004 Y20.7152
G01 X26.8093 Y20.7031
G01 X26.8171 Y20.6902
G01 X26.8235 Y20.6766
G01 X26.8286 Y20.6625
G01 X26.8322 Y20.6479
G01 X26.8344 Y20.6330
G01 X26.8351 Y20.6180
G00 Z2.0000
G00 X26.8351 Y27.2220
G01 F350.00
G01 Z-2.1000
G01 F400.00
G01 X26.8344 Y27.2070
G01 X26.8322 Y27.1921
G01 X26.8286 Y27.1775
G01 X26.8235 Y27.1634
G01 X26.8171 Y27.1498
G01 X26.8093 Y27.1369
G01 X26.8004 Y27.1248
G01 X26.7903 Y27.1137
G01 X26.7792 Y27.1036
G01 X26.7671 Y27.0947
G01 X26.7542 Y27.0869
G01 X26.7406 Y27.0805
G01 X26.7265 Y27.0754
G01 X26.7119 Y27.0718
G01 X26.6970 Y27.0696
G01 X26.6820 Y27.0689
G01 X26.6670 Y27.0696
G01 X26.6521 Y27.0718
G01 X26.6375 Y27.0754
G01 X26.6234 Y27.0805
G01 X26.6098 Y27.0869
G01 X26.5969 Y27.0947
G01 X26.5848 Y27.1036
G01 X26.5737 Y27.1137
G01 X26.5636 Y27.1248
G01 X26.5547 Y27.1369
G01 X26.5469 Y27.1498
G01 X26.5405 Y27.1634
G01 X26.5354 Y27.1775
G01 X26.5318 Y27.1921
G01 X26.5296 Y27.2070
G01 X26.5288 Y27.2220
G01 X26.5296 Y27.2370
G01 X26.5318 Y27.2519
G01 X26.5354 Y27.2665
G01 X26.5405 Y27.2806
G01 X26.5469 Y27.2942
G01 X26.5547 Y27.3071
G01 X26.5636 Y27.3192
G01 X26.5737 Y27.3303
G01 X26.5848 Y27.3404
G01 X26.5969 Y27.3493
G01 X26.6098 Y27.3571
G01 X26.6234 Y27.3635
G01 X26.6375 Y27.3686
G01 X26.6521 Y27.3722
G01 X26.6670 Y27.3744
G01 X26.6820 Y27.3752
G01 X26.6970 Y27.3744
G01 X26.7119 Y27.3722
G01 X26.7265 Y27.3686
G01 X26.7406 Y27.3635
G01 X26.7542 Y27.3571
G01 X26.7671 Y27.3493
G01 X26.7792 Y27.3404
G01 X26.7903 Y27.3303
G01 X26.8004 Y27.3192
G01 X26.8093 Y27.3071
G01 X26.8171 Y27.2942
G01 X26.8235 Y27.2806
G01 X26.8286 Y27.2665
G01 X26.8322 Y27.2519
G01 X26.8344 Y27.2370
G01 X26.8351 Y27.2220
G00 Z2.0000
G00 X22.2631 Y32.8100
G01 F350.00
G01 Z-2.1000
G01 F400.00
G01 X22.2624 Y32.7950
G01 X22.2602 Y32.7801
G01 X22.2566 Y32.7655
G01 X22.2515 Y32.7514
G01 X22.2451 Y32.7378
G01 X22.2373 Y32.7249
G01 X22.2284 Y32.7128
G01 X22.2183 Y32.7017
G01 X22.2072 Y32.6916
G01 X22.1951 Y32.6827
G01 X22.1822 Y32.6749
G01 X22.1686 Y32.6685
G01 X22.1545 Y32.6634
G01 X22.1399 Y32.6598
G01 X22.1250 Y32.6576
G01 X22.1100 Y32.6569
G01 X22.0950 Y32.6576
G01 X22.0801 Y32.6598
G01 X22.0655 Y32.6634
G01 X22.0514 Y32.6685
G01 X22.0378 Y32.6749
G01 X22.0249 Y32.6827
G01 X22.0128 Y32.6916
G01 X22.0017 Y32.7017
G01 X21.9916 Y32.7128
G01 X21.9827 Y32.7249
G01 X21.9749 Y32.7378
G01 X21.9685 Y32.7514
G01 X21.9634 Y32.7655
G01 X21.9598 Y32.7801
G01 X21.9576 Y32.7950
G01 X21.9568 Y32.8100
G01 X21.9576 Y32.8250
G01 X21.9598 Y32.8399
G01 X21.9634 Y32.8545
G01 X21.9685 Y32.8686
G01 X21.9749 Y32.8822
G01 X21.9827 Y32.8951
G01 X21.9916 Y32.9072
G01 X22.0017 Y32.9183
G01 X22.0128 Y32.9284
G01 X22.0249 Y32.9373
G01 X22.0378 Y32.9451
G01 X22.0514 Y32.9515
G01 X22.0655 Y32.9566
G01 X22.0801 Y32.9602
G01 X22.0950 Y32.9624
G01 X22.1100 Y32.9631
G01 X22.1250 Y32.9624
G01 X22.1399 Y32.9602
G01 X22.1545 Y32.9566
G01 X22.1686 Y32.9515
G01 X22.1822 Y32.9451
G01 X22.1951 Y32.9373
G01 X22.2072 Y32.9284
G01 X22.2183 Y32.9183
G01 X22.2284 Y32.9072
G01 X22.2373 Y32.8951
G01 X22.2451 Y32.8822
G01 X22.2515 Y32.8686
G01 X22.2566 Y32.8545
G01 X22.2602 Y32.8399
G01 X22.2624 Y32.8250
G01 X22.2631 Y32.8100
G00 Z2.0000
G00 X14.6432 Y31.2860
G01 F350.00
G01 Z-2.1000
G01 F400.00
G01 X14.6424 Y31.2710
G01 X14.6402 Y31.2561
G01 X14.6366 Y31.2415
G01 X14.6315 Y31.2274
G01 X14.6251 Y31.2138
G01 X14.6173 Y31.2009
G01 X14.6084 Y31.1888
G01 X14.5983 Y31.1777
G01 X14.5872 Y31.1676
G01 X14.5751 Y31.1587
G01 X14.5622 Y31.1509
G01 X14.5486 Y31.1445
G01 X14.5345 Y31.1394
G01 X14.5199 Y31.1358
G01 X14.5050 Y31.1336
G01 X14.4900 Y31.1329
G01 X14.4750 Y31.1336
G01 X14.4601 Y31.1358
G01 X14.4455 Y31.1394
G01 X14.4314 Y31.1445
G01 X14.4178 Y31.1509
G01 X14.4049 Y31.1587
G01 X14.3928 Y31.1676
G01 X14.3817 Y31.1777
G01 X14.3716 Y31.1888
G01 X14.3627 Y31.2009
G01 X14.3549 Y31.2138
G01 X14.3485 Y31.2274
G01 X14.3434 Y31.2415
G01 X14.3398 Y31.2561
G01 X14.3376 Y31.2710
G01 X14.3369 Y31.2860
G01 X14.3376 Y31.3010
G01 X14.3398 Y31.3159
G01 X14.3434 Y31.3305
G01 X14.3485 Y31.3446
G01 X14.3549 Y31.3582
G01 X14.3627 Y31.3711
G01 X14.3716 Y31.3832
G01 X14.3817 Y31.3943
G01 X14.3928 Y31.4044
G01 X14.4049 Y31.4133
G01 X14.4178 Y31.4211
G01 X14.4314 Y31.4275
G01 X14.4455 Y31.4326
G01 X14.4601 Y31.4362
G01 X14.4750 Y31.4384
G01 X14.4900 Y31.4392
G01 X14.5050 Y31.4384
G01 X14.5199 Y31.4362
G01 X14.5345 Y31.4326
G01 X14.5486 Y31.4275
G01 X14.5622 Y31.4211
G01 X14.5751 Y31.4133
G01 X14.5872 Y31.4044
G01 X14.5983 Y31.3943
G01 X14.6084 Y31.3832
G01 X14.6173 Y31.3711
G01 X14.6251 Y31.3582
G01 X14.6315 Y31.3446
G01 X14.6366 Y31.3305
G01 X14.6402 Y31.3159
G01 X14.6424 Y31.3010
G01 X14.6432 Y31.2860
G00 Z2.0000
G00 X12.3572 Y33.8120
G01 F350.00
G01 Z-2.1000
G01 F400.00
G01 X12.3564 Y33.7970
G01 X12.3542 Y33.7821
G01 X12.3506 Y33.7675
G01 X12.3455 Y33.7534
G01 X12.3391 Y33.7398
G01 X12.3313 Y33.7269
G01 X12.3224 Y33.7148
G01 X12.3123 Y33.7037
G01 X12.3012 Y33.6936
G01 X12.2891 Y33.6847
G01 X12.2762 Y33.6769
G01 X12.2626 Y33.6705
G01 X12.2485 Y33.6654
G01 X12.2339 Y33.6618
G01 X12.2190 Y33.6596
G01 X12.2040 Y33.6589
G01 X12.1890 Y33.6596
G01 X12.1741 Y33.6618
G01 X12.1595 Y33.6654
G01 X12.1454 Y33.6705
G01 X12.1318 Y33.6769
G01 X12.1189 Y33.6847
G01 X12.1068 Y33.6936
G01 X12.0957 Y33.7037
G01 X12.0856 Y33.7148
G01 X12.0767 Y33.7269
G01 X12.0689 Y33.7398
G01 X12.0625 Y33.7534
G01 X12.0574 Y33.7675
G01 X12.0538 Y33.7821
G01 X12.0516 Y33.7970
G01 X12.0509 Y33.8120
G01 X12.0516 Y33.8270
G01 X12.0538 Y33.8419
G01 X12.0574 Y33.8565
G01 X12.0625 Y33.8706
G01 X12.0689 Y33.8842
G01 X12.0767 Y33.8971
G01 X12.0856 Y33.9092
G01 X12.0957 Y33.9203
G01 X12.1068 Y33.9304
G01 X12.1189 Y33.9393
G01 X12.1318 Y33.9471
G01 X12.1454 Y33.9535
G01 X12.1595 Y33.9586
G01 X12.1741 Y33.9622
G01 X12.1890 Y33.9644
G01 X12.2040 Y33.9651
G01 X12.2190 Y33.9644
G01 X12.2339 Y33.9622
G01 X12.2485 Y33.9586
G01 X12.2626 Y33.9535
G01 X12.2762 Y33.9471
G01 X12.2891 Y33.9393
G01 X12.3012 Y33.9304
G01 X12.3123 Y33.9203
G01 X12.3224 Y33.9092
G01 X12.3313 Y33.8971
G01 X12.3391 Y33.8842
G01 X12.3455 Y33.8706
G01 X12.3506 Y33.8565
G01 X12.3542 Y33.8419
G01 X12.3564 Y33.8270
G01 X12.3572 Y33.8120
G00 Z2.0000
G00 X30.6892 Y40.0910
G01 F350.00
G01 Z-2.1000
G01 F400.00
G01 X30.6884 Y40.0760
G01 X30.6862 Y40.0611
G01 X30.6826 Y40.0465
G01 X30.6775 Y40.0324
G01 X30.6711 Y40.0188
G01 X30.6633 Y40.0059
G01 X30.6544 Y39.9938
G01 X30.6443 Y39.9827
G01 X30.6332 Y39.9726
G01 X30.6211 Y39.9637
G01 X30.6082 Y39.9559
G01 X30.5946 Y39.9495
G01 X30.5805 Y39.9444
G01 X30.5659 Y39.9408
G01 X30.5510 Y39.9386
G01 X30.5360 Y39.9379
G01 X30.5210 Y39.9386
G01 X30.5061 Y39.9408
G01 X30.4915 Y39.9444
G01 X30.4774 Y39.9495
G01 X30.4638 Y39.9559
G01 X30.4509 Y39.9637
G01 X30.4388 Y39.9726
G01 X30.4277 Y39.9827
G01 X30.4176 Y39.9938
G01 X30.4087 Y40.0059
G01 X30.4009 Y40.0188
G01 X30.3945 Y40.0324
G01 X30.3894 Y40.0465
G01 X30.3858 Y40.0611
G01 X30.3836 Y40.0760
G01 X30.3829 Y40.0910
G01 X30.3836 Y40.1060
G01 X30.3858 Y40.1209
G01 X30.3894 Y40.1355
G01 X30.3945 Y40.1496
G01 X30.4009 Y40.1632
G01 X30.4087 Y40.1761
G01 X30.4176 Y40.1882
G01 X30.4277 Y40.1993
G01 X30.4388 Y40.2094
G01 X30.4509 Y40.2183
G01 X30.4638 Y40.2261
G01 X30.4774 Y40.2325
G01 X30.4915 Y40.2376
G01 X30.5061 Y40.2412
G01 X30.5210 Y40.2434
G01 X30.5360 Y40.2441
G01 X30.5510 Y40.2434
G01 X30.5659 Y40.2412
G01 X30.5805 Y40.2376
G01 X30.5946 Y40.2325
G01 X30.6082 Y40.2261
G01 X30.6211 Y40.2183
G01 X30.6332 Y40.2094
G01 X30.6443 Y40.1993
G01 X30.6544 Y40.1882
G01 X30.6633 Y40.1761
G01 X30.6711 Y40.1632
G01 X30.6775 Y40.1496
G01 X30.6826 Y40.1355
G01 X30.6862 Y40.1209
G01 X30.6884 Y40.1060
G01 X30.6892 Y40.0910
G00 Z2.0000
G00 X33.8231 Y39.3870
G01 F350.00
G01 Z-2.1000
G01 F400.00
G01 X33.8224 Y39.3720
G01 X33.8202 Y39.3571
G01 X33.8166 Y39.3425
G01 X33.8115 Y39.3284
G01 X33.8051 Y39.3148
G01 X33.7973 Y39.3019
G01 X33.7884 Y39.2898
G01 X33.7783 Y39.2787
G01 X33.7672 Y39.2686
G01 X33.7551 Y39.2597
G01 X33.7422 Y39.2519
G01 X33.7286 Y39.2455
G01 X33.7145 Y39.2404
G01 X33.6999 Y39.2368
G01 X33.6850 Y39.2346
G01 X33.6700 Y39.2339
G01 X33.6550 Y39.2346
G01 X33.6401 Y39.2368
G01 X33.6255 Y39.2404
G01 X33.6114 Y39.2455
G01 X33.5978 Y39.2519
G01 X33.5849 Y39.2597
G01 X33.5728 Y39.2686
G01 X33.5617 Y39.2787
G01 X33.5516 Y39.2898
G01 X33.5427 Y39.3019
G01 X33.5349 Y39.3148
G01 X33.5285 Y39.3284
G01 X33.5234 Y39.3425
G01 X33.5198 Y39.3571
G01 X33.5176 Y39.3720
G01 X33.5169 Y39.3870
G01 X33.5176 Y39.4020
G01 X33.5198 Y39.4169
G01 X33.5234 Y39.4315
G01 X33.5285 Y39.4456
G01 X33.5349 Y39.4592
G01 X33.5427 Y39.4721
G01 X33.5516 Y39.4842
G01 X33.5617 Y39.4953
G01 X33.5728 Y39.5054
G01 X33.5849 Y39.5143
G01 X33.5978 Y39.5221
G01 X33.6114 Y39.5285
G01 X33.6255 Y39.5336
G01 X33.6401 Y39.5372
G01 X33.6550 Y39.5394
G01 X33.6700 Y39.5401
G01 X33.6850 Y39.5394
G01 X33.6999 Y39.5372
G01 X33.7145 Y39.5336
G01 X33.7286 Y39.5285
G01 X33.7422 Y39.5221
G01 X33.7551 Y39.5143
G01 X33.7672 Y39.5054
G01 X33.7783 Y39.4953
G01 X33.7884 Y39.4842
G01 X33.7973 Y39.4721
G01 X33.8051 Y39.4592
G01 X33.8115 Y39.4456
G01 X33.8166 Y39.4315
G01 X33.8202 Y39.4169
G01 X33.8224 Y39.4020
G01 X33.8231 Y39.3870
G00 Z2.0000
G00 X40.7032 Y37.1000
G01 F350.00
G01 Z-2.1000
G01 F400.00
G01 X40.6974 Y36.9821
G01 X40.6800 Y36.8653
G01 X40.6513 Y36.7507
G01 X40.6116 Y36.6396
G01 X40.5611 Y36.5328
G01 X40.5004 Y36.4316
G01 X40.4300 Y36.3367
G01 X40.3508 Y36.2492
G01 X40.2633 Y36.1700
G01 X40.1684 Y36.0996
G01 X40.0672 Y36.0389
G01 X39.9604 Y35.9884
G01 X39.8493 Y35.9487
G01 X39.7347 Y35.9200
G01 X39.6179 Y35.9026
G01 X39.5000 Y35.8969
G01 X39.3821 Y35.9026
G01 X39.2653 Y35.9200
G01 X39.1507 Y35.9487
G01 X39.0396 Y35.9884
G01 X38.9328 Y36.0389
G01 X38.8316 Y36.0996
G01 X38.7367 Y36.1700
G01 X38.6492 Y36.2492
G01 X38.5700 Y36.3367
G01 X38.4996 Y36.4316
G01 X38.4389 Y36.5328
G01 X38.3884 Y36.6396
G01 X38.3487 Y36.7507
G01 X38.3200 Y36.8653
G01 X38.3026 Y36.9821
G01 X38.2968 Y37.1000
G01 X38.3026 Y37.2179
G01 X38.3200 Y37.3347
G01 X38.3487 Y37.4493
G01 X38.3884 Y37.5604
G01 X38.4389 Y37.6672
G01 X38.4996 Y37.7684
G01 X38.5700 Y37.8633
G01 X38.6492 Y37.9508
G01 X38.7367 Y38.0300
G01 X38.8316 Y38.1004
G01 X38.9328 Y38.1611
G01 X39.0396 Y38.2116
G01 X39.1507 Y38.2513
G01 X39.2653 Y38.2800
G01 X39.3821 Y38.2974
G01 X39.5000 Y38.3032
G01 X39.6179 Y38.2974
G01 X39.7347 Y38.2800
G01 X39.8493 Y38.2513
G01 X39.9604 Y38.2116
G01 X40.0672 Y38.1611
G01 X40.1684 Y38.1004
G01 X40.2633 Y38.0300
G01 X40.3508 Y37.9508
G01 X40.4300 Y37.8633
G01 X40.5004 Y37.7684
G01 X40.5611 Y37.6672
G01 X40.6116 Y37.5604
G01 X40.6513 Y37.4493
G01 X40.6800 Y37.3347
G01 X40.6974 Y37.2179
G01 X40.7032 Y37.1000
G00 Z2.0000
G00 X40.7531 Y37.1000
G01 F350.00
G01 Z-2.1000
G01 F400.00
G01 X40.7474 Y36.9821
G01 X40.7300 Y36.8653
G01 X40.7013 Y36.7507
G01 X40.6616 Y36.6396
G01 X40.6111 Y36.5328
G01 X40.5504 Y36.4316
G01 X40.4800 Y36.3367
G01 X40.4008 Y36.2492
G01 X40.3133 Y36.1700
G01 X40.2184 Y36.0996
G01 X40.1172 Y36.0389
G01 X40.0104 Y35.9884
G01 X39.8993 Y35.9487
G01 X39.7847 Y35.9200
G01 X39.6679 Y35.9026
G01 X39.5500 Y35.8969
G01 X39.4321 Y35.9026
G01 X39.3153 Y35.9200
G01 X39.2007 Y35.9487
G01 X39.0896 Y35.9884
G01 X38.9828 Y36.0389
G01 X38.8816 Y36.0996
G01 X38.7867 Y36.1700
G01 X38.6992 Y36.2492
G01 X38.6200 Y36.3367
G01 X38.5496 Y36.4316
G01 X38.4889 Y36.5328
G01 X38.4384 Y36.6396
G01 X38.3987 Y36.7507
G01 X38.3700 Y36.8653
G01 X38.3526 Y36.9821
G01 X38.3468 Y37.1000
G01 X38.3526 Y37.2179
G01 X38.3700 Y37.3347
G01 X38.3987 Y37.4493
G01 X38.4384 Y37.5604
G01 X38.4889 Y37.6672
G01 X38.5496 Y37.7684
G01 X38.6200 Y37.8633
G01 X38.6992 Y37.9508
G01 X38.7867 Y38.0300
G01 X38.8816 Y38.1004
G01 X38.9828 Y38.1611
G01 X39.0896 Y38.2116
G01 X39.2007 Y38.2513
G01 X39.3153 Y38.2800
G01 X39.4321 Y38.2974
G01 X39.5500 Y38.3032
G01 X39.6679 Y38.2974
G01 X39.7847 Y38.2800
G01 X39.8993 Y38.2513
G01 X40.0104 Y38.2116
G01 X40.1172 Y38.1611
G01 X40.2184 Y38.1004
G01 X40.3133 Y38.0300
G01 X40.4008 Y37.9508
G01 X40.4800 Y37.8633
G01 X40.5504 Y37.7684
G01 X40.6111 Y37.6672
G01 X40.6616 Y37.5604
G01 X40.7013 Y37.4493
G01 X40.7300 Y37.3347
G01 X40.7474 Y37.2179
G01 X40.7531 Y37.1000
G00 Z2.0000
G00 X44.6291 Y33.5720
G01 F350.00
G01 Z-2.1000
G01 F400.00
G01 X44.6284 Y33.5570
G01 X44.6262 Y33.5421
G01 X44.6226 Y33.5275
G01 X44.6175 Y33.5134
G01 X44.6111 Y33.4998
G01 X44.6033 Y33.4869
G01 X44.5944 Y33.4748
G01 X44.5843 Y33.4637
G01 X44.5732 Y33.4536
G01 X44.5611 Y33.4447
G01 X44.5482 Y33.4369
G01 X44.5346 Y33.4305
G01 X44.5205 Y33.4254
G01 X44.5059 Y33.4218
G01 X44.4910 Y33.4196
G01 X44.4760 Y33.4189
G01 X44.4610 Y33.4196
G01 X44.4461 Y33.4218
G01 X44.4315 Y33.4254
G01 X44.4174 Y33.4305
G01 X44.4038 Y33.4369
G01 X44.3909 Y33.4447
G01 X44.3788 Y33.4536
G01 X44.3677 Y33.4637
G01 X44.3576 Y33.4748
G01 X44.3487 Y33.4869
G01 X44.3409 Y33.4998
G01 X44.3345 Y33.5134
G01 X44.3294 Y33.5275
G01 X44.3258 Y33.5421
G01 X44.3236 Y33.5570
G01 X44.3229 Y33.5720
G01 X44.3236 Y33.5870
G01 X44.3258 Y33.6019
G01 X44.3294 Y33.6165
G01 X44.3345 Y33.6306
G01 X44.3409 Y33.6442
G01 X44.3487 Y33.6571
G01 X44.3576 Y33.6692
G01 X44.3677 Y33.6803
G01 X44.3788 Y33.6904
G01 X44.3909 Y33.6993
G01 X44.4038 Y33.7071
G01 X44.4174 Y33.7135
G01 X44.4315 Y33.7186
G01 X44.4461 Y33.7222
G01 X44.4610 Y33.7244
G01 X44.4760 Y33.7251
G01 X44.4910 Y33.7244
G01 X44.5059 Y33.7222
G01 X44.5205 Y33.7186
G01 X44.5346 Y33.7135
G01 X44.5482 Y33.7071
G01 X44.5611 Y33.6993
G01 X44.5732 Y33.6904
G01 X44.5843 Y33.6803
G01 X44.5944 Y33.6692
G01 X44.6033 Y33.6571
G01 X44.6111 Y33.6442
G01 X44.6175 Y33.6306
G01 X44.6226 Y33.6165
G01 X44.6262 Y33.6019
G01 X44.6284 Y33.5870
G01 X44.6291 Y33.5720
G00 Z2.0000
G00 X46.3091 Y36.8250
G01 F350.00
G01 Z-2.1000
G01 F400.00
G01 X46.3086 Y36.8195
G01 X46.3070 Y36.8142
G01 X46.3044 Y36.8094
G01 X46.3009 Y36.8051
G01 X46.2966 Y36.8016
G01 X46.2918 Y36.7990
G01 X46.2865 Y36.7974
G01 X46.2810 Y36.7969
G01 X46.2755 Y36.7974
G01 X46.2702 Y36.7990
G01 X46.2654 Y36.8016
G01 X46.2611 Y36.8051
G01 X46.2576 Y36.8094
G01 X46.2550 Y36.8142
G01 X46.2534 Y36.8195
G01 X46.2529 Y36.8250
G01 X46.2534 Y36.8305
G01 X46.2550 Y36.8358
G01 X46.2576 Y36.8406
G01 X46.2611 Y36.8449
G01 X46.2654 Y36.8484
G01 X46.2702 Y36.8510
G01 X46.2755 Y36.8526
G01 X46.2810 Y36.8531
G01 X46.2865 Y36.8526
G01 X46.2918 Y36.8510
G01 X46.2966 Y36.8484
G01 X46.3009 Y36.8449
G01 X46.3044 Y36.8406
G01 X46.3070 Y36.8358
G01 X46.3086 Y36.8305
G01 X46.3091 Y36.8250
G00 Z2.0000
G00 X48.8491 Y36.8250
G01 F350.00
G01 Z-2.1000
G01 F400.00
G01 X48.8486 Y36.8195
G01 X48.8470 Y36.8142
G01 X48.8444 Y36.8094
G01 X48.8409 Y36.8051
G01 X48.8366 Y36.8016
G01 X48.8318 Y36.7990
G01 X48.8265 Y36.7974
G01 X48.8210 Y36.7969
G01 X48.8155 Y36.7974
G01 X48.8102 Y36.7990
G01 X48.8054 Y36.8016
G01 X48.8011 Y36.8051
G01 X48.7976 Y36.8094
G01 X48.7950 Y36.8142
G01 X48.7934 Y36.8195
G01 X48.7929 Y36.8250
G01 X48.7934 Y36.8305
G01 X48.7950 Y36.8358
G01 X48.7976 Y36.8406
G01 X48.8011 Y36.8449
G01 X48.8054 Y36.8484
G01 X48.8102 Y36.8510
G01 X48.8155 Y36.8526
G01 X48.8210 Y36.8531
G01 X48.8265 Y36.8526
G01 X48.8318 Y36.8510
G01 X48.8366 Y36.8484
G01 X48.8409 Y36.8449
G01 X48.8444 Y36.8406
G01 X48.8470 Y36.8358
G01 X48.8486 Y36.8305
G01 X48.8491 Y36.8250
G00 Z2.0000
G00 X51.3891 Y36.8250
G01 F350.00
G01 Z-2.1000
G01 F400.00
G01 X51.3886 Y36.8195
G01 X51.3870 Y36.8142
G01 X51.3844 Y36.8094
G01 X51.3809 Y36.8051
G01 X51.3766 Y36.8016
G01 X51.3718 Y36.7990
G01 X51.3665 Y36.7974
G01 X51.3610 Y36.7969
G01 X51.3555 Y36.7974
G01 X51.3502 Y36.7990
G01 X51.3454 Y36.8016
G01 X51.3411 Y36.8051
G01 X51.3376 Y36.8094
G01 X51.3350 Y36.8142
G01 X51.3334 Y36.8195
G01 X51.3329 Y36.8250
G01 X51.3334 Y36.8305
G01 X51.3350 Y36.8358
G01 X51.3376 Y36.8406
G01 X51.3411 Y36.8449
G01 X51.3454 Y36.8484
G01 X51.3502 Y36.8510
G01 X51.3555 Y36.8526
G01 X51.3610 Y36.8531
G01 X51.3665 Y36.8526
G01 X51.3718 Y36.8510
G01 X51.3766 Y36.8484
G01 X51.3809 Y36.8449
G01 X51.3844 Y36.8406
G01 X51.3870 Y36.8358
G01 X51.3886 Y36.8305
G01 X51.3891 Y36.8250
G00 Z2.0000
G00 X53.9291 Y36.8250
G01 F350.00
G01 Z-2.1000
G01 F400.00
G01 X53.9286 Y36.8195
G01 X53.9270 Y36.8142
G01 X53.9244 Y36.8094
G01 X53.9209 Y36.8051
G01 X53.9166 Y36.8016
G01 X53.9118 Y36.7990
G01 X53.9065 Y36.7974
G01 X53.9010 Y36.7969
G01 X53.8955 Y36.7974
G01 X53.8902 Y36.7990
G01 X53.8854 Y36.8016
G01 X53.8811 Y36.8051
G01 X53.8776 Y36.8094
G01 X53.8750 Y36.8142
G01 X53.8734 Y36.8195
G01 X53.8729 Y36.8250
G01 X53.8734 Y36.8305
G01 X53.8750 Y36.8358
G01 X53.8776 Y36.8406
G01 X53.8811 Y36.8449
G01 X53.8854 Y36.8484
G01 X53.8902 Y36.8510
G01 X53.8955 Y36.8526
G01 X53.9010 Y36.8531
G01 X53.9065 Y36.8526
G01 X53.9118 Y36.8510
G01 X53.9166 Y36.8484
G01 X53.9209 Y36.8449
G01 X53.9244 Y36.8406
G01 X53.9270 Y36.8358
G01 X53.9286 Y36.8305
G01 X53.9291 Y36.8250
G00 Z2.0000
G00 X56.4691 Y36.8250
G01 F350.00
G01 Z-2.1000
G01 F400.00
G01 X56.4686 Y36.8195
G01 X56.4670 Y36.8142
G01 X56.4644 Y36.8094
G01 X56.4609 Y36.8051
G01 X56.4566 Y36.8016
G01 X56.4518 Y36.7990
G01 X56.4465 Y36.7974
G01 X56.4410 Y36.7969
G01 X56.4355 Y36.7974
G01 X56.4302 Y36.7990
G01 X56.4254 Y36.8016
G01 X56.4211 Y36.8051
G01 X56.4176 Y36.8094
G01 X56.4150 Y36.8142
G01 X56.4134 Y36.8195
G01 X56.4129 Y36.8250
G01 X56.4134 Y36.8305
G01 X56.4150 Y36.8358
G01 X56.4176 Y36.8406
G01 X56.4211 Y36.8449
G01 X56.4254 Y36.8484
G01 X56.4302 Y36.8510
G01 X56.4355 Y36.8526
G01 X56.4410 Y36.8531
G01 X56.4465 Y36.8526
G01 X56.4518 Y36.8510
G01 X56.4566 Y36.8484
G01 X56.4609 Y36.8449
G01 X56.4644 Y36.8406
G01 X56.4670 Y36.8358
G01 X56.4686 Y36.8305
G01 X56.4691 Y36.8250
G00 Z2.0000
G00 X59.0091 Y36.8250
G01 F350.00
G01 Z-2.1000
G01 F400.00
G01 X59.0086 Y36.8195
G01 X59.0070 Y36.8142
G01 X59.0044 Y36.8094
G01 X59.0009 Y36.8051
G01 X58.9966 Y36.8016
G01 X58.9918 Y36.7990
G01 X58.9865 Y36.7974
G01 X58.9810 Y36.7969
G01 X58.9755 Y36.7974
G01 X58.9702 Y36.7990
G01 X58.9654 Y36.8016
G01 X58.9611 Y36.8051
G01 X58.9576 Y36.8094
G01 X58.9550 Y36.8142
G01 X58.9534 Y36.8195
G01 X58.9529 Y36.8250
G01 X58.9534 Y36.8305
G01 X58.9550 Y36.8358
G01 X58.9576 Y36.8406
G01 X58.9611 Y36.8449
G01 X58.9654 Y36.8484
G01 X58.9702 Y36.8510
G01 X58.9755 Y36.8526
G01 X58.9810 Y36.8531
G01 X58.9865 Y36.8526
G01 X58.9918 Y36.8510
G01 X58.9966 Y36.8484
G01 X59.0009 Y36.8449
G01 X59.0044 Y36.8406
G01 X59.0070 Y36.8358
G01 X59.0086 Y36.8305
G01 X59.0091 Y36.8250
G00 Z2.0000
G00 X61.6761 Y36.9520
G01 F350.00
G01 Z-2.1000
G01 F400.00
G01 X61.6756 Y36.9465
G01 X61.6740 Y36.9412
G01 X61.6714 Y36.9364
G01 X61.6679 Y36.9321
G01 X61.6636 Y36.9286
G01 X61.6588 Y36.9260
G01 X61.6535 Y36.9244
G01 X61.6480 Y36.9239
G01 X61.6425 Y36.9244
G01 X61.6372 Y36.9260
G01 X61.6324 Y36.9286
G01 X61.6281 Y36.9321
G01 X61.6246 Y36.9364
G01 X61.6220 Y36.9412
G01 X61.6204 Y36.9465
G01 X61.6199 Y36.9520
G01 X61.6204 Y36.9575
G01 X61.6220 Y36.9628
G01 X61.6246 Y36.9676
G01 X61.6281 Y36.9719
G01 X61.6324 Y36.9754
G01 X61.6372 Y36.9780
G01 X61.6425 Y36.9796
G01 X61.6480 Y36.9801
G01 X61.6535 Y36.9796
G01 X61.6588 Y36.9780
G01 X61.6636 Y36.9754
G01 X61.6679 Y36.9719
G01 X61.6714 Y36.9676
G01 X61.6740 Y36.9628
G01 X61.6756 Y36.9575
G01 X61.6761 Y36.9520
G00 Z2.0000
G00 X58.8391 Y31.2860
G01 F350.00
G01 Z-2.1000
G01 F400.00
G01 X58.8384 Y31.2710
G01 X58.8362 Y31.2561
G01 X58.8326 Y31.2415
G01 X58.8275 Y31.2274
G01 X58.8211 Y31.2138
G01 X58.8133 Y31.2009
G01 X58.8044 Y31.1888
G01 X58.7943 Y31.1777
G01 X58.7832 Y31.1676
G01 X58.7711 Y31.1587
G01 X58.7582 Y31.1509
G01 X58.7446 Y31.1445
G01 X58.7305 Y31.1394
G01 X58.7159 Y31.1358
G01 X58.7010 Y31.1336
G01 X58.6860 Y31.1329
G01 X58.6710 Y31.1336
G01 X58.6561 Y31.1358
G01 X58.6415 Y31.1394
G01 X58.6274 Y31.1445
G01 X58.6138 Y31.1509
G01 X58.6009 Y31.1587
G01 X58.5888 Y31.1676
G01 X58.5777 Y31.1777
G01 X58.5676 Y31.1888
G01 X58.5587 Y31.2009
G01 X58.5509 Y31.2138
G01 X58.5445 Y31.2274
G01 X58.5394 Y31.2415
G01 X58.5358 Y31.2561
G01 X58.5336 Y31.2710
G01 X58.5329 Y31.2860
G01 X58.5336 Y31.3010
G01 X58.5358 Y31.3159
G01 X58.5394 Y31.3305
G01 X58.5445 Y31.3446
G01 X58.5509 Y31.3582
G01 X58.5587 Y31.3711
G01 X58.5676 Y31.3832
G01 X58.5777 Y31.3943
G01 X58.5888 Y31.4044
G01 X58.6009 Y31.4133
G01 X58.6138 Y31.4211
G01 X58.6274 Y31.4275
G01 X58.6415 Y31.4326
G01 X58.6561 Y31.4362
G01 X58.6710 Y31.4384
G01 X58.6860 Y31.4392
G01 X58.7010 Y31.4384
G01 X58.7159 Y31.4362
G01 X58.7305 Y31.4326
G01 X58.7446 Y31.4275
G01 X58.7582 Y31.4211
G01 X58.7711 Y31.4133
G01 X58.7832 Y31.4044
G01 X58.7943 Y31.3943
G01 X58.8044 Y31.3832
G01 X58.8133 Y31.3711
G01 X58.8211 Y31.3582
G01 X58.8275 Y31.3446
G01 X58.8326 Y31.3305
G01 X58.8362 Y31.3159
G01 X58.8384 Y31.3010
G01 X58.8391 Y31.2860
G00 Z2.0000
G00 X58.7392 Y23.5500
G01 F350.00
G01 Z-2.1000
G01 F400.00
G01 X58.7381 Y23.5396
G01 X58.7351 Y23.5297
G01 X58.7302 Y23.5205
G01 X58.7236 Y23.5124
G01 X58.7155 Y23.5058
G01 X58.7063 Y23.5009
G01 X58.6964 Y23.4979
G01 X58.6860 Y23.4969
G01 X58.6756 Y23.4979
G01 X58.6657 Y23.5009
G01 X58.6565 Y23.5058
G01 X58.6484 Y23.5124
G01 X58.6418 Y23.5205
G01 X58.6369 Y23.5297
G01 X58.6339 Y23.5396
G01 X58.6328 Y23.5500
G01 X58.6339 Y23.5604
G01 X58.6369 Y23.5703
G01 X58.6418 Y23.5795
G01 X58.6484 Y23.5876
G01 X58.6565 Y23.5942
G01 X58.6657 Y23.5991
G01 X58.6756 Y23.6021
G01 X58.6860 Y23.6031
G01 X58.6964 Y23.6021
G01 X58.7063 Y23.5991
G01 X58.7155 Y23.5942
G01 X58.7236 Y23.5876
G01 X58.7302 Y23.5795
G01 X58.7351 Y23.5703
G01 X58.7381 Y23.5604
G01 X58.7392 Y23.5500
G00 Z2.0000
G00 X61.2792 Y23.5500
G01 F350.00
G01 Z-2.1000
G01 F400.00
G01 X61.2781 Y23.5396
G01 X61.2751 Y23.5297
G01 X61.2702 Y23.5205
G01 X61.2636 Y23.5124
G01 X61.2555 Y23.5058
G01 X61.2463 Y23.5009
G01 X61.2364 Y23.4979
G01 X61.2260 Y23.4969
G01 X61.2156 Y23.4979
G01 X61.2057 Y23.5009
G01 X61.1965 Y23.5058
G01 X61.1884 Y23.5124
G01 X61.1818 Y23.5205
G01 X61.1769 Y23.5297
G01 X61.1739 Y23.5396
G01 X61.1728 Y23.5500
G01 X61.1739 Y23.5604
G01 X61.1769 Y23.5703
G01 X61.1818 Y23.5795
G01 X61.1884 Y23.5876
G01 X61.1965 Y23.5942
G01 X61.2057 Y23.5991
G01 X61.2156 Y23.6021
G01 X61.2260 Y23.6031
G01 X61.2364 Y23.6021
G01 X61.2463 Y23.5991
G01 X61.2555 Y23.5942
G01 X61.2636 Y23.5876
G01 X61.2702 Y23.5795
G01 X61.2751 Y23.5703
G01 X61.2781 Y23.5604
G01 X61.2792 Y23.5500
G00 Z2.0000
G00 X63.8192 Y23.5500
G01 F350.00
G01 Z-2.1000
G01 F400.00
G01 X63.8181 Y23.5396
G01 X63.8151 Y23.5297
G01 X63.8102 Y23.5205
G01 X63.8036 Y23.5124
G01 X63.7955 Y23.5058
G01 X63.7863 Y23.5009
G01 X63.7764 Y23.4979
G01 X63.7660 Y23.4969
G01 X63.7556 Y23.4979
G01 X63.7457 Y23.5009
G01 X63.7365 Y23.5058
G01 X63.7284 Y23.5124
G01 X63.7218 Y23.5205
G01 X63.7169 Y23.5297
G01 X63.7139 Y23.5396
G01 X63.7128 Y23.5500
G01 X63.7139 Y23.5604
G01 X63.7169 Y23.5703
G01 X63.7218 Y23.5795
G01 X63.7284 Y23.5876
G01 X63.7365 Y23.5942
G01 X63.7457 Y23.5991
G01 X63.7556 Y23.6021
G01 X63.7660 Y23.6031
G01 X63.7764 Y23.6021
G01 X63.7863 Y23.5991
G01 X63.7955 Y23.5942
G01 X63.8036 Y23.5876
G01 X63.8102 Y23.5795
G01 X63.8151 Y23.5703
G01 X63.8181 Y23.5604
G01 X63.8192 Y23.5500
G00 Z2.0000
G00 X66.3591 Y23.5500
G01 F350.00
G01 Z-2.1000
G01 F400.00
G01 X66.3581 Y23.5396
G01 X66.3551 Y23.5297
G01 X66.3502 Y23.5205
G01 X66.3436 Y23.5124
G01 X66.3355 Y23.5058
G01 X66.3263 Y23.5009
G01 X66.3164 Y23.4979
G01 X66.3060 Y23.4969
G01 X66.2956 Y23.4979
G01 X66.2857 Y23.5009
G01 X66.2765 Y23.5058
G01 X66.2684 Y23.5124
G01 X66.2618 Y23.5205
G01 X66.2569 Y23.5297
G01 X66.2539 Y23.5396
G01 X66.2528 Y23.5500
G01 X66.2539 Y23.5604
G01 X66.2569 Y23.5703
G01 X66.2618 Y23.5795
G01 X66.2684 Y23.5876
G01 X66.2765 Y23.5942
G01 X66.2857 Y23.5991
G01 X66.2956 Y23.6021
G01 X66.3060 Y23.6031
G01 X66.3164 Y23.6021
G01 X66.3263 Y23.5991
G01 X66.3355 Y23.5942
G01 X66.3436 Y23.5876
G01 X66.3502 Y23.5795
G01 X66.3551 Y23.5703
G01 X66.3581 Y23.5604
G01 X66.3591 Y23.5500
G00 Z2.0000
G00 X68.8992 Y23.5500
G01 F350.00
G01 Z-2.1000
G01 F400.00
G01 X68.8981 Y23.5396
G01 X68.8951 Y23.5297
G01 X68.8902 Y23.5205
G01 X68.8836 Y23.5124
G01 X68.8755 Y23.5058
G01 X68.8663 Y23.5009
G01 X68.8564 Y23.4979
G01 X68.8460 Y23.4969
G01 X68.8356 Y23.4979
G01 X68.8257 Y23.5009
G01 X68.8165 Y23.5058
G01 X68.8084 Y23.5124
G01 X68.8018 Y23.5205
G01 X68.7969 Y23.5297
G01 X68.7939 Y23.5396
G01 X68.7929 Y23.5500
G01 X68.7939 Y23.5604
G01 X68.7969 Y23.5703
G01 X68.8018 Y23.5795
G01 X68.8084 Y23.5876
G01 X68.8165 Y23.5942
G01 X68.8257 Y23.5991
G01 X68.8356 Y23.6021
G01 X68.8460 Y23.6031
G01 X68.8564 Y23.6021
G01 X68.8663 Y23.5991
G01 X68.8755 Y23.5942
G01 X68.8836 Y23.5876
G01 X68.8902 Y23.5795
G01 X68.8951 Y23.5703
G01 X68.8981 Y23.5604
G01 X68.8992 Y23.5500
G00 Z2.0000
G00 X71.4391 Y23.5500
G01 F350.00
G01 Z-2.1000
G01 F400.00
G01 X71.4381 Y23.5396
G01 X71.4351 Y23.5297
G01 X71.4302 Y23.5205
G01 X71.4236 Y23.5124
G01 X71.4155 Y23.5058
G01 X71.4063 Y23.5009
G01 X71.3964 Y23.4979
G01 X71.3860 Y23.4969
G01 X71.3756 Y23.4979
G01 X71.3657 Y23.5009
G01 X71.3565 Y23.5058
G01 X71.3484 Y23.5124
G01 X71.3418 Y23.5205
G01 X71.3369 Y23.5297
G01 X71.3339 Y23.5396
G01 X71.3328 Y23.5500
G01 X71.3339 Y23.5604
G01 X71.3369 Y23.5703
G01 X71.3418 Y23.5795
G01 X71.3484 Y23.5876
G01 X71.3565 Y23.5942
G01 X71.3657 Y23.5991
G01 X71.3756 Y23.6021
G01 X71.3860 Y23.6031
G01 X71.3964 Y23.6021
G01 X71.4063 Y23.5991
G01 X71.4155 Y23.5942
G01 X71.4236 Y23.5876
G01 X71.4302 Y23.5795
G01 X71.4351 Y23.5703
G01 X71.4381 Y23.5604
G01 X71.4391 Y23.5500
G00 Z2.0000
G00 X73.9792 Y23.5500
G01 F350.00
G01 Z-2.1000
G01 F400.00
G01 X73.9781 Y23.5396
G01 X73.9751 Y23.5297
G01 X73.9702 Y23.5205
G01 X73.9636 Y23.5124
G01 X73.9555 Y23.5058
G01 X73.9463 Y23.5009
G01 X73.9364 Y23.4979
G01 X73.9260 Y23.4969
G01 X73.9156 Y23.4979
G01 X73.9057 Y23.5009
G01 X73.8965 Y23.5058
G01 X73.8884 Y23.5124
G01 X73.8818 Y23.5205
G01 X73.8769 Y23.5297
G01 X73.8739 Y23.5396
G01 X73.8728 Y23.5500
G01 X73.8739 Y23.5604
G01 X73.8769 Y23.5703
G01 X73.8818 Y23.5795
G01 X73.8884 Y23.5876
G01 X73.8965 Y23.5942
G01 X73.9057 Y23.5991
G01 X73.9156 Y23.6021
G01 X73.9260 Y23.6031
G01 X73.9364 Y23.6021
G01 X73.9463 Y23.5991
G01 X73.9555 Y23.5942
G01 X73.9636 Y23.5876
G01 X73.9702 Y23.5795
G01 X73.9751 Y23.5703
G01 X73.9781 Y23.5604
G01 X73.9792 Y23.5500
G00 Z2.0000
G00 X76.5191 Y23.5500
G01 F350.00
G01 Z-2.1000
G01 F400.00
G01 X76.5181 Y23.5396
G01 X76.5151 Y23.5297
G01 X76.5102 Y23.5205
G01 X76.5036 Y23.5124
G01 X76.4955 Y23.5058
G01 X76.4863 Y23.5009
G01 X76.4764 Y23.4979
G01 X76.4660 Y23.4969
G01 X76.4556 Y23.4979
G01 X76.4457 Y23.5009
G01 X76.4365 Y23.5058
G01 X76.4284 Y23.5124
G01 X76.4218 Y23.5205
G01 X76.4169 Y23.5297
G01 X76.4139 Y23.5396
G01 X76.4128 Y23.5500
G01 X76.4139 Y23.5604
G01 X76.4169 Y23.5703
G01 X76.4218 Y23.5795
G01 X76.4284 Y23.5876
G01 X76.4365 Y23.5942
G01 X76.4457 Y23.5991
G01 X76.4556 Y23.6021
G01 X76.4660 Y23.6031
G01 X76.4764 Y23.6021
G01 X76.4863 Y23.5991
G01 X76.4955 Y23.5942
G01 X76.5036 Y23.5876
G01 X76.5102 Y23.5795
G01 X76.5151 Y23.5703
G01 X76.5181 Y23.5604
G01 X76.5191 Y23.5500
G00 Z2.0000
G00 X79.0592 Y23.5500
G01 F350.00
G01 Z-2.1000
G01 F400.00
G01 X79.0581 Y23.5396
G01 X79.0551 Y23.5297
G01 X79.0502 Y23.5205
G01 X79.0436 Y23.5124
G01 X79.0355 Y23.5058
G01 X79.0263 Y23.5009
G01 X79.0164 Y23.4979
G01 X79.0060 Y23.4969
G01 X78.9956 Y23.4979
G01 X78.9857 Y23.5009
G01 X78.9765 Y23.5058
G01 X78.9684 Y23.5124
G01 X78.9618 Y23.5205
G01 X78.9569 Y23.5297
G01 X78.9539 Y23.5396
G01 X78.9528 Y23.5500
G01 X78.9539 Y23.5604
G01 X78.9569 Y23.5703
G01 X78.9618 Y23.5795
G01 X78.9684 Y23.5876
G01 X78.9765 Y23.5942
G01 X78.9857 Y23.5991
G01 X78.9956 Y23.6021
G01 X79.0060 Y23.6031
G01 X79.0164 Y23.6021
G01 X79.0263 Y23.5991
G01 X79.0355 Y23.5942
G01 X79.0436 Y23.5876
G01 X79.0502 Y23.5795
G01 X79.0551 Y23.5703
G01 X79.0581 Y23.5604
G01 X79.0592 Y23.5500
G00 Z2.0000
G00 X81.5992 Y23.5500
G01 F350.00
G01 Z-2.1000
G01 F400.00
G01 X81.5981 Y23.5396
G01 X81.5951 Y23.5297
G01 X81.5902 Y23.5205
G01 X81.5836 Y23.5124
G01 X81.5755 Y23.5058
G01 X81.5663 Y23.5009
G01 X81.5564 Y23.4979
G01 X81.5460 Y23.4969
G01 X81.5356 Y23.4979
G01 X81.5257 Y23.5009
G01 X81.5165 Y23.5058
G01 X81.5084 Y23.5124
G01 X81.5018 Y23.5205
G01 X81.4969 Y23.5297
G01 X81.4939 Y23.5396
G01 X81.4929 Y23.5500
G01 X81.4939 Y23.5604
G01 X81.4969 Y23.5703
G01 X81.5018 Y23.5795
G01 X81.5084 Y23.5876
G01 X81.5165 Y23.5942
G01 X81.5257 Y23.5991
G01 X81.5356 Y23.6021
G01 X81.5460 Y23.6031
G01 X81.5564 Y23.6021
G01 X81.5663 Y23.5991
G01 X81.5755 Y23.5942
G01 X81.5836 Y23.5876
G01 X81.5902 Y23.5795
G01 X81.5951 Y23.5703
G01 X81.5981 Y23.5604
G01 X81.5992 Y23.5500
G00 Z2.0000
G00 X84.1392 Y23.5500
G01 F350.00
G01 Z-2.1000
G01 F400.00
G01 X84.1381 Y23.5396
G01 X84.1351 Y23.5297
G01 X84.1302 Y23.5205
G01 X84.1236 Y23.5124
G01 X84.1155 Y23.5058
G01 X84.1063 Y23.5009
G01 X84.0964 Y23.4979
G01 X84.0860 Y23.4969
G01 X84.0756 Y23.4979
G01 X84.0657 Y23.5009
G01 X84.0565 Y23.5058
G01 X84.0484 Y23.5124
G01 X84.0418 Y23.5205
G01 X84.0369 Y23.5297
G01 X84.0339 Y23.5396
G01 X84.0328 Y23.5500
G01 X84.0339 Y23.5604
G01 X84.0369 Y23.5703
G01 X84.0418 Y23.5795
G01 X84.0484 Y23.5876
G01 X84.0565 Y23.5942
G01 X84.0657 Y23.5991
G01 X84.0756 Y23.6021
G01 X84.0860 Y23.6031
G01 X84.0964 Y23.6021
G01 X84.1063 Y23.5991
G01 X84.1155 Y23.5942
G01 X84.1236 Y23.5876
G01 X84.1302 Y23.5795
G01 X84.1351 Y23.5703
G01 X84.1381 Y23.5604
G01 X84.1392 Y23.5500
G00 Z2.0000
G00 X86.6792 Y23.5500
G01 F350.00
G01 Z-2.1000
G01 F400.00
G01 X86.6781 Y23.5396
G01 X86.6751 Y23.5297
G01 X86.6702 Y23.5205
G01 X86.6636 Y23.5124
G01 X86.6555 Y23.5058
G01 X86.6463 Y23.5009
G01 X86.6364 Y23.4979
G01 X86.6260 Y23.4969
G01 X86.6156 Y23.4979
G01 X86.6057 Y23.5009
G01 X86.5965 Y23.5058
G01 X86.5884 Y23.5124
G01 X86.5818 Y23.5205
G01 X86.5769 Y23.5297
G01 X86.5739 Y23.5396
G01 X86.5729 Y23.5500
G01 X86.5739 Y23.5604
G01 X86.5769 Y23.5703
G01 X86.5818 Y23.5795
G01 X86.5884 Y23.5876
G01 X86.5965 Y23.5942
G01 X86.6057 Y23.5991
G01 X86.6156 Y23.6021
G01 X86.6260 Y23.6031
G01 X86.6364 Y23.6021
G01 X86.6463 Y23.5991
G01 X86.6555 Y23.5942
G01 X86.6636 Y23.5876
G01 X86.6702 Y23.5795
G01 X86.6751 Y23.5703
G01 X86.6781 Y23.5604
G01 X86.6792 Y23.5500
G00 Z2.0000
G00 X89.2191 Y23.5500
G01 F350.00
G01 Z-2.1000
G01 F400.00
G01 X89.2181 Y23.5396
G01 X89.2151 Y23.5297
G01 X89.2102 Y23.5205
G01 X89.2036 Y23.5124
G01 X89.1955 Y23.5058
G01 X89.1863 Y23.5009
G01 X89.1764 Y23.4979
G01 X89.1660 Y23.4969
G01 X89.1556 Y23.4979
G01 X89.1457 Y23.5009
G01 X89.1365 Y23.5058
G01 X89.1284 Y23.5124
G01 X89.1218 Y23.5205
G01 X89.1169 Y23.5297
G01 X89.1139 Y23.5396
G01 X89.1128 Y23.5500
G01 X89.1139 Y23.5604
G01 X89.1169 Y23.5703
G01 X89.1218 Y23.5795
G01 X89.1284 Y23.5876
G01 X89.1365 Y23.5942
G01 X89.1457 Y23.5991
G01 X89.1556 Y23.6021
G01 X89.1660 Y23.6031
G01 X89.1764 Y23.6021
G01 X89.1863 Y23.5991
G01 X89.1955 Y23.5942
G01 X89.2036 Y23.5876
G01 X89.2102 Y23.5795
G01 X89.2151 Y23.5703
G01 X89.2181 Y23.5604
G01 X89.2191 Y23.5500
G00 Z2.0000
G00 X91.7592 Y23.5500
G01 F350.00
G01 Z-2.1000
G01 F400.00
G01 X91.7581 Y23.5396
G01 X91.7551 Y23.5297
G01 X91.7502 Y23.5205
G01 X91.7436 Y23.5124
G01 X91.7355 Y23.5058
G01 X91.7263 Y23.5009
G01 X91.7164 Y23.4979
G01 X91.7060 Y23.4969
G01 X91.6956 Y23.4979
G01 X91.6857 Y23.5009
G01 X91.6765 Y23.5058
G01 X91.6684 Y23.5124
G01 X91.6618 Y23.5205
G01 X91.6569 Y23.5297
G01 X91.6539 Y23.5396
G01 X91.6529 Y23.5500
G01 X91.6539 Y23.5604
G01 X91.6569 Y23.5703
G01 X91.6618 Y23.5795
G01 X91.6684 Y23.5876
G01 X91.6765 Y23.5942
G01 X91.6857 Y23.5991
G01 X91.6956 Y23.6021
G01 X91.7060 Y23.6031
G01 X91.7164 Y23.6021
G01 X91.7263 Y23.5991
G01 X91.7355 Y23.5942
G01 X91.7436 Y23.5876
G01 X91.7502 Y23.5795
G01 X91.7551 Y23.5703
G01 X91.7581 Y23.5604
G01 X91.7592 Y23.5500
G00 Z2.0000
G00 X94.2991 Y23.5500
G01 F350.00
G01 Z-2.1000
G01 F400.00
G01 X94.2981 Y23.5396
G01 X94.2951 Y23.5297
G01 X94.2902 Y23.5205
G01 X94.2836 Y23.5124
G01 X94.2755 Y23.5058
G01 X94.2663 Y23.5009
G01 X94.2564 Y23.4979
G01 X94.2460 Y23.4969
G01 X94.2356 Y23.4979
G01 X94.2257 Y23.5009
G01 X94.2165 Y23.5058
G01 X94.2084 Y23.5124
G01 X94.2018 Y23.5205
G01 X94.1969 Y23.5297
G01 X94.1939 Y23.5396
G01 X94.1928 Y23.5500
G01 X94.1939 Y23.5604
G01 X94.1969 Y23.5703
G01 X94.2018 Y23.5795
G01 X94.2084 Y23.5876
G01 X94.2165 Y23.5942
G01 X94.2257 Y23.5991
G01 X94.2356 Y23.6021
G01 X94.2460 Y23.6031
G01 X94.2564 Y23.6021
G01 X94.2663 Y23.5991
G01 X94.2755 Y23.5942
G01 X94.2836 Y23.5876
G01 X94.2902 Y23.5795
G01 X94.2951 Y23.5703
G01 X94.2981 Y23.5604
G01 X94.2991 Y23.5500
G00 Z2.0000
G00 X96.8392 Y23.5500
G01 F350.00
G01 Z-2.1000
G01 F400.00
G01 X96.8381 Y23.5396
G01 X96.8351 Y23.5297
G01 X96.8302 Y23.5205
G01 X96.8236 Y23.5124
G01 X96.8155 Y23.5058
G01 X96.8063 Y23.5009
G01 X96.7964 Y23.4979
G01 X96.7860 Y23.4969
G01 X96.7756 Y23.4979
G01 X96.7657 Y23.5009
G01 X96.7565 Y23.5058
G01 X96.7484 Y23.5124
G01 X96.7418 Y23.5205
G01 X96.7369 Y23.5297
G01 X96.7339 Y23.5396
G01 X96.7328 Y23.5500
G01 X96.7339 Y23.5604
G01 X96.7369 Y23.5703
G01 X96.7418 Y23.5795
G01 X96.7484 Y23.5876
G01 X96.7565 Y23.5942
G01 X96.7657 Y23.5991
G01 X96.7756 Y23.6021
G01 X96.7860 Y23.6031
G01 X96.7964 Y23.6021
G01 X96.8063 Y23.5991
G01 X96.8155 Y23.5942
G01 X96.8236 Y23.5876
G01 X96.8302 Y23.5795
G01 X96.8351 Y23.5703
G01 X96.8381 Y23.5604
G01 X96.8392 Y23.5500
G00 Z2.0000
G00 X99.3791 Y23.5500
G01 F350.00
G01 Z-2.1000
G01 F400.00
G01 X99.3781 Y23.5396
G01 X99.3751 Y23.5297
G01 X99.3702 Y23.5205
G01 X99.3636 Y23.5124
G01 X99.3555 Y23.5058
G01 X99.3463 Y23.5009
G01 X99.3364 Y23.4979
G01 X99.3260 Y23.4969
G01 X99.3156 Y23.4979
G01 X99.3057 Y23.5009
G01 X99.2965 Y23.5058
G01 X99.2884 Y23.5124
G01 X99.2818 Y23.5205
G01 X99.2769 Y23.5297
G01 X99.2739 Y23.5396
G01 X99.2728 Y23.5500
G01 X99.2739 Y23.5604
G01 X99.2769 Y23.5703
G01 X99.2818 Y23.5795
G01 X99.2884 Y23.5876
G01 X99.2965 Y23.5942
G01 X99.3057 Y23.5991
G01 X99.3156 Y23.6021
G01 X99.3260 Y23.6031
G01 X99.3364 Y23.6021
G01 X99.3463 Y23.5991
G01 X99.3555 Y23.5942
G01 X99.3636 Y23.5876
G01 X99.3702 Y23.5795
G01 X99.3751 Y23.5703
G01 X99.3781 Y23.5604
G01 X99.3791 Y23.5500
G00 Z2.0000
G00 X101.9192 Y23.5500
G01 F350.00
G01 Z-2.1000
G01 F400.00
G01 X101.9181 Y23.5396
G01 X101.9151 Y23.5297
G01 X101.9102 Y23.5205
G01 X101.9036 Y23.5124
G01 X101.8955 Y23.5058
G01 X101.8863 Y23.5009
G01 X101.8764 Y23.4979
G01 X101.8660 Y23.4969
G01 X101.8556 Y23.4979
G01 X101.8457 Y23.5009
G01 X101.8365 Y23.5058
G01 X101.8284 Y23.5124
G01 X101.8218 Y23.5205
G01 X101.8169 Y23.5297
G01 X101.8139 Y23.5396
G01 X101.8128 Y23.5500
G01 X101.8139 Y23.5604
G01 X101.8169 Y23.5703
G01 X101.8218 Y23.5795
G01 X101.8284 Y23.5876
G01 X101.8365 Y23.5942
G01 X101.8457 Y23.5991
G01 X101.8556 Y23.6021
G01 X101.8660 Y23.6031
G01 X101.8764 Y23.6021
G01 X101.8863 Y23.5991
G01 X101.8955 Y23.5942
G01 X101.9036 Y23.5876
G01 X101.9102 Y23.5795
G01 X101.9151 Y23.5703
G01 X101.9181 Y23.5604
G01 X101.9192 Y23.5500
G00 Z2.0000
G00 X97.9552 Y26.7140
G01 F350.00
G01 Z-2.1000
G01 F400.00
G01 X97.9544 Y26.6990
G01 X97.9522 Y26.6841
G01 X97.9486 Y26.6695
G01 X97.9435 Y26.6554
G01 X97.9371 Y26.6418
G01 X97.9293 Y26.6289
G01 X97.9204 Y26.6168
G01 X97.9103 Y26.6057
G01 X97.8992 Y26.5956
G01 X97.8871 Y26.5867
G01 X97.8742 Y26.5789
G01 X97.8606 Y26.5725
G01 X97.8465 Y26.5674
G01 X97.8319 Y26.5638
G01 X97.8170 Y26.5616
G01 X97.8020 Y26.5608
G01 X97.7870 Y26.5616
G01 X97.7721 Y26.5638
G01 X97.7575 Y26.5674
G01 X97.7434 Y26.5725
G01 X97.7298 Y26.5789
G01 X97.7169 Y26.5867
G01 X97.7048 Y26.5956
G01 X97.6937 Y26.6057
G01 X97.6836 Y26.6168
G01 X97.6747 Y26.6289
G01 X97.6669 Y26.6418
G01 X97.6605 Y26.6554
G01 X97.6554 Y26.6695
G01 X97.6518 Y26.6841
G01 X97.6496 Y26.6990
G01 X97.6489 Y26.7140
G01 X97.6496 Y26.7290
G01 X97.6518 Y26.7439
G01 X97.6554 Y26.7585
G01 X97.6605 Y26.7726
G01 X97.6669 Y26.7862
G01 X97.6747 Y26.7991
G01 X97.6836 Y26.8112
G01 X97.6937 Y26.8223
G01 X97.7048 Y26.8324
G01 X97.7169 Y26.8413
G01 X97.7298 Y26.8491
G01 X97.7434 Y26.8555
G01 X97.7575 Y26.8606
G01 X97.7721 Y26.8642
G01 X97.7870 Y26.8664
G01 X97.8020 Y26.8671
G01 X97.8170 Y26.8664
G01 X97.8319 Y26.8642
G01 X97.8465 Y26.8606
G01 X97.8606 Y26.8555
G01 X97.8742 Y26.8491
G01 X97.8871 Y26.8413
G01 X97.8992 Y26.8324
G01 X97.9103 Y26.8223
G01 X97.9204 Y26.8112
G01 X97.9293 Y26.7991
G01 X97.9371 Y26.7862
G01 X97.9435 Y26.7726
G01 X97.9486 Y26.7585
G01 X97.9522 Y26.7439
G01 X97.9544 Y26.7290
G01 X97.9552 Y26.7140
G00 Z2.0000
G00 X100.9531 Y33.1500
G01 F350.00
G01 Z-2.1000
G01 F400.00
G01 X100.9512 Y33.1299
G01 X100.9453 Y33.1105
G01 X100.9358 Y33.0927
G01 X100.9229 Y33.0771
G01 X100.9073 Y33.0642
G01 X100.8895 Y33.0547
G01 X100.8701 Y33.0488
G01 X100.8500 Y33.0468
G01 X100.8299 Y33.0488
G01 X100.8105 Y33.0547
G01 X100.7927 Y33.0642
G01 X100.7771 Y33.0771
G01 X100.7642 Y33.0927
G01 X100.7547 Y33.1105
G01 X100.7488 Y33.1299
G01 X100.7468 Y33.1500
G01 X100.7488 Y33.1701
G01 X100.7547 Y33.1895
G01 X100.7642 Y33.2073
G01 X100.7771 Y33.2229
G01 X100.7927 Y33.2358
G01 X100.8105 Y33.2453
G01 X100.8299 Y33.2512
G01 X100.8500 Y33.2531
G01 X100.8701 Y33.2512
G01 X100.8895 Y33.2453
G01 X100.9073 Y33.2358
G01 X100.9229 Y33.2229
G01 X100.9358 Y33.2073
G01 X100.9453 Y33.1895
G01 X100.9512 Y33.1701
G01 X100.9531 Y33.1500
G00 Z2.0000
G00 X100.9531 Y37.5500
G01 F350.00
G01 Z-2.1000
G01 F400.00
G01 X100.9512 Y37.5299
G01 X100.9453 Y37.5105
G01 X100.9358 Y37.4927
G01 X100.9229 Y37.4771
G01 X100.9073 Y37.4642
G01 X100.8895 Y37.4547
G01 X100.8701 Y37.4488
G01 X100.8500 Y37.4468
G01 X100.8299 Y37.4488
G01 X100.8105 Y37.4547
G01 X100.7927 Y37.4642
G01 X100.7771 Y37.4771
G01 X100.7642 Y37.4927
G01 X100.7547 Y37.5105
G01 X100.7488 Y37.5299
G01 X100.7468 Y37.5500
G01 X100.7488 Y37.5701
G01 X100.7547 Y37.5895
G01 X100.7642 Y37.6073
G01 X100.7771 Y37.6229
G01 X100.7927 Y37.6358
G01 X100.8105 Y37.6453
G01 X100.8299 Y37.6512
G01 X100.8500 Y37.6531
G01 X100.8701 Y37.6512
G01 X100.8895 Y37.6453
G01 X100.9073 Y37.6358
G01 X100.9229 Y37.6229
G01 X100.9358 Y37.6073
G01 X100.9453 Y37.5895
G01 X100.9512 Y37.5701
G01 X100.9531 Y37.5500
G00 Z2.0000
G00 X104.3131 Y45.9390
G01 F350.00
G01 Z-2.1000
G01 F400.00
G01 X104.3124 Y45.9240
G01 X104.3102 Y45.9091
G01 X104.3066 Y45.8945
G01 X104.3015 Y45.8804
G01 X104.2951 Y45.8668
G01 X104.2873 Y45.8539
G01 X104.2784 Y45.8418
G01 X104.2683 Y45.8307
G01 X104.2572 Y45.8206
G01 X104.2451 Y45.8117
G01 X104.2322 Y45.8039
G01 X104.2186 Y45.7975
G01 X104.2045 Y45.7924
G01 X104.1899 Y45.7888
G01 X104.1750 Y45.7866
G01 X104.1600 Y45.7859
G01 X104.1450 Y45.7866
G01 X104.1301 Y45.7888
G01 X104.1155 Y45.7924
G01 X104.1014 Y45.7975
G01 X104.0878 Y45.8039
G01 X104.0749 Y45.8117
G01 X104.0628 Y45.8206
G01 X104.0517 Y45.8307
G01 X104.0416 Y45.8418
G01 X104.0327 Y45.8539
G01 X104.0249 Y45.8668
G01 X104.0185 Y45.8804
G01 X104.0134 Y45.8945
G01 X104.0098 Y45.9091
G01 X104.0076 Y45.9240
G01 X104.0069 Y45.9390
G01 X104.0076 Y45.9540
G01 X104.0098 Y45.9689
G01 X104.0134 Y45.9835
G01 X104.0185 Y45.9976
G01 X104.0249 Y46.0112
G01 X104.0327 Y46.0241
G01 X104.0416 Y46.0362
G01 X104.0517 Y46.0473
G01 X104.0628 Y46.0574
G01 X104.0749 Y46.0663
G01 X104.0878 Y46.0741
G01 X104.1014 Y46.0805
G01 X104.1155 Y46.0856
G01 X104.1301 Y46.0892
G01 X104.1450 Y46.0914
G01 X104.1600 Y46.0921
G01 X104.1750 Y46.0914
G01 X104.1899 Y46.0892
G01 X104.2045 Y46.0856
G01 X104.2186 Y46.0805
G01 X104.2322 Y46.0741
G01 X104.2451 Y46.0663
G01 X104.2572 Y46.0574
G01 X104.2683 Y46.0473
G01 X104.2784 Y46.0362
G01 X104.2873 Y46.0241
G01 X104.2951 Y46.0112
G01 X104.3015 Y45.9976
G01 X104.3066 Y45.9835
G01 X104.3102 Y45.9689
G01 X104.3124 Y45.9540
G01 X104.3131 Y45.9390
G00 Z2.0000
G00 X104.8131 Y54.1460
G01 F350.00
G01 Z-2.1000
G01 F400.00
G01 X104.8124 Y54.1310
G01 X104.8102 Y54.1161
G01 X104.8066 Y54.1015
G01 X104.8015 Y54.0874
G01 X104.7951 Y54.0738
G01 X104.7873 Y54.0609
G01 X104.7784 Y54.0488
G01 X104.7683 Y54.0377
G01 X104.7572 Y54.0276
G01 X104.7451 Y54.0187
G01 X104.7322 Y54.0109
G01 X104.7186 Y54.0045
G01 X104.7045 Y53.9994
G01 X104.6899 Y53.9958
G01 X104.6750 Y53.9936
G01 X104.6600 Y53.9929
G01 X104.6450 Y53.9936
G01 X104.6301 Y53.9958
G01 X104.6155 Y53.9994
G01 X104.6014 Y54.0045
G01 X104.5878 Y54.0109
G01 X104.5749 Y54.0187
G01 X104.5628 Y54.0276
G01 X104.5517 Y54.0377
G01 X104.5416 Y54.0488
G01 X104.5327 Y54.0609
G01 X104.5249 Y54.0738
G01 X104.5185 Y54.0874
G01 X104.5134 Y54.1015
G01 X104.5098 Y54.1161
G01 X104.5076 Y54.1310
G01 X104.5069 Y54.1460
G01 X104.5076 Y54.1610
G01 X104.5098 Y54.1759
G01 X104.5134 Y54.1905
G01 X104.5185 Y54.2046
G01 X104.5249 Y54.2182
G01 X104.5327 Y54.2311
G01 X104.5416 Y54.2432
G01 X104.5517 Y54.2543
G01 X104.5628 Y54.2644
G01 X104.5749 Y54.2733
G01 X104.5878 Y54.2811
G01 X104.6014 Y54.2875
G01 X104.6155 Y54.2926
G01 X104.6301 Y54.2962
G01 X104.6450 Y54.2984
G01 X104.6600 Y54.2991
G01 X104.6750 Y54.2984
G01 X104.6899 Y54.2962
G01 X104.7045 Y54.2926
G01 X104.7186 Y54.2875
G01 X104.7322 Y54.2811
G01 X104.7451 Y54.2733
G01 X104.7572 Y54.2644
G01 X104.7683 Y54.2543
G01 X104.7784 Y54.2432
G01 X104.7873 Y54.2311
G01 X104.7951 Y54.2182
G01 X104.8015 Y54.2046
G01 X104.8066 Y54.1905
G01 X104.8102 Y54.1759
G01 X104.8124 Y54.1610
G01 X104.8131 Y54.1460
G00 Z2.0000
G00 X102.7001 Y58.7610
G01 F350.00
G01 Z-2.1000
G01 F400.00
G01 X102.6994 Y58.7460
G01 X102.6972 Y58.7311
G01 X102.6936 Y58.7165
G01 X102.6885 Y58.7024
G01 X102.6821 Y58.6888
G01 X102.6743 Y58.6759
G01 X102.6654 Y58.6638
G01 X102.6553 Y58.6527
G01 X102.6442 Y58.6426
G01 X102.6321 Y58.6337
G01 X102.6192 Y58.6259
G01 X102.6056 Y58.6195
G01 X102.5915 Y58.6144
G01 X102.5769 Y58.6108
G01 X102.5620 Y58.6086
G01 X102.5470 Y58.6079
G01 X102.5320 Y58.6086
G01 X102.5171 Y58.6108
G01 X102.5025 Y58.6144
G01 X102.4884 Y58.6195
G01 X102.4748 Y58.6259
G01 X102.4619 Y58.6337
G01 X102.4498 Y58.6426
G01 X102.4387 Y58.6527
G01 X102.4286 Y58.6638
G01 X102.4197 Y58.6759
G01 X102.4119 Y58.6888
G01 X102.4055 Y58.7024
G01 X102.4004 Y58.7165
G01 X102.3968 Y58.7311
G01 X102.3946 Y58.7460
G01 X102.3939 Y58.7610
G01 X102.3946 Y58.7760
G01 X102.3968 Y58.7909
G01 X102.4004 Y58.8055
G01 X102.4055 Y58.8196
G01 X102.4119 Y58.8332
G01 X102.4197 Y58.8461
G01 X102.4286 Y58.8582
G01 X102.4387 Y58.8693
G01 X102.4498 Y58.8794
G01 X102.4619 Y58.8883
G01 X102.4748 Y58.8961
G01 X102.4884 Y58.9025
G01 X102.5025 Y58.9076
G01 X102.5171 Y58.9112
G01 X102.5320 Y58.9134
G01 X102.5470 Y58.9141
G01 X102.5620 Y58.9134
G01 X102.5769 Y58.9112
G01 X102.5915 Y58.9076
G01 X102.6056 Y58.9025
G01 X102.6192 Y58.8961
G01 X102.6321 Y58.8883
G01 X102.6442 Y58.8794
G01 X102.6553 Y58.8693
G01 X102.6654 Y58.8582
G01 X102.6743 Y58.8461
G01 X102.6821 Y58.8332
G01 X102.6885 Y58.8196
G01 X102.6936 Y58.8055
G01 X102.6972 Y58.7909
G01 X102.6994 Y58.7760
G01 X102.7001 Y58.7610
G00 Z2.0000
G00 X95.0821 Y57.1920
G01 F350.00
G01 Z-2.1000
G01 F400.00
G01 X95.0814 Y57.1770
G01 X95.0792 Y57.1621
G01 X95.0756 Y57.1475
G01 X95.0705 Y57.1334
G01 X95.0641 Y57.1198
G01 X95.0563 Y57.1069
G01 X95.0474 Y57.0948
G01 X95.0373 Y57.0837
G01 X95.0262 Y57.0736
G01 X95.0141 Y57.0647
G01 X95.0012 Y57.0569
G01 X94.9876 Y57.0505
G01 X94.9735 Y57.0454
G01 X94.9589 Y57.0418
G01 X94.9440 Y57.0396
G01 X94.9290 Y57.0389
G01 X94.9140 Y57.0396
G01 X94.8991 Y57.0418
G01 X94.8845 Y57.0454
G01 X94.8704 Y57.0505
G01 X94.8568 Y57.0569
G01 X94.8439 Y57.0647
G01 X94.8318 Y57.0736
G01 X94.8207 Y57.0837
G01 X94.8106 Y57.0948
G01 X94.8017 Y57.1069
G01 X94.7939 Y57.1198
G01 X94.7875 Y57.1334
G01 X94.7824 Y57.1475
G01 X94.7788 Y57.1621
G01 X94.7766 Y57.1770
G01 X94.7759 Y57.1920
G01 X94.7766 Y57.2070
G01 X94.7788 Y57.2219
G01 X94.7824 Y57.2365
G01 X94.7875 Y57.2506
G01 X94.7939 Y57.2642
G01 X94.8017 Y57.2771
G01 X94.8106 Y57.2892
G01 X94.8207 Y57.3003
G01 X94.8318 Y57.3104
G01 X94.8439 Y57.3193
G01 X94.8568 Y57.3271
G01 X94.8704 Y57.3335
G01 X94.8845 Y57.3386
G01 X94.8991 Y57.3422
G01 X94.9140 Y57.3444
G01 X94.9290 Y57.3451
G01 X94.9440 Y57.3444
G01 X94.9589 Y57.3422
G01 X94.9735 Y57.3386
G01 X94.9876 Y57.3335
G01 X95.0012 Y57.3271
G01 X95.0141 Y57.3193
G01 X95.0262 Y57.3104
G01 X95.0373 Y57.3003
G01 X95.0474 Y57.2892
G01 X95.0563 Y57.2771
G01 X95.0641 Y57.2642
G01 X95.0705 Y57.2506
G01 X95.0756 Y57.2365
G01 X95.0792 Y57.2219
G01 X95.0814 Y57.2070
G01 X95.0821 Y57.1920
G00 Z2.0000
G00 X92.1611 Y60.1130
G01 F350.00
G01 Z-2.1000
G01 F400.00
G01 X92.1604 Y60.0980
G01 X92.1582 Y60.0831
G01 X92.1546 Y60.0685
G01 X92.1495 Y60.0544
G01 X92.1431 Y60.0408
G01 X92.1353 Y60.0279
G01 X92.1264 Y60.0158
G01 X92.1163 Y60.0047
G01 X92.1052 Y59.9946
G01 X92.0931 Y59.9857
G01 X92.0802 Y59.9779
G01 X92.0666 Y59.9715
G01 X92.0525 Y59.9664
G01 X92.0379 Y59.9628
G01 X92.0230 Y59.9606
G01 X92.0080 Y59.9599
G01 X91.9930 Y59.9606
G01 X91.9781 Y59.9628
G01 X91.9635 Y59.9664
G01 X91.9494 Y59.9715
G01 X91.9358 Y59.9779
G01 X91.9229 Y59.9857
G01 X91.9108 Y59.9946
G01 X91.8997 Y60.0047
G01 X91.8896 Y60.0158
G01 X91.8807 Y60.0279
G01 X91.8729 Y60.0408
G01 X91.8665 Y60.0544
G01 X91.8614 Y60.0685
G01 X91.8578 Y60.0831
G01 X91.8556 Y60.0980
G01 X91.8548 Y60.1130
G01 X91.8556 Y60.1280
G01 X91.8578 Y60.1429
G01 X91.8614 Y60.1575
G01 X91.8665 Y60.1716
G01 X91.8729 Y60.1852
G01 X91.8807 Y60.1981
G01 X91.8896 Y60.2102
G01 X91.8997 Y60.2213
G01 X91.9108 Y60.2314
G01 X91.9229 Y60.2403
G01 X91.9358 Y60.2481
G01 X91.9494 Y60.2545
G01 X91.9635 Y60.2596
G01 X91.9781 Y60.2632
G01 X91.9930 Y60.2654
G01 X92.0080 Y60.2661
G01 X92.0230 Y60.2654
G01 X92.0379 Y60.2632
G01 X92.0525 Y60.2596
G01 X92.0666 Y60.2545
G01 X92.0802 Y60.2481
G01 X92.0931 Y60.2403
G01 X92.1052 Y60.2314
G01 X92.1163 Y60.2213
G01 X92.1264 Y60.2102
G01 X92.1353 Y60.1981
G01 X92.1431 Y60.1852
G01 X92.1495 Y60.1716
G01 X92.1546 Y60.1575
G01 X92.1582 Y60.1429
G01 X92.1604 Y60.1280
G01 X92.1611 Y60.1130
G00 Z2.0000
G00 X88.2241 Y58.2080
G01 F350.00
G01 Z-2.1000
G01 F400.00
G01 X88.2234 Y58.1930
G01 X88.2212 Y58.1781
G01 X88.2176 Y58.1635
G01 X88.2125 Y58.1494
G01 X88.2061 Y58.1358
G01 X88.1983 Y58.1229
G01 X88.1894 Y58.1108
G01 X88.1793 Y58.0997
G01 X88.1682 Y58.0896
G01 X88.1561 Y58.0807
G01 X88.1432 Y58.0729
G01 X88.1296 Y58.0665
G01 X88.1155 Y58.0614
G01 X88.1009 Y58.0578
G01 X88.0860 Y58.0556
G01 X88.0710 Y58.0549
G01 X88.0560 Y58.0556
G01 X88.0411 Y58.0578
G01 X88.0265 Y58.0614
G01 X88.0124 Y58.0665
G01 X87.9988 Y58.0729
G01 X87.9859 Y58.0807
G01 X87.9738 Y58.0896
G01 X87.9627 Y58.0997
G01 X87.9526 Y58.1108
G01 X87.9437 Y58.1229
G01 X87.9359 Y58.1358
G01 X87.9295 Y58.1494
G01 X87.9244 Y58.1635
G01 X87.9208 Y58.1781
G01 X87.9186 Y58.1930
G01 X87.9179 Y58.2080
G01 X87.9186 Y58.2230
G01 X87.9208 Y58.2379
G01 X87.9244 Y58.2525
G01 X87.9295 Y58.2666
G01 X87.9359 Y58.2802
G01 X87.9437 Y58.2931
G01 X87.9526 Y58.3052
G01 X87.9627 Y58.3163
G01 X87.9738 Y58.3264
G01 X87.9859 Y58.3353
G01 X87.9988 Y58.3431
G01 X88.0124 Y58.3495
G01 X88.0265 Y58.3546
G01 X88.0411 Y58.3582
G01 X88.0560 Y58.3604
G01 X88.0710 Y58.3611
G01 X88.0860 Y58.3604
G01 X88.1009 Y58.3582
G01 X88.1155 Y58.3546
G01 X88.1296 Y58.3495
G01 X88.1432 Y58.3431
G01 X88.1561 Y58.3353
G01 X88.1682 Y58.3264
G01 X88.1793 Y58.3163
G01 X88.1894 Y58.3052
G01 X88.1983 Y58.2931
G01 X88.2061 Y58.2802
G01 X88.2125 Y58.2666
G01 X88.2176 Y58.2525
G01 X88.2212 Y58.2379
G01 X88.2234 Y58.2230
G01 X88.2241 Y58.2080
G00 Z2.0000
G00 X91.0181 Y55.6680
G01 F350.00
G01 Z-2.1000
G01 F400.00
G01 X91.0174 Y55.6530
G01 X91.0152 Y55.6381
G01 X91.0116 Y55.6235
G01 X91.0065 Y55.6094
G01 X91.0001 Y55.5958
G01 X90.9923 Y55.5829
G01 X90.9834 Y55.5708
G01 X90.9733 Y55.5597
G01 X90.9622 Y55.5496
G01 X90.9501 Y55.5407
G01 X90.9372 Y55.5329
G01 X90.9236 Y55.5265
G01 X90.9095 Y55.5214
G01 X90.8949 Y55.5178
G01 X90.8800 Y55.5156
G01 X90.8650 Y55.5149
G01 X90.8500 Y55.5156
G01 X90.8351 Y55.5178
G01 X90.8205 Y55.5214
G01 X90.8064 Y55.5265
G01 X90.7928 Y55.5329
G01 X90.7799 Y55.5407
G01 X90.7678 Y55.5496
G01 X90.7567 Y55.5597
G01 X90.7466 Y55.5708
G01 X90.7377 Y55.5829
G01 X90.7299 Y55.5958
G01 X90.7235 Y55.6094
G01 X90.7184 Y55.6235
G01 X90.7148 Y55.6381
G01 X90.7126 Y55.6530
G01 X90.7118 Y55.6680
G01 X90.7126 Y55.6830
G01 X90.7148 Y55.6979
G01 X90.7184 Y55.7125
G01 X90.7235 Y55.7266
G01 X90.7299 Y55.7402
G01 X90.7377 Y55.7531
G01 X90.7466 Y55.7652
G01 X90.7567 Y55.7763
G01 X90.7678 Y55.7864
G01 X90.7799 Y55.7953
G01 X90.7928 Y55.8031
G01 X90.8064 Y55.8095
G01 X90.8205 Y55.8146
G01 X90.8351 Y55.8182
G01 X90.8500 Y55.8204
G01 X90.8650 Y55.8211
G01 X90.8800 Y55.8204
G01 X90.8949 Y55.8182
G01 X90.9095 Y55.8146
G01 X90.9236 Y55.8095
G01 X90.9372 Y55.8031
G01 X90.9501 Y55.7953
G01 X90.9622 Y55.7864
G01 X90.9733 Y55.7763
G01 X90.9834 Y55.7652
G01 X90.9923 Y55.7531
G01 X91.0001 Y55.7402
G01 X91.0065 Y55.7266
G01 X91.0116 Y55.7125
G01 X91.0152 Y55.6979
G01 X91.0174 Y55.6830
G01 X91.0181 Y55.6680
G00 Z2.0000
G00 X91.9612 Y47.5130
G01 F350.00
G01 Z-2.1000
G01 F400.00
G01 X91.9604 Y47.4980
G01 X91.9582 Y47.4831
G01 X91.9546 Y47.4685
G01 X91.9495 Y47.4544
G01 X91.9431 Y47.4408
G01 X91.9353 Y47.4279
G01 X91.9264 Y47.4158
G01 X91.9163 Y47.4047
G01 X91.9052 Y47.3946
G01 X91.8931 Y47.3857
G01 X91.8802 Y47.3779
G01 X91.8666 Y47.3715
G01 X91.8525 Y47.3664
G01 X91.8379 Y47.3628
G01 X91.8230 Y47.3606
G01 X91.8080 Y47.3599
G01 X91.7930 Y47.3606
G01 X91.7781 Y47.3628
G01 X91.7635 Y47.3664
G01 X91.7494 Y47.3715
G01 X91.7358 Y47.3779
G01 X91.7229 Y47.3857
G01 X91.7108 Y47.3946
G01 X91.6997 Y47.4047
G01 X91.6896 Y47.4158
G01 X91.6807 Y47.4279
G01 X91.6729 Y47.4408
G01 X91.6665 Y47.4544
G01 X91.6614 Y47.4685
G01 X91.6578 Y47.4831
G01 X91.6556 Y47.4980
G01 X91.6549 Y47.5130
G01 X91.6556 Y47.5280
G01 X91.6578 Y47.5429
G01 X91.6614 Y47.5575
G01 X91.6665 Y47.5716
G01 X91.6729 Y47.5852
G01 X91.6807 Y47.5981
G01 X91.6896 Y47.6102
G01 X91.6997 Y47.6213
G01 X91.7108 Y47.6314
G01 X91.7229 Y47.6403
G01 X91.7358 Y47.6481
G01 X91.7494 Y47.6545
G01 X91.7635 Y47.6596
G01 X91.7781 Y47.6632
G01 X91.7930 Y47.6654
G01 X91.8080 Y47.6661
G01 X91.8230 Y47.6654
G01 X91.8379 Y47.6632
G01 X91.8525 Y47.6596
G01 X91.8666 Y47.6545
G01 X91.8802 Y47.6481
G01 X91.8931 Y47.6403
G01 X91.9052 Y47.6314
G01 X91.9163 Y47.6213
G01 X91.9264 Y47.6102
G01 X91.9353 Y47.5981
G01 X91.9431 Y47.5852
G01 X91.9495 Y47.5716
G01 X91.9546 Y47.5575
G01 X91.9582 Y47.5429
G01 X91.9604 Y47.5280
G01 X91.9612 Y47.5130
G00 Z2.0000
G00 X94.8821 Y44.5920
G01 F350.00
G01 Z-2.1000
G01 F400.00
G01 X94.8814 Y44.5770
G01 X94.8792 Y44.5621
G01 X94.8756 Y44.5475
G01 X94.8705 Y44.5334
G01 X94.8641 Y44.5198
G01 X94.8563 Y44.5069
G01 X94.8474 Y44.4948
G01 X94.8373 Y44.4837
G01 X94.8262 Y44.4736
G01 X94.8141 Y44.4647
G01 X94.8012 Y44.4569
G01 X94.7876 Y44.4505
G01 X94.7735 Y44.4454
G01 X94.7589 Y44.4418
G01 X94.7440 Y44.4396
G01 X94.7290 Y44.4389
G01 X94.7140 Y44.4396
G01 X94.6991 Y44.4418
G01 X94.6845 Y44.4454
G01 X94.6704 Y44.4505
G01 X94.6568 Y44.4569
G01 X94.6439 Y44.4647
G01 X94.6318 Y44.4736
G01 X94.6207 Y44.4837
G01 X94.6106 Y44.4948
G01 X94.6017 Y44.5069
G01 X94.5939 Y44.5198
G01 X94.5875 Y44.5334
G01 X94.5824 Y44.5475
G01 X94.5788 Y44.5621
G01 X94.5766 Y44.5770
G01 X94.5759 Y44.5920
G01 X94.5766 Y44.6070
G01 X94.5788 Y44.6219
G01 X94.5824 Y44.6365
G01 X94.5875 Y44.6506
G01 X94.5939 Y44.6642
G01 X94.6017 Y44.6771
G01 X94.6106 Y44.6892
G01 X94.6207 Y44.7003
G01 X94.6318 Y44.7104
G01 X94.6439 Y44.7193
G01 X94.6568 Y44.7271
G01 X94.6704 Y44.7335
G01 X94.6845 Y44.7386
G01 X94.6991 Y44.7422
G01 X94.7140 Y44.7444
G01 X94.7290 Y44.7451
G01 X94.7440 Y44.7444
G01 X94.7589 Y44.7422
G01 X94.7735 Y44.7386
G01 X94.7876 Y44.7335
G01 X94.8012 Y44.7271
G01 X94.8141 Y44.7193
G01 X94.8262 Y44.7104
G01 X94.8373 Y44.7003
G01 X94.8474 Y44.6892
G01 X94.8563 Y44.6771
G01 X94.8641 Y44.6642
G01 X94.8705 Y44.6506
G01 X94.8756 Y44.6365
G01 X94.8792 Y44.6219
G01 X94.8814 Y44.6070
G01 X94.8821 Y44.5920
G00 Z2.0000
G00 X90.8182 Y43.0680
G01 F350.00
G01 Z-2.1000
G01 F400.00
G01 X90.8174 Y43.0530
G01 X90.8152 Y43.0381
G01 X90.8116 Y43.0235
G01 X90.8065 Y43.0094
G01 X90.8001 Y42.9958
G01 X90.7923 Y42.9829
G01 X90.7834 Y42.9708
G01 X90.7733 Y42.9597
G01 X90.7622 Y42.9496
G01 X90.7501 Y42.9407
G01 X90.7372 Y42.9329
G01 X90.7236 Y42.9265
G01 X90.7095 Y42.9214
G01 X90.6949 Y42.9178
G01 X90.6800 Y42.9156
G01 X90.6650 Y42.9149
G01 X90.6500 Y42.9156
G01 X90.6351 Y42.9178
G01 X90.6205 Y42.9214
G01 X90.6064 Y42.9265
G01 X90.5928 Y42.9329
G01 X90.5799 Y42.9407
G01 X90.5678 Y42.9496
G01 X90.5567 Y42.9597
G01 X90.5466 Y42.9708
G01 X90.5377 Y42.9829
G01 X90.5299 Y42.9958
G01 X90.5235 Y43.0094
G01 X90.5184 Y43.0235
G01 X90.5148 Y43.0381
G01 X90.5126 Y43.0530
G01 X90.5119 Y43.0680
G01 X90.5126 Y43.0830
G01 X90.5148 Y43.0979
G01 X90.5184 Y43.1125
G01 X90.5235 Y43.1266
G01 X90.5299 Y43.1402
G01 X90.5377 Y43.1531
G01 X90.5466 Y43.1652
G01 X90.5567 Y43.1763
G01 X90.5678 Y43.1864
G01 X90.5799 Y43.1953
G01 X90.5928 Y43.2031
G01 X90.6064 Y43.2095
G01 X90.6205 Y43.2146
G01 X90.6351 Y43.2182
G01 X90.6500 Y43.2204
G01 X90.6650 Y43.2211
G01 X90.6800 Y43.2204
G01 X90.6949 Y43.2182
G01 X90.7095 Y43.2146
G01 X90.7236 Y43.2095
G01 X90.7372 Y43.2031
G01 X90.7501 Y43.1953
G01 X90.7622 Y43.1864
G01 X90.7733 Y43.1763
G01 X90.7834 Y43.1652
G01 X90.7923 Y43.1531
G01 X90.8001 Y43.1402
G01 X90.8065 Y43.1266
G01 X90.8116 Y43.1125
G01 X90.8152 Y43.0979
G01 X90.8174 Y43.0830
G01 X90.8182 Y43.0680
G00 Z2.0000
G00 X88.0241 Y45.6080
G01 F350.00
G01 Z-2.1000
G01 F400.00
G01 X88.0234 Y45.5930
G01 X88.0212 Y45.5781
G01 X88.0176 Y45.5635
G01 X88.0125 Y45.5494
G01 X88.0061 Y45.5358
G01 X87.9983 Y45.5229
G01 X87.9894 Y45.5108
G01 X87.9793 Y45.4997
G01 X87.9682 Y45.4896
G01 X87.9561 Y45.4807
G01 X87.9432 Y45.4729
G01 X87.9296 Y45.4665
G01 X87.9155 Y45.4614
G01 X87.9009 Y45.4578
G01 X87.8860 Y45.4556
G01 X87.8710 Y45.4549
G01 X87.8560 Y45.4556
G01 X87.8411 Y45.4578
G01 X87.8265 Y45.4614
G01 X87.8124 Y45.4665
G01 X87.7988 Y45.4729
G01 X87.7859 Y45.4807
G01 X87.7738 Y45.4896
G01 X87.7627 Y45.4997
G01 X87.7526 Y45.5108
G01 X87.7437 Y45.5229
G01 X87.7359 Y45.5358
G01 X87.7295 Y45.5494
G01 X87.7244 Y45.5635
G01 X87.7208 Y45.5781
G01 X87.7186 Y45.5930
G01 X87.7178 Y45.6080
G01 X87.7186 Y45.6230
G01 X87.7208 Y45.6379
G01 X87.7244 Y45.6525
G01 X87.7295 Y45.6666
G01 X87.7359 Y45.6802
G01 X87.7437 Y45.6931
G01 X87.7526 Y45.7052
G01 X87.7627 Y45.7163
G01 X87.7738 Y45.7264
G01 X87.7859 Y45.7353
G01 X87.7988 Y45.7431
G01 X87.8124 Y45.7495
G01 X87.8265 Y45.7546
G01 X87.8411 Y45.7582
G01 X87.8560 Y45.7604
G01 X87.8710 Y45.7611
G01 X87.8860 Y45.7604
G01 X87.9009 Y45.7582
G01 X87.9155 Y45.7546
G01 X87.9296 Y45.7495
G01 X87.9432 Y45.7431
G01 X87.9561 Y45.7353
G01 X87.9682 Y45.7264
G01 X87.9793 Y45.7163
G01 X87.9894 Y45.7052
G01 X87.9983 Y45.6931
G01 X88.0061 Y45.6802
G01 X88.0125 Y45.6666
G01 X88.0176 Y45.6525
G01 X88.0212 Y45.6379
G01 X88.0234 Y45.6230
G01 X88.0241 Y45.6080
G00 Z2.0000
G00 X73.4471 Y47.2660
G01 F350.00
G01 Z-2.1000
G01 F400.00
G01 X73.4464 Y47.2510
G01 X73.4442 Y47.2361
G01 X73.4406 Y47.2215
G01 X73.4355 Y47.2074
G01 X73.4291 Y47.1938
G01 X73.4213 Y47.1809
G01 X73.4124 Y47.1688
G01 X73.4023 Y47.1577
G01 X73.3912 Y47.1476
G01 X73.3791 Y47.1387
G01 X73.3662 Y47.1309
G01 X73.3526 Y47.1245
G01 X73.3385 Y47.1194
G01 X73.3239 Y47.1158
G01 X73.3090 Y47.1136
G01 X73.2940 Y47.1129
G01 X73.2790 Y47.1136
G01 X73.2641 Y47.1158
G01 X73.2495 Y47.1194
G01 X73.2354 Y47.1245
G01 X73.2218 Y47.1309
G01 X73.2089 Y47.1387
G01 X73.1968 Y47.1476
G01 X73.1857 Y47.1577
G01 X73.1756 Y47.1688
G01 X73.1667 Y47.1809
G01 X73.1589 Y47.1938
G01 X73.1525 Y47.2074
G01 X73.1474 Y47.2215
G01 X73.1438 Y47.2361
G01 X73.1416 Y47.2510
G01 X73.1409 Y47.2660
G01 X73.1416 Y47.2810
G01 X73.1438 Y47.2959
G01 X73.1474 Y47.3105
G01 X73.1525 Y47.3246
G01 X73.1589 Y47.3382
G01 X73.1667 Y47.3511
G01 X73.1756 Y47.3632
G01 X73.1857 Y47.3743
G01 X73.1968 Y47.3844
G01 X73.2089 Y47.3933
G01 X73.2218 Y47.4011
G01 X73.2354 Y47.4075
G01 X73.2495 Y47.4126
G01 X73.2641 Y47.4162
G01 X73.2790 Y47.4184
G01 X73.2940 Y47.4191
G01 X73.3090 Y47.4184
G01 X73.3239 Y47.4162
G01 X73.3385 Y47.4126
G01 X73.3526 Y47.4075
G01 X73.3662 Y47.4011
G01 X73.3791 Y47.3933
G01 X73.3912 Y47.3844
G01 X73.4023 Y47.3743
G01 X73.4124 Y47.3632
G01 X73.4213 Y47.3511
G01 X73.4291 Y47.3382
G01 X73.4355 Y47.3246
G01 X73.4406 Y47.3105
G01 X73.4442 Y47.2959
G01 X73.4464 Y47.2810
G01 X73.4471 Y47.2660
G00 Z2.0000
G00 X69.7531 Y37.1000
G01 F350.00
G01 Z-2.1000
G01 F400.00
G01 X69.7474 Y36.9821
G01 X69.7300 Y36.8653
G01 X69.7013 Y36.7507
G01 X69.6616 Y36.6396
G01 X69.6111 Y36.5328
G01 X69.5504 Y36.4316
G01 X69.4800 Y36.3367
G01 X69.4008 Y36.2492
G01 X69.3133 Y36.1700
G01 X69.2184 Y36.0996
G01 X69.1172 Y36.0389
G01 X69.0104 Y35.9884
G01 X68.8993 Y35.9487
G01 X68.7847 Y35.9200
G01 X68.6679 Y35.9026
G01 X68.5500 Y35.8969
G01 X68.4321 Y35.9026
G01 X68.3153 Y35.9200
G01 X68.2007 Y35.9487
G01 X68.0896 Y35.9884
G01 X67.9828 Y36.0389
G01 X67.8816 Y36.0996
G01 X67.7867 Y36.1700
G01 X67.6992 Y36.2492
G01 X67.6200 Y36.3367
G01 X67.5496 Y36.4316
G01 X67.4889 Y36.5328
G01 X67.4384 Y36.6396
G01 X67.3987 Y36.7507
G01 X67.3700 Y36.8653
G01 X67.3526 Y36.9821
G01 X67.3469 Y37.1000
G01 X67.3526 Y37.2179
G01 X67.3700 Y37.3347
G01 X67.3987 Y37.4493
G01 X67.4384 Y37.5604
G01 X67.4889 Y37.6672
G01 X67.5496 Y37.7684
G01 X67.6200 Y37.8633
G01 X67.6992 Y37.9508
G01 X67.7867 Y38.0300
G01 X67.8816 Y38.1004
G01 X67.9828 Y38.1611
G01 X68.0896 Y38.2116
G01 X68.2007 Y38.2513
G01 X68.3153 Y38.2800
G01 X68.4321 Y38.2974
G01 X68.5500 Y38.3032
G01 X68.6679 Y38.2974
G01 X68.7847 Y38.2800
G01 X68.8993 Y38.2513
G01 X69.0104 Y38.2116
G01 X69.1172 Y38.1611
G01 X69.2184 Y38.1004
G01 X69.3133 Y38.0300
G01 X69.4008 Y37.9508
G01 X69.4800 Y37.8633
G01 X69.5504 Y37.7684
G01 X69.6111 Y37.6672
G01 X69.6616 Y37.5604
G01 X69.7013 Y37.4493
G01 X69.7300 Y37.3347
G01 X69.7474 Y37.2179
G01 X69.7531 Y37.1000
G00 Z2.0000
G00 X69.7031 Y37.1000
G01 F350.00
G01 Z-2.1000
G01 F400.00
G01 X69.6974 Y36.9821
G01 X69.6800 Y36.8653
G01 X69.6513 Y36.7507
G01 X69.6116 Y36.6396
G01 X69.5611 Y36.5328
G01 X69.5004 Y36.4316
G01 X69.4300 Y36.3367
G01 X69.3508 Y36.2492
G01 X69.2633 Y36.1700
G01 X69.1684 Y36.0996
G01 X69.0672 Y36.0389
G01 X68.9604 Y35.9884
G01 X68.8493 Y35.9487
G01 X68.7347 Y35.9200
G01 X68.6179 Y35.9026
G01 X68.5000 Y35.8969
G01 X68.3821 Y35.9026
G01 X68.2653 Y35.9200
G01 X68.1507 Y35.9487
G01 X68.0396 Y35.9884
G01 X67.9328 Y36.0389
G01 X67.8316 Y36.0996
G01 X67.7367 Y36.1700
G01 X67.6492 Y36.2492
G01 X67.5700 Y36.3367
G01 X67.4996 Y36.4316
G01 X67.4389 Y36.5328
G01 X67.3884 Y36.6396
G01 X67.3487 Y36.7507
G01 X67.3200 Y36.8653
G01 X67.3026 Y36.9821
G01 X67.2969 Y37.1000
G01 X67.3026 Y37.2179
G01 X67.3200 Y37.3347
G01 X67.3487 Y37.4493
G01 X67.3884 Y37.5604
G01 X67.4389 Y37.6672
G01 X67.4996 Y37.7684
G01 X67.5700 Y37.8633
G01 X67.6492 Y37.9508
G01 X67.7367 Y38.0300
G01 X67.8316 Y38.1004
G01 X67.9328 Y38.1611
G01 X68.0396 Y38.2116
G01 X68.1507 Y38.2513
G01 X68.2653 Y38.2800
G01 X68.3821 Y38.2974
G01 X68.5000 Y38.3032
G01 X68.6179 Y38.2974
G01 X68.7347 Y38.2800
G01 X68.8493 Y38.2513
G01 X68.9604 Y38.2116
G01 X69.0672 Y38.1611
G01 X69.1684 Y38.1004
G01 X69.2633 Y38.0300
G01 X69.3508 Y37.9508
G01 X69.4300 Y37.8633
G01 X69.5004 Y37.7684
G01 X69.5611 Y37.6672
G01 X69.6116 Y37.5604
G01 X69.6513 Y37.4493
G01 X69.6800 Y37.3347
G01 X69.6974 Y37.2179
G01 X69.7031 Y37.1000
G00 Z2.0000
G00 X53.5051 Y47.0340
G01 F350.00
G01 Z-2.1000
G01 F400.00
G01 X53.5044 Y47.0190
G01 X53.5022 Y47.0041
G01 X53.4986 Y46.9895
G01 X53.4935 Y46.9754
G01 X53.4871 Y46.9618
G01 X53.4793 Y46.9489
G01 X53.4704 Y46.9368
G01 X53.4603 Y46.9257
G01 X53.4492 Y46.9156
G01 X53.4371 Y46.9067
G01 X53.4242 Y46.8989
G01 X53.4106 Y46.8925
G01 X53.3965 Y46.8874
G01 X53.3819 Y46.8838
G01 X53.3670 Y46.8816
G01 X53.3520 Y46.8809
G01 X53.3370 Y46.8816
G01 X53.3221 Y46.8838
G01 X53.3075 Y46.8874
G01 X53.2934 Y46.8925
G01 X53.2798 Y46.8989
G01 X53.2669 Y46.9067
G01 X53.2548 Y46.9156
G01 X53.2437 Y46.9257
G01 X53.2336 Y46.9368
G01 X53.2247 Y46.9489
G01 X53.2169 Y46.9618
G01 X53.2105 Y46.9754
G01 X53.2054 Y46.9895
G01 X53.2018 Y47.0041
G01 X53.1996 Y47.0190
G01 X53.1989 Y47.0340
G01 X53.1996 Y47.0490
G01 X53.2018 Y47.0639
G01 X53.2054 Y47.0785
G01 X53.2105 Y47.0926
G01 X53.2169 Y47.1062
G01 X53.2247 Y47.1191
G01 X53.2336 Y47.1312
G01 X53.2437 Y47.1423
G01 X53.2548 Y47.1524
G01 X53.2669 Y47.1613
G01 X53.2798 Y47.1691
G01 X53.2934 Y47.1755
G01 X53.3075 Y47.1806
G01 X53.3221 Y47.1842
G01 X53.3370 Y47.1864
G01 X53.3520 Y47.1871
G01 X53.3670 Y47.1864
G01 X53.3819 Y47.1842
G01 X53.3965 Y47.1806
G01 X53.4106 Y47.1755
G01 X53.4242 Y47.1691
G01 X53.4371 Y47.1613
G01 X53.4492 Y47.1524
G01 X53.4603 Y47.1423
G01 X53.4704 Y47.1312
G01 X53.4793 Y47.1191
G01 X53.4871 Y47.1062
G01 X53.4935 Y47.0926
G01 X53.4986 Y47.0785
G01 X53.5022 Y47.0639
G01 X53.5044 Y47.0490
G01 X53.5051 Y47.0340
G00 Z2.0000
G00 X44.1071 Y41.4460
G01 F350.00
G01 Z-2.1000
G01 F400.00
G01 X44.1064 Y41.4310
G01 X44.1042 Y41.4161
G01 X44.1006 Y41.4015
G01 X44.0955 Y41.3874
G01 X44.0891 Y41.3738
G01 X44.0813 Y41.3609
G01 X44.0724 Y41.3488
G01 X44.0623 Y41.3377
G01 X44.0512 Y41.3276
G01 X44.0391 Y41.3187
G01 X44.0262 Y41.3109
G01 X44.0126 Y41.3045
G01 X43.9985 Y41.2994
G01 X43.9839 Y41.2958
G01 X43.9690 Y41.2936
G01 X43.9540 Y41.2929
G01 X43.9390 Y41.2936
G01 X43.9241 Y41.2958
G01 X43.9095 Y41.2994
G01 X43.8954 Y41.3045
G01 X43.8818 Y41.3109
G01 X43.8689 Y41.3187
G01 X43.8568 Y41.3276
G01 X43.8457 Y41.3377
G01 X43.8356 Y41.3488
G01 X43.8267 Y41.3609
G01 X43.8189 Y41.3738
G01 X43.8125 Y41.3874
G01 X43.8074 Y41.4015
G01 X43.8038 Y41.4161
G01 X43.8016 Y41.4310
G01 X43.8009 Y41.4460
G01 X43.8016 Y41.4610
G01 X43.8038 Y41.4759
G01 X43.8074 Y41.4905
G01 X43.8125 Y41.5046
G01 X43.8189 Y41.5182
G01 X43.8267 Y41.5311
G01 X43.8356 Y41.5432
G01 X43.8457 Y41.5543
G01 X43.8568 Y41.5644
G01 X43.8689 Y41.5733
G01 X43.8818 Y41.5811
G01 X43.8954 Y41.5875
G01 X43.9095 Y41.5926
G01 X43.9241 Y41.5962
G01 X43.9390 Y41.5984
G01 X43.9540 Y41.5991
G01 X43.9690 Y41.5984
G01 X43.9839 Y41.5962
G01 X43.9985 Y41.5926
G01 X44.0126 Y41.5875
G01 X44.0262 Y41.5811
G01 X44.0391 Y41.5733
G01 X44.0512 Y41.5644
G01 X44.0623 Y41.5543
G01 X44.0724 Y41.5432
G01 X44.0813 Y41.5311
G01 X44.0891 Y41.5182
G01 X44.0955 Y41.5046
G01 X44.1006 Y41.4905
G01 X44.1042 Y41.4759
G01 X44.1064 Y41.4610
G01 X44.1071 Y41.4460
G00 Z2.0000
G00 X53.6592 Y23.5500
G01 F350.00
G01 Z-2.1000
G01 F400.00
G01 X53.6581 Y23.5396
G01 X53.6551 Y23.5297
G01 X53.6502 Y23.5205
G01 X53.6436 Y23.5124
G01 X53.6355 Y23.5058
G01 X53.6263 Y23.5009
G01 X53.6164 Y23.4979
G01 X53.6060 Y23.4969
G01 X53.5956 Y23.4979
G01 X53.5857 Y23.5009
G01 X53.5765 Y23.5058
G01 X53.5684 Y23.5124
G01 X53.5618 Y23.5205
G01 X53.5569 Y23.5297
G01 X53.5539 Y23.5396
G01 X53.5528 Y23.5500
G01 X53.5539 Y23.5604
G01 X53.5569 Y23.5703
G01 X53.5618 Y23.5795
G01 X53.5684 Y23.5876
G01 X53.5765 Y23.5942
G01 X53.5857 Y23.5991
G01 X53.5956 Y23.6021
G01 X53.6060 Y23.6031
G01 X53.6164 Y23.6021
G01 X53.6263 Y23.5991
G01 X53.6355 Y23.5942
G01 X53.6436 Y23.5876
G01 X53.6502 Y23.5795
G01 X53.6551 Y23.5703
G01 X53.6581 Y23.5604
G01 X53.6592 Y23.5500
G00 Z2.0000
G00 X56.1992 Y23.5500
G01 F350.00
G01 Z-2.1000
G01 F400.00
G01 X56.1981 Y23.5396
G01 X56.1951 Y23.5297
G01 X56.1902 Y23.5205
G01 X56.1836 Y23.5124
G01 X56.1755 Y23.5058
G01 X56.1663 Y23.5009
G01 X56.1564 Y23.4979
G01 X56.1460 Y23.4969
G01 X56.1356 Y23.4979
G01 X56.1257 Y23.5009
G01 X56.1165 Y23.5058
G01 X56.1084 Y23.5124
G01 X56.1018 Y23.5205
G01 X56.0969 Y23.5297
G01 X56.0939 Y23.5396
G01 X56.0928 Y23.5500
G01 X56.0939 Y23.5604
G01 X56.0969 Y23.5703
G01 X56.1018 Y23.5795
G01 X56.1084 Y23.5876
G01 X56.1165 Y23.5942
G01 X56.1257 Y23.5991
G01 X56.1356 Y23.6021
G01 X56.1460 Y23.6031
G01 X56.1564 Y23.6021
G01 X56.1663 Y23.5991
G01 X56.1755 Y23.5942
G01 X56.1836 Y23.5876
G01 X56.1902 Y23.5795
G01 X56.1951 Y23.5703
G01 X56.1981 Y23.5604
G01 X56.1992 Y23.5500
G00 Z2.0000
G00 X61.8681 Y15.2980
G01 F350.00
G01 Z-2.1000
G01 F400.00
G01 X61.8674 Y15.2830
G01 X61.8652 Y15.2681
G01 X61.8616 Y15.2535
G01 X61.8565 Y15.2394
G01 X61.8501 Y15.2258
G01 X61.8423 Y15.2129
G01 X61.8334 Y15.2008
G01 X61.8233 Y15.1897
G01 X61.8122 Y15.1796
G01 X61.8001 Y15.1707
G01 X61.7872 Y15.1629
G01 X61.7736 Y15.1565
G01 X61.7595 Y15.1514
G01 X61.7449 Y15.1478
G01 X61.7300 Y15.1456
G01 X61.7150 Y15.1448
G01 X61.7000 Y15.1456
G01 X61.6851 Y15.1478
G01 X61.6705 Y15.1514
G01 X61.6564 Y15.1565
G01 X61.6428 Y15.1629
G01 X61.6299 Y15.1707
G01 X61.6178 Y15.1796
G01 X61.6067 Y15.1897
G01 X61.5966 Y15.2008
G01 X61.5877 Y15.2129
G01 X61.5799 Y15.2258
G01 X61.5735 Y15.2394
G01 X61.5684 Y15.2535
G01 X61.5648 Y15.2681
G01 X61.5626 Y15.2830
G01 X61.5619 Y15.2980
G01 X61.5626 Y15.3130
G01 X61.5648 Y15.3279
G01 X61.5684 Y15.3425
G01 X61.5735 Y15.3566
G01 X61.5799 Y15.3702
G01 X61.5877 Y15.3831
G01 X61.5966 Y15.3952
G01 X61.6067 Y15.4063
G01 X61.6178 Y15.4164
G01 X61.6299 Y15.4253
G01 X61.6428 Y15.4331
G01 X61.6564 Y15.4395
G01 X61.6705 Y15.4446
G01 X61.6851 Y15.4482
G01 X61.7000 Y15.4504
G01 X61.7150 Y15.4512
G01 X61.7300 Y15.4504
G01 X61.7449 Y15.4482
G01 X61.7595 Y15.4446
G01 X61.7736 Y15.4395
G01 X61.7872 Y15.4331
G01 X61.8001 Y15.4253
G01 X61.8122 Y15.4164
G01 X61.8233 Y15.4063
G01 X61.8334 Y15.3952
G01 X61.8423 Y15.3831
G01 X61.8501 Y15.3702
G01 X61.8565 Y15.3566
G01 X61.8616 Y15.3425
G01 X61.8652 Y15.3279
G01 X61.8674 Y15.3130
G01 X61.8681 Y15.2980
G00 Z2.0000
G00 X61.2792 Y9.0500
G01 F350.00
G01 Z-2.1000
G01 F400.00
G01 X61.2781 Y9.0396
G01 X61.2751 Y9.0297
G01 X61.2702 Y9.0205
G01 X61.2636 Y9.0124
G01 X61.2555 Y9.0058
G01 X61.2463 Y9.0009
G01 X61.2364 Y8.9979
G01 X61.2260 Y8.9969
G01 X61.2156 Y8.9979
G01 X61.2057 Y9.0009
G01 X61.1965 Y9.0058
G01 X61.1884 Y9.0124
G01 X61.1818 Y9.0205
G01 X61.1769 Y9.0297
G01 X61.1739 Y9.0396
G01 X61.1728 Y9.0500
G01 X61.1739 Y9.0604
G01 X61.1769 Y9.0703
G01 X61.1818 Y9.0795
G01 X61.1884 Y9.0876
G01 X61.1965 Y9.0942
G01 X61.2057 Y9.0991
G01 X61.2156 Y9.1021
G01 X61.2260 Y9.1032
G01 X61.2364 Y9.1021
G01 X61.2463 Y9.0991
G01 X61.2555 Y9.0942
G01 X61.2636 Y9.0876
G01 X61.2702 Y9.0795
G01 X61.2751 Y9.0703
G01 X61.2781 Y9.0604
G01 X61.2792 Y9.0500
G00 Z2.0000
G00 X58.7392 Y9.0500
G01 F350.00
G01 Z-2.1000
G01 F400.00
G01 X58.7381 Y9.0396
G01 X58.7351 Y9.0297
G01 X58.7302 Y9.0205
G01 X58.7236 Y9.0124
G01 X58.7155 Y9.0058
G01 X58.7063 Y9.0009
G01 X58.6964 Y8.9979
G01 X58.6860 Y8.9969
G01 X58.6756 Y8.9979
G01 X58.6657 Y9.0009
G01 X58.6565 Y9.0058
G01 X58.6484 Y9.0124
G01 X58.6418 Y9.0205
G01 X58.6369 Y9.0297
G01 X58.6339 Y9.0396
G01 X58.6328 Y9.0500
G01 X58.6339 Y9.0604
G01 X58.6369 Y9.0703
G01 X58.6418 Y9.0795
G01 X58.6484 Y9.0876
G01 X58.6565 Y9.0942
G01 X58.6657 Y9.0991
G01 X58.6756 Y9.1021
G01 X58.6860 Y9.1032
G01 X58.6964 Y9.1021
G01 X58.7063 Y9.0991
G01 X58.7155 Y9.0942
G01 X58.7236 Y9.0876
G01 X58.7302 Y9.0795
G01 X58.7351 Y9.0703
G01 X58.7381 Y9.0604
G01 X58.7392 Y9.0500
G00 Z2.0000
G00 X56.1992 Y9.0500
G01 F350.00
G01 Z-2.1000
G01 F400.00
G01 X56.1981 Y9.0396
G01 X56.1951 Y9.0297
G01 X56.1902 Y9.0205
G01 X56.1836 Y9.0124
G01 X56.1755 Y9.0058
G01 X56.1663 Y9.0009
G01 X56.1564 Y8.9979
G01 X56.1460 Y8.9969
G01 X56.1356 Y8.9979
G01 X56.1257 Y9.0009
G01 X56.1165 Y9.0058
G01 X56.1084 Y9.0124
G01 X56.1018 Y9.0205
G01 X56.0969 Y9.0297
G01 X56.0939 Y9.0396
G01 X56.0928 Y9.0500
G01 X56.0939 Y9.0604
G01 X56.0969 Y9.0703
G01 X56.1018 Y9.0795
G01 X56.1084 Y9.0876
G01 X56.1165 Y9.0942
G01 X56.1257 Y9.0991
G01 X56.1356 Y9.1021
G01 X56.1460 Y9.1032
G01 X56.1564 Y9.1021
G01 X56.1663 Y9.0991
G01 X56.1755 Y9.0942
G01 X56.1836 Y9.0876
G01 X56.1902 Y9.0795
G01 X56.1951 Y9.0703
G01 X56.1981 Y9.0604
G01 X56.1992 Y9.0500
G00 Z2.0000
G00 X53.6592 Y9.0500
G01 F350.00
G01 Z-2.1000
G01 F400.00
G01 X53.6581 Y9.0396
G01 X53.6551 Y9.0297
G01 X53.6502 Y9.0205
G01 X53.6436 Y9.0124
G01 X53.6355 Y9.0058
G01 X53.6263 Y9.0009
G01 X53.6164 Y8.9979
G01 X53.6060 Y8.9969
G01 X53.5956 Y8.9979
G01 X53.5857 Y9.0009
G01 X53.5765 Y9.0058
G01 X53.5684 Y9.0124
G01 X53.5618 Y9.0205
G01 X53.5569 Y9.0297
G01 X53.5539 Y9.0396
G01 X53.5528 Y9.0500
G01 X53.5539 Y9.0604
G01 X53.5569 Y9.0703
G01 X53.5618 Y9.0795
G01 X53.5684 Y9.0876
G01 X53.5765 Y9.0942
G01 X53.5857 Y9.0991
G01 X53.5956 Y9.1021
G01 X53.6060 Y9.1032
G01 X53.6164 Y9.1021
G01 X53.6263 Y9.0991
G01 X53.6355 Y9.0942
G01 X53.6436 Y9.0876
G01 X53.6502 Y9.0795
G01 X53.6551 Y9.0703
G01 X53.6581 Y9.0604
G01 X53.6592 Y9.0500
G00 Z2.0000
G00 X52.7431 Y11.9820
G01 F350.00
G01 Z-2.1000
G01 F400.00
G01 X52.7424 Y11.9670
G01 X52.7402 Y11.9521
G01 X52.7366 Y11.9375
G01 X52.7315 Y11.9234
G01 X52.7251 Y11.9098
G01 X52.7173 Y11.8969
G01 X52.7084 Y11.8848
G01 X52.6983 Y11.8737
G01 X52.6872 Y11.8636
G01 X52.6751 Y11.8547
G01 X52.6622 Y11.8469
G01 X52.6486 Y11.8405
G01 X52.6345 Y11.8354
G01 X52.6199 Y11.8318
G01 X52.6050 Y11.8296
G01 X52.5900 Y11.8288
G01 X52.5750 Y11.8296
G01 X52.5601 Y11.8318
G01 X52.5455 Y11.8354
G01 X52.5314 Y11.8405
G01 X52.5178 Y11.8469
G01 X52.5049 Y11.8547
G01 X52.4928 Y11.8636
G01 X52.4817 Y11.8737
G01 X52.4716 Y11.8848
G01 X52.4627 Y11.8969
G01 X52.4549 Y11.9098
G01 X52.4485 Y11.9234
G01 X52.4434 Y11.9375
G01 X52.4398 Y11.9521
G01 X52.4376 Y11.9670
G01 X52.4369 Y11.9820
G01 X52.4376 Y11.9970
G01 X52.4398 Y12.0119
G01 X52.4434 Y12.0265
G01 X52.4485 Y12.0406
G01 X52.4549 Y12.0542
G01 X52.4627 Y12.0671
G01 X52.4716 Y12.0792
G01 X52.4817 Y12.0903
G01 X52.4928 Y12.1004
G01 X52.5049 Y12.1093
G01 X52.5178 Y12.1171
G01 X52.5314 Y12.1235
G01 X52.5455 Y12.1286
G01 X52.5601 Y12.1322
G01 X52.5750 Y12.1344
G01 X52.5900 Y12.1351
G01 X52.6050 Y12.1344
G01 X52.6199 Y12.1322
G01 X52.6345 Y12.1286
G01 X52.6486 Y12.1235
G01 X52.6622 Y12.1171
G01 X52.6751 Y12.1093
G01 X52.6872 Y12.1004
G01 X52.6983 Y12.0903
G01 X52.7084 Y12.0792
G01 X52.7173 Y12.0671
G01 X52.7251 Y12.0542
G01 X52.7315 Y12.0406
G01 X52.7366 Y12.0265
G01 X52.7402 Y12.0119
G01 X52.7424 Y11.9970
G01 X52.7431 Y11.9820
G00 Z2.0000
G00 X49.6951 Y12.2360
G01 F350.00
G01 Z-2.1000
G01 F400.00
G01 X49.6944 Y12.2210
G01 X49.6922 Y12.2061
G01 X49.6886 Y12.1915
G01 X49.6835 Y12.1774
G01 X49.6771 Y12.1638
G01 X49.6693 Y12.1509
G01 X49.6604 Y12.1388
G01 X49.6503 Y12.1277
G01 X49.6392 Y12.1176
G01 X49.6271 Y12.1087
G01 X49.6142 Y12.1009
G01 X49.6006 Y12.0945
G01 X49.5865 Y12.0894
G01 X49.5719 Y12.0858
G01 X49.5570 Y12.0836
G01 X49.5420 Y12.0829
G01 X49.5270 Y12.0836
G01 X49.5121 Y12.0858
G01 X49.4975 Y12.0894
G01 X49.4834 Y12.0945
G01 X49.4698 Y12.1009
G01 X49.4569 Y12.1087
G01 X49.4448 Y12.1176
G01 X49.4337 Y12.1277
G01 X49.4236 Y12.1388
G01 X49.4147 Y12.1509
G01 X49.4069 Y12.1638
G01 X49.4005 Y12.1774
G01 X49.3954 Y12.1915
G01 X49.3918 Y12.2061
G01 X49.3896 Y12.2210
G01 X49.3889 Y12.2360
G01 X49.3896 Y12.2510
G01 X49.3918 Y12.2659
G01 X49.3954 Y12.2805
G01 X49.4005 Y12.2946
G01 X49.4069 Y12.3082
G01 X49.4147 Y12.3211
G01 X49.4236 Y12.3332
G01 X49.4337 Y12.3443
G01 X49.4448 Y12.3544
G01 X49.4569 Y12.3633
G01 X49.4698 Y12.3711
G01 X49.4834 Y12.3775
G01 X49.4975 Y12.3826
G01 X49.5121 Y12.3862
G01 X49.5270 Y12.3884
G01 X49.5420 Y12.3892
G01 X49.5570 Y12.3884
G01 X49.5719 Y12.3862
G01 X49.5865 Y12.3826
G01 X49.6006 Y12.3775
G01 X49.6142 Y12.3711
G01 X49.6271 Y12.3633
G01 X49.6392 Y12.3544
G01 X49.6503 Y12.3443
G01 X49.6604 Y12.3332
G01 X49.6693 Y12.3211
G01 X49.6771 Y12.3082
G01 X49.6835 Y12.2946
G01 X49.6886 Y12.2805
G01 X49.6922 Y12.2659
G01 X49.6944 Y12.2510
G01 X49.6951 Y12.2360
G00 Z2.0000
G00 X47.2242 Y17.0620
G01 F350.00
G01 Z-2.1000
G01 F400.00
G01 X47.2212 Y17.0029
G01 X47.2126 Y16.9443
G01 X47.1982 Y16.8869
G01 X47.1782 Y16.8312
G01 X47.1529 Y16.7777
G01 X47.1225 Y16.7269
G01 X47.0872 Y16.6794
G01 X47.0475 Y16.6355
G01 X47.0036 Y16.5958
G01 X46.9561 Y16.5605
G01 X46.9053 Y16.5301
G01 X46.8518 Y16.5048
G01 X46.7961 Y16.4848
G01 X46.7387 Y16.4704
G01 X46.6801 Y16.4618
G01 X46.6210 Y16.4589
G01 X46.5619 Y16.4618
G01 X46.5033 Y16.4704
G01 X46.4459 Y16.4848
G01 X46.3902 Y16.5048
G01 X46.3367 Y16.5301
G01 X46.2859 Y16.5605
G01 X46.2384 Y16.5958
G01 X46.1945 Y16.6355
G01 X46.1548 Y16.6794
G01 X46.1195 Y16.7269
G01 X46.0891 Y16.7777
G01 X46.0638 Y16.8312
G01 X46.0438 Y16.8869
G01 X46.0294 Y16.9443
G01 X46.0208 Y17.0029
G01 X46.0179 Y17.0620
G01 X46.0208 Y17.1211
G01 X46.0294 Y17.1797
G01 X46.0438 Y17.2371
G01 X46.0638 Y17.2928
G01 X46.0891 Y17.3463
G01 X46.1195 Y17.3971
G01 X46.1548 Y17.4446
G01 X46.1945 Y17.4885
G01 X46.2384 Y17.5282
G01 X46.2859 Y17.5635
G01 X46.3367 Y17.5939
G01 X46.3902 Y17.6192
G01 X46.4459 Y17.6392
G01 X46.5033 Y17.6536
G01 X46.5619 Y17.6622
G01 X46.6210 Y17.6652
G01 X46.6801 Y17.6622
G01 X46.7387 Y17.6536
G01 X46.7961 Y17.6392
G01 X46.8518 Y17.6192
G01 X46.9053 Y17.5939
G01 X46.9561 Y17.5635
G01 X47.0036 Y17.5282
G01 X47.0475 Y17.4885
G01 X47.0872 Y17.4446
G01 X47.1225 Y17.3971
G01 X47.1529 Y17.3463
G01 X47.1782 Y17.2928
G01 X47.1982 Y17.2371
G01 X47.2126 Y17.1797
G01 X47.2212 Y17.1211
G01 X47.2242 Y17.0620
G00 Z2.0000
G00 X39.8582 Y17.0620
G01 F350.00
G01 Z-2.1000
G01 F400.00
G01 X39.8552 Y17.0029
G01 X39.8466 Y16.9443
G01 X39.8322 Y16.8869
G01 X39.8122 Y16.8312
G01 X39.7869 Y16.7777
G01 X39.7565 Y16.7269
G01 X39.7212 Y16.6794
G01 X39.6815 Y16.6355
G01 X39.6376 Y16.5958
G01 X39.5901 Y16.5605
G01 X39.5393 Y16.5301
G01 X39.4858 Y16.5048
G01 X39.4301 Y16.4848
G01 X39.3727 Y16.4704
G01 X39.3141 Y16.4618
